public/luts/std cn.cube
TITLE "Generated by Resolve"
LUT_3D_SIZE 9
0.00784314 0.00784314 0.00784314
0.0887312 0.00784314 0
0.194125 0.0156863 0.00686656
0.298039 0.0210727 0.00146487
0.443137 0.0411841 0
0.598535 0.0710765 0
0.733333 0.0990158 0
0.844602 0.122057 0.00833143
0.909804 0.133333 0.0196078
0 0.103426 0.0416724
0.0765393 0.107912 0.0200351
0.189944 0.117281 0.018265
0.305577 0.12665 0.0115816
0.466423 0.139467 0
0.6318 0.16434 0
0.757595 0.172061 0.00489815
0.854475 0.179416 0.0117647
0.922057 0.178927 0.0220645
0.0137179 0.212741 0.120592
0.0623789 0.21973 0.101106
0.183581 0.230152 0.0941176
0.313481 0.236637 0.0850538
0.469612 0.246571 0.0558785
0.632837 0.255634 0.0328374
0.771817 0.261524 0.0161746
0.870344 0.267155 0.0203403
0.932357 0.262745 0.0362707
0.00392157 0.337255 0.200488
0.0401312 0.339086 0.186954
0.167895 0.346685 0.178805
0.307713 0.347433 0.16759
0.476463 0.353918 0.137987
0.649638 0.366293 0.12163
0.784314 0.376959 0.10515
0.870954 0.377142 0.0962692
0.939223 0.374502 0.111772
0 0.449012 0.270588
0.010544 0.460288 0.275975
0.123537 0.4598 0.246571
0.289708 0.471321 0.236759
0.460777 0.478431 0.216663
0.641428 0.498772 0.197299
0.783825 0.508339 0.188724
0.879408 0.511025 0.192157
0.943145 0.501961 0.201968
0 0.569116 0.342641
0 0.58088 0.341543
0.0283055 0.587259 0.317891
0.276158 0.601038 0.310903
0.467887 0.609552 0.288228
0.634379 0.622492 0.268132
0.781857 0.643259 0.264332
0.874815 0.65539 0.273228
0.93872 0.645106 0.286763
0 0.688243 0.393133
0 0.691173 0.396445
0 0.70515 0.37377
0.273289 0.709194 0.363729
0.47451 0.732357 0.346563
0.652445 0.746563 0.329168
0.76495 0.754894 0.322789
0.869368 0.77377 0.320836
0.928435 0.775494 0.346075
0 0.798535 0.424994
0 0.80209 0.420279
0 0.811643 0.4038
0.257176 0.823651 0.388724
0.466911 0.837507 0.372061
0.641306 0.854231 0.366979
0.76704 0.8663 0.360784
0.85275 0.86807 0.366049
0.910292 0.86569 0.38088
0 0.878431 0.439216
0 0.878431 0.436271
0 0.88922 0.431373
0 0.900496 0.421073
0.313726 0.915679 0.390188
0.556863 0.93872 0.371084
0.713726 0.947051 0.351965
0.824994 0.957351 0.345586
0.882353 0.960784 0.34902
0.0225528 0.0147097 0.0617685
0.090135 0.00827039 0.0352331
0.203677 0.0161746 0.0344396
0.316487 0.0233463 0.0194247
0.487495 0.0470588 0.0154421
0.645716 0.0757916 0.00588998
0.764218 0.0872511 0.00134279
0.853315 0.099443 0.00833143
0.925002 0.117159 0.0225528
0.00741588 0.107347 0.118135
0.0998245 0.11519 0.106874
0.199588 0.121569 0.0917678
0.314809 0.127214 0.0831464
0.470832 0.142458 0.0585489
0.634668 0.156207 0.0303502
0.766506 0.165042 0.0219883
0.85742 0.161822 0.0221866
0.928923 0.155825 0.0338293
0.0323491 0.222553 0.183948
0.107332 0.231327 0.178698
0.205264 0.230304 0.164279
0.332769 0.241443 0.151659
0.476158 0.254108 0.132967
0.641382 0.262715 0.100771
0.772915 0.2701 0.0836652
0.864988 0.267308 0.0754406
0.931746 0.267643 0.0911727
0.0272679 0.340688 0.246876
0.104921 0.349355 0.24625
0.189792 0.345357 0.229831
0.320058 0.352682 0.214359
0.471351 0.358953 0.18912
0.644938 0.373465 0.170016
0.778927 0.379477 0.152773
0.87718 0.380285 0.152041
0.938048 0.377264 0.162737
0 0.458579 0.309316
0.0291905 0.472984 0.314763
0.160296 0.470893 0.295766
0.301595 0.4804 0.276417
0.476844 0.47953 0.25539
0.647608 0.501839 0.236362
0.786282 0.51519 0.231495
0.889982 0.520806 0.241886
0.945586 0.510292 0.249027
0 0.587747 0.378058
0 0.592126 0.379171
0.125856 0.600793 0.3626
0.289525 0.605249 0.347616
0.471077 0.62031 0.323247
0.644327 0.630274 0.308034
0.775708 0.648035 0.297154
0.879835 0.660609 0.312398
0.943816 0.65803 0.331868
0 0.698772 0.435294
0 0.708949 0.438987
0.0431067 0.713542 0.411826
0.293339 0.725307 0.395727
0.47335 0.736706 0.376043
0.656138 0.749401 0.359197
0.769512 0.762188 0.35613
0.874403 0.776257 0.362066
0.937133 0.780758 0.388968
0 0.801648 0.472618
0 0.806424 0.468452
0 0.811627 0.435004
0.288792 0.82536 0.425513
0.481865 0.842863 0.409842
0.649012 0.852872 0.392584
0.769848 0.867658 0.395758
0.858778 0.872923 0.396887
0.916732 0.875975 0.414405
0 0.87451 0.470588
0 0.882414 0.462257
0 0.889708 0.446937
0 0.900374 0.432532
0.328435 0.917647 0.407599
0.565438 0.934615 0.39118
0.722545 0.953063 0.373404
0.824933 0.960784 0.367651
0.882353 0.957351 0.368139
0.0352941 0.0166629 0.136278
0.109804 0.0175174 0.121447
0.21323 0.0164187 0.106371
0.328191 0.0360266 0.0952163
0.492164 0.0647135 0.0828412
0.648035 0.0849317 0.0635996
0.771572 0.0982834 0.0482795
0.862135 0.112993 0.0500038
0.932357 0.120592 0.0686198
0.0338293 0.119615 0.19559
0.110842 0.123751 0.187808
0.21088 0.133486 0.175402
0.332006 0.150149 0.170001
0.471626 0.160235 0.142458
0.633982 0.175204 0.114824
0.76994 0.181064 0.0986191
0.862928 0.177691 0.0908827
0.932113 0.163607 0.0941176
0.0654459 0.236027 0.255634
0.128649 0.235935 0.25301
0.221012 0.244724 0.244297
0.33637 0.24889 0.227573
0.484062 0.262501 0.206867
0.640894 0.27396 0.181735
0.776471 0.282231 0.167102
0.873106 0.284627 0.156893
0.937987 0.274266 0.170596
0.0569924 0.348409 0.302937
0.123919 0.34876 0.306523
0.220706 0.353704 0.302602
0.332616 0.351431 0.277684
0.497429 0.368811 0.266789
0.658198 0.384085 0.245701
0.790097 0.394614 0.237598
0.879408 0.397757 0.232044
0.946075 0.393256 0.246815
0 0.46862 0.371572
0.0705882 0.475486 0.371878
0.208209 0.478187 0.370214
0.321935 0.483085 0.349386
0.489464 0.493385 0.327443
0.657908 0.511208 0.316304
0.796933 0.527581 0.314458
0.888243 0.530632 0.319295
0.952941 0.524514 0.33138
0 0.589212 0.443137
0.0132143 0.603479 0.441474
0.210422 0.608728 0.439643
0.326787 0.612421 0.410605
0.493141 0.629099 0.398413
0.656458 0.63859 0.3776
0.798779 0.655787 0.382132
0.888273 0.665156 0.389563
0.948165 0.667521 0.413108
0 0.700008 0.489219
0 0.716793 0.497612
0.204227 0.718685 0.492287
0.331838 0.733211 0.464683
0.491905 0.741665 0.448402
0.666178 0.759716 0.434318
0.780575 0.764706 0.434806
0.877821 0.783246 0.434531
0.940932 0.786282 0.457603
0 0.805508 0.532479
0 0.810147 0.529259
0.186801 0.813352 0.518959
0.314855 0.827863 0.493111
0.496757 0.844907 0.48101
0.663676 0.857679 0.470192
0.781613 0.867979 0.467002
0.865614 0.877058 0.471153
0.920958 0.8766 0.484321
0 0.879408 0.531365
0 0.879774 0.527077
0 0.887739 0.520836
0 0.90135 0.480522
0.346075 0.919615 0.460288
0.58088 0.940078 0.447547
0.729412 0.952941 0.420096
0.829664 0.967163 0.428428
0.898039 0.960784 0.436271
0.0652018 0.0220645 0.223041
0.130571 0.019913 0.211582
0.222797 0.0242618 0.189822
0.346746 0.0441138 0.182345
0.49485 0.0823529 0.16936
0.656428 0.105882 0.156191
0.772305 0.109804 0.142641
0.86421 0.120287 0.134798
0.93579 0.131868 0.154894
0.0637217 0.131685 0.278309
0.128664 0.137926 0.273899
0.227085 0.150362 0.264622
0.337514 0.155947 0.249332
0.479805 0.173831 0.226627
0.645945 0.187762 0.205005
0.77731 0.198215 0.195956
0.867414 0.195499 0.180072
0.939651 0.187381 0.190326
0.0915389 0.250126 0.342275
0.139376 0.243961 0.335393
0.231739 0.253132 0.329015
0.338598 0.256458 0.300969
0.491295 0.270771 0.28983
0.651102 0.286809 0.269459
0.782101 0.296941 0.254566
0.876616 0.301793 0.253956
0.943755 0.297185 0.2598
0.0821698 0.357168 0.39498
0.134844 0.362036 0.389715
0.235904 0.360647 0.381048
0.352026 0.367407 0.367285
0.50135 0.379965 0.347616
0.661967 0.393912 0.332174
0.799466 0.410147 0.328588
0.891478 0.414633 0.323217
0.950988 0.409125 0.337682
0.0208286 0.474998 0.451713
0.114183 0.48397 0.459129
0.231983 0.485359 0.446021
0.366018 0.493904 0.436515
0.512016 0.502571 0.410544
0.68397 0.526436 0.410788
0.807172 0.539528 0.405753
0.899809 0.545739 0.414618
0.959319 0.542153 0.418143
0 0.601587 0.515435
0.0916304 0.612284 0.518761
0.238788 0.612375 0.513603
0.383825 0.625055 0.50808
0.513024 0.636118 0.481987
0.678325 0.647837 0.462074
0.806607 0.669383 0.469535
0.899825 0.679988 0.484138
0.959869 0.676478 0.501411
0 0.708949 0.567407
0.079408 0.720012 0.569665
0.238331 0.722637 0.56495
0.397482 0.737514 0.559365
0.521996 0.750729 0.530205
0.685924 0.766155 0.518227
0.80177 0.775647 0.52343
0.893065 0.791241 0.526268
0.951476 0.791058 0.547433
0 0.818143 0.611643
0.00230411 0.813931 0.611429
0.240162 0.819928 0.60119
0.407797 0.832776 0.602274
0.530144 0.851774 0.570245
0.678874 0.865431 0.560601
0.798383 0.881376 0.557321
0.876005 0.886854 0.562219
0.935286 0.888243 0.56875
0 0.886275 0.607355
0 0.881376 0.595407
0 0.892775 0.594614
0.193988 0.901045 0.584375
0.396323 0.920836 0.54313
0.600366 0.944121 0.532845
0.739208 0.956374 0.520226
0.845411 0.964706 0.518929
0.901961 0.964706 0.527443
0.0980392 0.0372625 0.321569
0.148043 0.0328374 0.306127
0.246082 0.0387274 0.289708
0.36054 0.0593118 0.283818
0.505882 0.0960861 0.262745
0.662013 0.116182 0.24509
0.78677 0.13579 0.238239
0.8701 0.137499 0.227207
0.94313 0.145098 0.24509
0.0926528 0.157351 0.384314
0.156374 0.159838 0.379477
0.246509 0.163668 0.365072
0.351995 0.171603 0.345037
0.48983 0.180636 0.32047
0.652873 0.200244 0.297856
0.783703 0.213535 0.286091
0.872587 0.21323 0.278889
0.941176 0.212741 0.28603
0.111269 0.251469 0.436271
0.161151 0.256245 0.431678
0.24596 0.260533 0.415564
0.361456 0.266972 0.399207
0.49485 0.2701 0.372549
0.66128 0.297612 0.365072
0.797421 0.310292 0.352819
0.887129 0.313726 0.355093
0.948531 0.31519 0.359808
0.104906 0.365927 0.490684
0.165774 0.370336 0.489555
0.252567 0.370779 0.476783
0.374228 0.380362 0.462715
0.515938 0.387015 0.436515
0.674998 0.416602 0.432593
0.802518 0.427085 0.424384
0.896757 0.432593 0.423804
0.952697 0.425498 0.430152
0.0892195 0.490196 0.551965
0.147921 0.492287 0.547311
0.259556 0.497551 0.539712
0.386648 0.504906 0.527321
0.536278 0.517159 0.507851
0.695705 0.541665 0.506493
0.821073 0.557839 0.502205
0.909682 0.568505 0.510903
0.959808 0.558831 0.507851
0.056611 0.614221 0.61471
0.146441 0.615686 0.608637
0.270527 0.6215 0.601587
0.406958 0.628519 0.58735
0.549264 0.64387 0.574762
0.700984 0.657877 0.559167
0.827939 0.685786 0.576715
0.913146 0.694759 0.582483
0.97084 0.692897 0.594858
0.0421607 0.722545 0.665202
0.14725 0.728923 0.663172
0.280018 0.735164 0.656992
0.431495 0.743816 0.649516
0.577935 0.762249 0.637995
0.706859 0.773709 0.619852
0.822553 0.781491 0.615686
0.90692 0.797116 0.628367
0.967163 0.808331 0.649516
0.0024567 0.819608 0.707347
0.145403 0.822095 0.703929
0.28867 0.830396 0.701534
0.444419 0.84651 0.698619
0.583459 0.856245 0.678309
0.707408 0.875883 0.670008
0.814649 0.884932 0.662501
0.896574 0.889464 0.664714
0.955154 0.897551 0.669367
0 0.884321 0.713726
0 0.888487 0.710048
0 0.896086 0.702449
0.263966 0.909072 0.692897
0.489219 0.927459 0.67451
0.63946 0.947066 0.655879
0.774502 0.959319 0.646082
0.869368 0.970581 0.641428
0.923537 0.972549 0.649012
0.125978 0.057847 0.432349
0.172732 0.0601053 0.425177
0.268254 0.0633555 0.400977
0.375494 0.0871901 0.38088
0.508583 0.111269 0.358831
0.665568 0.128801 0.33959
0.787259 0.141543 0.325978
0.870466 0.154711 0.314702
0.941176 0.163729 0.335302
0.122423 0.169299 0.486275
0.172885 0.165789 0.475395
0.260136 0.172015 0.458824
0.369146 0.184741 0.439277
0.504906 0.192004 0.410452
0.65774 0.210147 0.390707
0.783963 0.224689 0.377707
0.881056 0.231846 0.373404
0.945403 0.233585 0.381369
0.130877 0.264454 0.534066
0.179553 0.266972 0.52668
0.266575 0.273686 0.508888
0.37435 0.275532 0.4972
0.515129 0.29044 0.46894
0.666926 0.304997 0.449546
0.803433 0.32285 0.442527
0.891234 0.332708 0.442618
0.951965 0.336278 0.450004
0.13431 0.376104 0.580453
0.190372 0.3794 0.581613
0.276143 0.384543 0.567651
0.394751 0.390188 0.556725
0.537072 0.403677 0.533364
0.682292 0.412009 0.516915
0.816342 0.443137 0.514199
0.902983 0.450187 0.51426
0.955947 0.449577 0.517647
0.129168 0.497063 0.64387
0.183001 0.505791 0.641245
0.288426 0.515999 0.636332
0.409812 0.516396 0.617609
0.559564 0.536156 0.605753
0.707256 0.547707 0.588663
0.828428 0.576043 0.595346
0.916518 0.579812 0.592554
0.974517 0.577935 0.600977
0.123964 0.627451 0.707912
0.185657 0.630823 0.706569
0.292714 0.633738 0.694453
0.433799 0.645396 0.686931
0.580148 0.656001 0.668009
0.721691 0.677958 0.663539
0.840452 0.698421 0.668391
0.924468 0.708568 0.674647
0.976104 0.708095 0.676661
0.136034 0.731868 0.760418
0.206332 0.739834 0.76083
0.3205 0.745037 0.753124
0.461631 0.75317 0.744945
0.606928 0.766796 0.731807
0.739269 0.785718 0.722484
0.84448 0.79501 0.715557
0.930068 0.814755 0.729793
0.977569 0.817517 0.743145
0.135973 0.829602 0.813596
0.208545 0.832532 0.808988
0.335821 0.841093 0.798444
0.473579 0.851865 0.790082
0.625269 0.866026 0.781735
0.739528 0.880278 0.769253
0.835889 0.888258 0.757259
0.912795 0.897627 0.761242
0.961761 0.900496 0.759136
0 0.894118 0.827939
0 0.899321 0.821759
0 0.905882 0.816785
0.330632 0.91519 0.808515
0.53579 0.928923 0.793378
0.691844 0.949569 0.779355
0.786404 0.965316 0.762997
0.892027 0.96997 0.76556
0.943633 0.972549 0.766171
0.156863 0.0833295 0.530388
0.198535 0.0916609 0.528069
0.286519 0.0933852 0.504173
0.392035 0.11667 0.482597
0.529412 0.129412 0.451469
0.671565 0.146929 0.428916
0.785534 0.155398 0.415686
0.877211 0.158083 0.402823
0.933333 0.156863 0.401953
0.144488 0.182101 0.568872
0.188495 0.186999 0.566186
0.285908 0.192065 0.548898
0.389761 0.199298 0.522225
0.524392 0.211948 0.50013
0.671183 0.220356 0.475639
0.789425 0.233433 0.462562
0.880598 0.241169 0.456565
0.947677 0.24155 0.458091
0.153674 0.282109 0.617639
0.204776 0.28101 0.611948
0.294057 0.290379 0.603616
0.403098 0.296544 0.583001
0.544244 0.309438 0.561273
0.678798 0.31722 0.531655
0.806561 0.330816 0.518318
0.892714 0.339147 0.518227
0.948531 0.338231 0.520836
0.167529 0.392523 0.671931
0.211002 0.402182 0.671656
0.298741 0.403861 0.654902
0.418036 0.411872 0.638697
0.564401 0.421256 0.617395
0.699443 0.43328 0.597314
0.819699 0.44535 0.585504
0.905043 0.453223 0.582116
0.962615 0.45478 0.584558
0.170596 0.512749 0.728435
0.220279 0.525124 0.727581
0.315679 0.521447 0.717159
0.443076 0.537438 0.702144
0.585046 0.544854 0.684565
0.719982 0.560113 0.666545
0.829282 0.572061 0.660166
0.922667 0.585534 0.666362
0.973037 0.58529 0.663722
0.172915 0.638605 0.789944
0.220111 0.643046 0.789944
0.329686 0.650462 0.778531
0.462577 0.661784 0.770397
0.60325 0.672358 0.75172
0.739879 0.692683 0.74197
0.849821 0.704356 0.738659
0.933944 0.727092 0.749233
0.981857 0.729534 0.754406
0.204898 0.755154 0.855879
0.254688 0.752819 0.846693
0.36495 0.762249 0.842954
0.50013 0.766705 0.82565
0.642405 0.782223 0.814832
0.760632 0.792706 0.799542
0.859373 0.813291 0.799451
0.938079 0.829786 0.808789
0.983337 0.828916 0.810544
0.218387 0.843992 0.902571
0.265248 0.841459 0.894179
0.37322 0.852659 0.887068
0.513268 0.861631 0.875425
0.65594 0.87451 0.866972
0.769985 0.884398 0.851225
0.855085 0.902266 0.847486
0.927321 0.904295 0.83415
0.976471 0.908339 0.843015
0 0.902937 0.927443
0 0.906249 0.920592
0.171084 0.911269 0.912016
0.381003 0.920348 0.90013
0.58088 0.932357 0.88922
0.736156 0.950118 0.876722
0.832105 0.970581 0.869612
0.907347 0.979416 0.86128
0.960784 0.977447 0.854902
0.193622 0.133333 0.624994
0.235721 0.130327 0.632837
0.317159 0.128191 0.589212
0.427451 0.1402 0.563729
0.559075 0.149264 0.532113
0.689097 0.165194 0.505699
0.796201 0.167285 0.495094
0.883818 0.179538 0.486824
0.937255 0.165194 0.475486
0.169482 0.201526 0.649943
0.20705 0.207248 0.647944
0.307973 0.214939 0.631769
0.423606 0.220768 0.61088
0.55407 0.230182 0.579477
0.683436 0.239628 0.543801
0.798871 0.245396 0.533059
0.884367 0.253483 0.528603
0.94081 0.242649 0.52163
0.171939 0.301595 0.699382
0.228016 0.303258 0.694072
0.318898 0.312932 0.680491
0.431647 0.321691 0.664485
0.57145 0.329229 0.631617
0.700847 0.34342 0.60705
0.8094 0.345312 0.591241
0.895628 0.351247 0.585367
0.955398 0.347799 0.586023
0.194797 0.415259 0.748043
0.246494 0.419501 0.743923
0.334386 0.425193 0.73257
0.455985 0.434379 0.715511
0.594919 0.440436 0.695094
0.726024 0.457237 0.673457
0.82858 0.459037 0.656611
0.907225 0.466072 0.648722
0.963607 0.462135 0.65153
0.20882 0.537499 0.80882
0.253864 0.538659 0.800427
0.352453 0.545464 0.793561
0.474601 0.560357 0.777417
0.616297 0.56997 0.762615
0.745617 0.581033 0.74583
0.84651 0.591974 0.728923
0.924697 0.591058 0.724514
0.972793 0.592157 0.722545
0.235966 0.662257 0.869001
0.279225 0.664958 0.867323
0.380392 0.674311 0.857191
0.50132 0.681086 0.841123
0.643778 0.693538 0.82858
0.763027 0.70399 0.815198
0.857404 0.716121 0.805249
0.933806 0.717037 0.797909
0.983154 0.725124 0.799146
0.274998 0.760784 0.918502
0.321996 0.769512 0.918898
0.419089 0.775891 0.912871
0.53434 0.780972 0.897765
0.671199 0.796201 0.886824
0.776883 0.804562 0.868757
0.867704 0.814282 0.8636
0.937911 0.819974 0.857374
0.989212 0.837507 0.862257
0.299016 0.856794 0.962676
0.340688 0.857618 0.963333
0.431662 0.861555 0.957366
0.550027 0.872526 0.949599
0.676753 0.884092 0.932876
0.78912 0.89575 0.917327
0.875242 0.903426 0.915389
0.941405 0.914763 0.911223
0.984802 0.916121 0.914763
0.00784314 0.913725 0.988724
0.140627 0.914214 0.988296
0.30576 0.920836 0.983459
0.463233 0.928069 0.980514
0.626719 0.94313 0.970581
0.762737 0.957229 0.954101
0.859312 0.971695 0.941787
0.92604 0.980453 0.937804
0.966171 0.980392 0.93431
0.270588 0.176471 0.709804
0.339712 0.19559 0.728923
0.457847 0.195102 0.713726
0.536767 0.197543 0.673533
0.641184 0.20589 0.641184
0.753918 0.21323 0.622065
0.835294 0.215686 0.606867
0.902937 0.211765 0.59559
0.94902 0.207843 0.584314
0.261769 0.255879 0.747066
0.310964 0.257298 0.747494
0.414221 0.277333 0.739834
0.528984 0.287922 0.717342
0.628428 0.290929 0.681865
0.754406 0.308339 0.6701
0.838239 0.314214 0.655879
0.907225 0.297063 0.628305
0.956863 0.296071 0.634318
0.278431 0.369604 0.80589
0.329656 0.367285 0.793256
0.418875 0.377935 0.78407
0.518257 0.379171 0.756252
0.650492 0.398047 0.740688
0.763363 0.405509 0.71397
0.850004 0.407599 0.699504
0.918135 0.398779 0.685664
0.958831 0.39411 0.67451
0.298528 0.473533 0.849027
0.333516 0.471565 0.835477
0.430884 0.479286 0.830762
0.547494 0.492149 0.8103
0.666178 0.501228 0.792889
0.773037 0.511147 0.773526
0.862989 0.515312 0.760296
0.922545 0.512688 0.743755
0.975006 0.497551 0.736767
0.329412 0.582361 0.896086
0.375738 0.597543 0.901717
0.451957 0.594614 0.883818
0.559808 0.604166 0.867643
0.690196 0.617639 0.853925
0.789456 0.624262 0.837751
0.871565 0.630884 0.822065
0.939208 0.62916 0.809812
0.984314 0.623529 0.801953
0.375494 0.700008 0.952941
0.407294 0.698711 0.944427
0.4804 0.706004 0.936889
0.587625 0.721447 0.923903
0.707591 0.725246 0.91078
0.803128 0.730083 0.887373
0.879774 0.73959 0.878309
0.945769 0.743511 0.871748
0.9897 0.736278 0.86569
0.41471 0.790188 0.986282
0.444846 0.788968 0.978683
0.515938 0.795102 0.97084
0.619852 0.80882 0.966171
0.71667 0.815686 0.949508
0.812497 0.822553 0.937865
0.887984 0.828672 0.927703
0.943008 0.834684 0.916426
0.99118 0.829419 0.91078
0.411276 0.868132 0.992645
0.456489 0.871077 0.992157
0.517769 0.87512 0.988602
0.610605 0.883513 0.984497
0.717403 0.895338 0.98677
0.81091 0.905516 0.974319
0.888121 0.911147 0.975128
0.946075 0.915618 0.961273
0.981369 0.91519 0.949996
0.317647 0.921569 0.996078
0.363729 0.92549 0.99559
0.452949 0.933333 0.996078
0.562737 0.939712 0.996078
0.694118 0.94902 0.992157
0.79559 0.962249 0.992157
0.878431 0.970581 0.988235
0.941665 0.976471 0.980392
0.984314 0.980392 0.980392
