public/luts/std cn.cube
TITLE "Generated by Resolve"
LUT_3D_SIZE 5
0.00784314 0.00784314 0.00784314
0.194125 0.0156863 0.00686656
0.443137 0.0411841 0
0.733333 0.0990158 0
0.909804 0.133333 0.0196078
0.0137179 0.212741 0.120592
0.183581 0.230152 0.0941176
0.469612 0.246571 0.0558785
0.771817 0.261524 0.0161746
0.932357 0.262745 0.0362707
0 0.449012 0.270588
0.123537 0.4598 0.246571
0.460777 0.478431 0.216663
0.783825 0.508339 0.188724
0.943145 0.501961 0.201968
0 0.688243 0.393133
0 0.70515 0.37377
0.47451 0.732357 0.346563
0.76495 0.754894 0.322789
0.928435 0.775494 0.346075
0 0.878431 0.439216
0 0.88922 0.431373
0.313726 0.915679 0.390188
0.713726 0.947051 0.351965
0.882353 0.960784 0.34902
0.0352941 0.0166629 0.136278
0.21323 0.0164187 0.106371
0.492164 0.0647135 0.0828412
0.771572 0.0982834 0.0482795
0.932357 0.120592 0.0686198
0.0654459 0.236027 0.255634
0.221012 0.244724 0.244297
0.484062 0.262501 0.206867
0.776471 0.282231 0.167102
0.937987 0.274266 0.170596
0 0.46862 0.371572
0.208209 0.478187 0.370214
0.489464 0.493385 0.327443
0.796933 0.527581 0.314458
0.952941 0.524514 0.33138
0 0.700008 0.489219
0.204227 0.718685 0.492287
0.491905 0.741665 0.448402
0.780575 0.764706 0.434806
0.940932 0.786282 0.457603
0 0.879408 0.531365
0 0.887739 0.520836
0.346075 0.919615 0.460288
0.729412 0.952941 0.420096
0.898039 0.960784 0.436271
0.0980392 0.0372625 0.321569
0.246082 0.0387274 0.289708
0.505882 0.0960861 0.262745
0.78677 0.13579 0.238239
0.94313 0.145098 0.24509
0.111269 0.251469 0.436271
0.24596 0.260533 0.415564
0.49485 0.2701 0.372549
0.797421 0.310292 0.352819
0.948531 0.31519 0.359808
0.0892195 0.490196 0.551965
0.259556 0.497551 0.539712
0.536278 0.517159 0.507851
0.821073 0.557839 0.502205
0.959808 0.558831 0.507851
0.0421607 0.722545 0.665202
0.280018 0.735164 0.656992
0.577935 0.762249 0.637995
0.822553 0.781491 0.615686
0.967163 0.808331 0.649516
0 0.884321 0.713726
0 0.896086 0.702449
0.489219 0.927459 0.67451
0.774502 0.959319 0.646082
0.923537 0.972549 0.649012
0.156863 0.0833295 0.530388
0.286519 0.0933852 0.504173
0.529412 0.129412 0.451469
0.785534 0.155398 0.415686
0.933333 0.156863 0.401953
0.153674 0.282109 0.617639
0.294057 0.290379 0.603616
0.544244 0.309438 0.561273
0.806561 0.330816 0.518318
0.948531 0.338231 0.520836
0.170596 0.512749 0.728435
0.315679 0.521447 0.717159
0.585046 0.544854 0.684565
0.829282 0.572061 0.660166
0.973037 0.58529 0.663722
0.204898 0.755154 0.855879
0.36495 0.762249 0.842954
0.642405 0.782223 0.814832
0.859373 0.813291 0.799451
0.983337 0.828916 0.810544
0 0.902937 0.927443
0.171084 0.911269 0.912016
0.58088 0.932357 0.88922
0.832105 0.970581 0.869612
0.960784 0.977447 0.854902
0.270588 0.176471 0.709804
0.457847 0.195102 0.713726
0.641184 0.20589 0.641184
0.835294 0.215686 0.606867
0.94902 0.207843 0.584314
0.278431 0.369604 0.80589
0.418875 0.377935 0.78407
0.650492 0.398047 0.740688
0.850004 0.407599 0.699504
0.958831 0.39411 0.67451
0.329412 0.582361 0.896086
0.451957 0.594614 0.883818
0.690196 0.617639 0.853925
0.871565 0.630884 0.822065
0.984314 0.623529 0.801953
0.41471 0.790188 0.986282
0.515938 0.795102 0.97084
0.71667 0.815686 0.949508
0.887984 0.828672 0.927703
0.99118 0.829419 0.91078
0.317647 0.921569 0.996078
0.452949 0.933333 0.996078
0.694118 0.94902 0.992157
0.878431 0.970581 0.988235
0.984314 0.980392 0.980392
