public/luts/std cn.cube
TITLE "Generated by Resolve"
LUT_3D_SIZE 33
0.00784314 0.00784314 0.00784314
0.0310063 0.0116426 0.00404364
0.0463264 0.0115206 0
0.0659342 0.00820935 0
0.0887312 0.00784314 0
0.111269 0.00784314 0
0.13579 0.0110323 0
0.169116 0.0156863 0.00306706
0.194125 0.0156863 0.00686656
0.210178 0.0185092 0.00392157
0.232837 0.0156863 0.00392157
0.263844 0.0196078 0.00392157
0.298039 0.0210727 0.00146487
0.325368 0.0235294 0
0.359564 0.0318608 0
0.39498 0.033463 0
0.443137 0.0411841 0
0.489464 0.0486458 0
0.532845 0.0553902 0
0.563241 0.0580911 0
0.598535 0.0710765 0
0.634195 0.0745098 0
0.675486 0.0874952 0
0.706371 0.0941176 0
0.733333 0.0990158 0
0.765072 0.106737 0.00392157
0.794369 0.114458 0.004654
0.814832 0.118257 0.00784314
0.844602 0.122057 0.00833143
0.859922 0.125856 0.0121309
0.882597 0.125978 0.0156863
0.890684 0.129534 0.0158083
0.909804 0.133333 0.0196078
0.00404364 0.0310063 0.0116426
0.0194858 0.0308843 0.0115206
0.0420539 0.0382391 0.0112917
0.0652018 0.0351873 0.00462348
0.0844587 0.0314946 0.000946059
0.11519 0.034226 0.00384527
0.134279 0.0379187 0.00688182
0.162203 0.0366522 0.00994888
0.189303 0.0417639 0.00790417
0.211307 0.0482338 0.00511177
0.230518 0.0439155 0.00392157
0.254978 0.042771 0.00392157
0.292271 0.0467994 0.00392157
0.325521 0.0528725 0.00384527
0.362112 0.056611 0.00166323
0.400549 0.0644541 0
0.445106 0.0661784 0
0.499245 0.0742657 0
0.535866 0.0781109 0
0.570275 0.0835737 0
0.604852 0.0889601 0
0.643336 0.0913863 0
0.686839 0.102739 0
0.711833 0.105547 0
0.741909 0.11342 0.000976577
0.771908 0.117494 0.00392157
0.798947 0.122179 0.00784314
0.821439 0.129885 0.00784314
0.836881 0.133577 0.00843824
0.856687 0.133928 0.0121157
0.875364 0.137011 0.0156863
0.890684 0.137255 0.0158083
0.917769 0.141176 0.0197299
0.00392157 0.0504921 0.0159304
0.0118868 0.05037 0.0154421
0.023743 0.0610666 0.0188907
0.0642863 0.0584268 0.0189212
0.0811322 0.0615854 0.0115206
0.109926 0.0612345 0.0148623
0.134554 0.0612802 0.0110323
0.164904 0.0656291 0.015198
0.185412 0.0652018 0.0117647
0.210239 0.0688945 0.0117647
0.233982 0.0649577 0.00662242
0.258854 0.0699321 0.00776684
0.290745 0.0783703 0.00769055
0.328115 0.0796368 0.00759899
0.366003 0.0872511 0.00552377
0.407858 0.0912947 0
0.458091 0.0990158 0
0.497078 0.101091 0
0.54377 0.101045 0
0.574975 0.105104 0
0.616114 0.116518 0
0.653468 0.111971 0
0.694438 0.119524 0.00114443
0.72285 0.124758 0.00367742
0.74583 0.125063 0.000976577
0.776791 0.131991 0.0047303
0.809064 0.13431 0.00784314
0.824582 0.140719 0.0084535
0.840894 0.141421 0.00854505
0.862669 0.148211 0.0121157
0.875242 0.148302 0.0122377
0.890806 0.144961 0.0158083
0.921324 0.14902 0.0196078
0 0.0769665 0.0235294
0.0111696 0.0703136 0.0231785
0.0230411 0.0807813 0.0234989
0.0505379 0.0809796 0.0193027
0.0772869 0.0843671 0.0154116
0.106798 0.0846113 0.0156863
0.127581 0.0838331 0.0150149
0.162493 0.087953 0.0192416
0.18085 0.0854505 0.0129244
0.21091 0.0903639 0.0156863
0.226505 0.0892348 0.00895705
0.259464 0.094255 0.00796521
0.292775 0.100359 0.00784314
0.325521 0.101015 0.00784314
0.363577 0.107195 0.00526436
0.405051 0.11078 0.0037232
0.450614 0.120104 0.00177005
0.499336 0.128313 0
0.537667 0.129702 0
0.579065 0.133745 0
0.619852 0.139712 0
0.654536 0.142153 0
0.69192 0.143603 0.00366217
0.72398 0.144839 0.00366217
0.750607 0.151293 0.00364691
0.78146 0.154818 0.0049897
0.806058 0.153246 0.00784314
0.82536 0.163043 0.0084535
0.847669 0.163607 0.0117647
0.863447 0.167193 0.0121004
0.878553 0.164172 0.0156863
0.894347 0.163241 0.0157931
0.921202 0.167529 0.0196078
0 0.103426 0.0416724
0.00381476 0.104036 0.0311131
0.0189364 0.107103 0.0306401
0.0549935 0.107393 0.0235294
0.0765393 0.107912 0.0200351
0.109178 0.107927 0.0225071
0.130724 0.111757 0.0202487
0.164584 0.11545 0.0252232
0.189944 0.117281 0.018265
0.207965 0.113222 0.0156863
0.237751 0.118441 0.011429
0.269322 0.123201 0.0117647
0.305577 0.12665 0.0115816
0.340887 0.127749 0.0114748
0.379629 0.134798 0.0107271
0.422797 0.139208 0.00602731
0.466423 0.139467 0
0.516045 0.15465 0.00181582
0.549783 0.156619 0
0.598581 0.164782 0
0.6318 0.16434 0
0.668696 0.168917 0.00149538
0.696239 0.167895 0.00358587
0.733318 0.17023 0.00357061
0.757595 0.172061 0.00489815
0.78323 0.176135 0.00773632
0.813291 0.173495 0.0116732
0.835172 0.1823 0.0146639
0.854475 0.179416 0.0117647
0.874052 0.180011 0.0155184
0.888487 0.179385 0.015198
0.903655 0.182361 0.0186313
0.922057 0.178927 0.0220645
0 0.127581 0.0437476
0.000595102 0.130159 0.0458686
0.0121004 0.131624 0.0426947
0.0365301 0.125444 0.0389105
0.0770886 0.131838 0.037995
0.10013 0.137789 0.0346838
0.128435 0.135424 0.0333257
0.156756 0.13344 0.0242466
0.186496 0.141817 0.023743
0.212894 0.139513 0.0250248
0.234928 0.141421 0.0218814
0.271473 0.146441 0.0201267
0.308217 0.150011 0.0169223
0.339712 0.152804 0.0150759
0.377188 0.155108 0.0165255
0.416632 0.158984 0.00910964
0.463661 0.166476 0.00949111
0.509071 0.169238 0.00474556
0.555535 0.177798 0.00357061
0.591913 0.182483 0.00196841
0.634806 0.183948 0
0.671321 0.190723 0.00154116
0.703975 0.189273 0.00392157
0.736645 0.194064 0.00767529
0.760937 0.197024 0.00753796
0.788128 0.194858 0.00856031
0.816541 0.19559 0.0117647
0.840436 0.204364 0.0150759
0.86067 0.199237 0.0156863
0.875563 0.199145 0.0160525
0.896895 0.201923 0.0188296
0.909941 0.202594 0.0197299
0.929412 0.206622 0.027451
0 0.15465 0.0644541
0 0.157641 0.0611734
0.0103914 0.154452 0.0573587
0.0383459 0.155993 0.0576486
0.0652934 0.152361 0.0543221
0.104387 0.152575 0.051133
0.127337 0.155398 0.0396735
0.159228 0.157427 0.0378729
0.186709 0.164279 0.0383612
0.210376 0.165728 0.033341
0.239231 0.167208 0.0380255
0.270436 0.170596 0.0305028
0.305364 0.173983 0.0238041
0.344518 0.180819 0.0223392
0.379156 0.180713 0.0201724
0.419455 0.184344 0.0152895
0.4663 0.189944 0.0149538
0.510002 0.195514 0.0138552
0.547311 0.199924 0.0110323
0.588495 0.203311 0.00840772
0.626505 0.207111 0.0039826
0.669612 0.210773 0.00183108
0.707042 0.21471 0.00611887
0.736843 0.215106 0.00784314
0.767468 0.216602 0.00802625
0.788479 0.215076 0.00869764
0.815305 0.214954 0.0117647
0.844358 0.221942 0.0150607
0.861036 0.221317 0.0156863
0.878569 0.221393 0.0160525
0.89456 0.218143 0.0189212
0.913283 0.22208 0.0235447
0.933333 0.223529 0.0281834
0 0.174762 0.0845655
0 0.182803 0.0819867
0.0111391 0.181125 0.0800183
0.033463 0.177813 0.0738537
0.0627909 0.187274 0.0753796
0.0966049 0.182086 0.0717327
0.123705 0.184649 0.0685893
0.157351 0.187579 0.0658122
0.182132 0.198016 0.0668498
0.209201 0.191684 0.0601663
0.244358 0.201373 0.0622721
0.269978 0.201831 0.0566415
0.306905 0.199878 0.0487984
0.344442 0.202747 0.0464637
0.376211 0.207568 0.0449683
0.420188 0.211017 0.0380255
0.464714 0.216175 0.0311894
0.509712 0.220752 0.0294499
0.5505 0.222187 0.025742
0.583535 0.223056 0.0187533
0.630884 0.230182 0.0163272
0.670619 0.23328 0.010605
0.705715 0.236637 0.0100557
0.741054 0.239704 0.012253
0.767224 0.237751 0.00805676
0.797986 0.239704 0.0117647
0.821622 0.240558 0.0149538
0.844007 0.246342 0.0175479
0.861906 0.23949 0.0165408
0.882597 0.240558 0.0168307
0.896681 0.243244 0.0196078
0.914824 0.238422 0.0235599
0.934188 0.24535 0.0283055
0.0137179 0.212741 0.120592
0.00900282 0.215595 0.112078
0.0151369 0.222187 0.112261
0.0385443 0.215778 0.102235
0.0623789 0.21973 0.101106
0.0949721 0.2215 0.0989548
0.127947 0.223529 0.102388
0.154711 0.227573 0.0979171
0.183581 0.230152 0.0941176
0.216175 0.227298 0.091722
0.243198 0.232105 0.0898299
0.280201 0.236912 0.0895247
0.313481 0.236637 0.0850538
0.347341 0.233707 0.0727703
0.384558 0.237812 0.0659953
0.420737 0.238941 0.0621653
0.469612 0.246571 0.0558785
0.514885 0.245228 0.0476997
0.555459 0.248646 0.0462654
0.593652 0.256062 0.0413367
0.632837 0.255634 0.0328374
0.673136 0.258457 0.0260777
0.711269 0.258213 0.0235904
0.743481 0.261646 0.025391
0.771817 0.261524 0.0161746
0.794491 0.263508 0.0184176
0.826902 0.260716 0.018204
0.849729 0.266819 0.0224002
0.870344 0.267155 0.0203403
0.882475 0.262928 0.0216526
0.90251 0.262745 0.0216983
0.917922 0.259892 0.0257115
0.932357 0.262745 0.0362707
0.0156863 0.239826 0.142885
0.0261387 0.247578 0.145571
0.0214542 0.254337 0.137072
0.0407721 0.251759 0.129122
0.0653391 0.253452 0.123156
0.0975204 0.255024 0.12372
0.130846 0.252781 0.125368
0.158694 0.251591 0.118257
0.187381 0.256336 0.119509
0.215991 0.254719 0.1131
0.24654 0.261448 0.109239
0.277684 0.259434 0.107836
0.319066 0.264378 0.103349
0.352499 0.263355 0.0935073
0.387366 0.266178 0.0928817
0.426474 0.267277 0.0825055
0.472862 0.274022 0.0776379
0.517494 0.277943 0.0712749
0.560418 0.278431 0.0674144
0.601663 0.283986 0.0612802
0.638361 0.282963 0.0514992
0.677913 0.281865 0.0465705
0.715007 0.283803 0.0437018
0.744793 0.286091 0.0359045
0.775219 0.290532 0.0364843
0.803433 0.289708 0.0376287
0.831495 0.29102 0.0365606
0.855192 0.291295 0.0428626
0.870741 0.290806 0.0355077
0.88983 0.288884 0.0381628
0.907332 0.285435 0.0359808
0.920867 0.283085 0.0413062
0.940078 0.286885 0.0544137
0.0156863 0.268376 0.161028
0.0311589 0.273167 0.162219
0.0340734 0.283726 0.161028
0.0361791 0.281621 0.153445
0.065507 0.280079 0.148684
0.0943313 0.281559 0.148425
0.12163 0.279438 0.146105
0.15169 0.277714 0.141695
0.181979 0.281315 0.137804
0.216083 0.280659 0.133089
0.251011 0.283055 0.131334
0.277806 0.284276 0.126574
0.320897 0.286061 0.122057
0.359167 0.288106 0.118257
0.394308 0.290776 0.114794
0.433585 0.29102 0.10454
0.470588 0.295583 0.0962081
0.524178 0.306172 0.0946517
0.569711 0.306767 0.0881819
0.611765 0.308324 0.0842908
0.648463 0.305821 0.0749676
0.684321 0.308827 0.0674601
0.717159 0.312291 0.0629892
0.752667 0.315022 0.0583047
0.776165 0.314641 0.0512245
0.807614 0.315709 0.0548257
0.840955 0.316213 0.0549477
0.859632 0.322866 0.059266
0.874571 0.318685 0.0571756
0.892882 0.314961 0.0538186
0.907515 0.312581 0.0526131
0.924636 0.308904 0.0592813
0.942397 0.31519 0.0666667
0.0131075 0.293996 0.175128
0.0323949 0.300328 0.18146
0.0345159 0.310857 0.178103
0.0388495 0.308339 0.173053
0.0541543 0.31107 0.169802
0.0877699 0.306981 0.168292
0.11397 0.306508 0.165194
0.141268 0.304311 0.158648
0.171603 0.313176 0.158053
0.206455 0.305898 0.148531
0.237858 0.308461 0.150362
0.271229 0.30837 0.145022
0.307408 0.314565 0.143877
0.351522 0.313603 0.136156
0.388678 0.318975 0.130373
0.422904 0.319524 0.125261
0.470527 0.320104 0.115557
0.516777 0.324025 0.107988
0.566445 0.33434 0.10985
0.603311 0.335546 0.107042
0.642008 0.337896 0.10248
0.677333 0.33962 0.0947127
0.718212 0.343175 0.0892348
0.747417 0.344503 0.0842298
0.777813 0.343069 0.0776989
0.805615 0.344945 0.0751507
0.839948 0.345708 0.0746471
0.858106 0.351888 0.0761578
0.86949 0.344976 0.0745556
0.888365 0.344488 0.076463
0.907713 0.345968 0.0783856
0.924422 0.339834 0.0784772
0.941176 0.346197 0.090074
0.00392157 0.337255 0.200488
0.0295415 0.337652 0.205829
0.0440223 0.345098 0.209552
0.0469062 0.339071 0.197208
0.0401312 0.339086 0.186954
0.0795148 0.345357 0.187518
0.107195 0.342458 0.185351
0.139345 0.343359 0.179461
0.167895 0.346685 0.178805
0.19939 0.339925 0.173861
0.236973 0.339055 0.172366
0.270939 0.339864 0.167178
0.307713 0.347433 0.16759
0.346807 0.348058 0.157961
0.389303 0.349264 0.15079
0.429068 0.354116 0.147143
0.476463 0.353918 0.137987
0.526192 0.35761 0.13164
0.566537 0.361791 0.12607
0.611399 0.368658 0.124407
0.649638 0.366293 0.12163
0.681727 0.370459 0.113237
0.718349 0.369329 0.110994
0.754406 0.372747 0.103624
0.784314 0.376959 0.10515
0.811399 0.374502 0.0966964
0.836027 0.375708 0.0968185
0.856016 0.379034 0.098146
0.870954 0.377142 0.0962692
0.891997 0.378286 0.102449
0.906126 0.370901 0.0966354
0.921447 0.373037 0.104051
0.939223 0.374502 0.111772
0 0.360662 0.218753
0.0130465 0.371466 0.225757
0.0223087 0.377798 0.229679
0.0476234 0.378302 0.224994
0.0339818 0.377935 0.21561
0.0579843 0.374517 0.207233
0.0929122 0.374716 0.202762
0.1299 0.374014 0.197665
0.161975 0.376349 0.199145
0.196521 0.371405 0.192401
0.239704 0.374243 0.19472
0.270771 0.372244 0.187198
0.311879 0.376196 0.186984
0.350484 0.375174 0.176776
0.385458 0.377325 0.169482
0.433463 0.380865 0.161868
0.482719 0.383825 0.159197
0.525841 0.388861 0.149401
0.568338 0.392721 0.145541
0.608042 0.395514 0.142641
0.649042 0.399145 0.141039
0.683574 0.400732 0.135836
0.724422 0.405158 0.133349
0.755108 0.40589 0.130144
0.787259 0.403647 0.124666
0.811276 0.404883 0.122301
0.837934 0.407004 0.119692
0.859312 0.412146 0.121569
0.875685 0.40708 0.118379
0.89929 0.410498 0.127047
0.916396 0.409064 0.124483
0.929656 0.401587 0.127077
0.942763 0.405386 0.134066
0 0.388724 0.235294
0 0.404654 0.245716
0.0016022 0.409873 0.249195
0.0217288 0.40499 0.242161
0.0314336 0.405173 0.23682
0.0353552 0.400839 0.2271
0.069688 0.404074 0.223606
0.106844 0.406622 0.21532
0.149203 0.405142 0.215015
0.1832 0.407111 0.214328
0.218097 0.410834 0.214954
0.257191 0.403769 0.209415
0.298222 0.40882 0.205234
0.340276 0.407034 0.198856
0.37966 0.406363 0.192859
0.416037 0.408927 0.184924
0.472541 0.412741 0.17438
0.514138 0.417472 0.166598
0.561578 0.424552 0.168154
0.599008 0.425208 0.159686
0.638758 0.43064 0.156374
0.677913 0.433539 0.155245
0.713329 0.436622 0.151385
0.746349 0.439445 0.149386
0.783825 0.434501 0.150607
0.808804 0.439338 0.14522
0.840101 0.442725 0.146715
0.861082 0.443992 0.148013
0.880919 0.442191 0.144366
0.893172 0.443915 0.146395
0.916426 0.438483 0.144259
0.929534 0.436744 0.151766
0.942885 0.434073 0.157351
0 0.414099 0.251225
0 0.427588 0.258946
0 0.431876 0.264591
0.00877394 0.427848 0.259022
0.0278325 0.430045 0.255406
0.0327611 0.429694 0.248127
0.0493629 0.429236 0.238361
0.09691 0.431678 0.235996
0.13753 0.432715 0.228153
0.174548 0.436027 0.231342
0.21323 0.440314 0.230182
0.251514 0.437781 0.22649
0.296498 0.438239 0.222995
0.34081 0.437385 0.216678
0.378592 0.438773 0.209918
0.417288 0.440818 0.205035
0.46746 0.443503 0.194369
0.517998 0.446311 0.185534
0.559426 0.452018 0.183749
0.599878 0.457237 0.178195
0.634974 0.457923 0.173312
0.681437 0.463966 0.170092
0.718791 0.467079 0.166796
0.750683 0.470161 0.16553
0.785412 0.469764 0.168414
0.814801 0.472511 0.166842
0.839933 0.473167 0.167819
0.862821 0.473243 0.167941
0.880766 0.472908 0.170733
0.896864 0.475166 0.170718
0.914107 0.467048 0.165209
0.929595 0.467094 0.174807
0.943008 0.463233 0.174884
0 0.449012 0.270588
0 0.454902 0.272541
0 0.456855 0.276341
0 0.46041 0.278065
0.010544 0.460288 0.275975
0.015259 0.45687 0.267582
0.0316167 0.462745 0.262623
0.0800793 0.460777 0.257725
0.123537 0.4598 0.246571
0.162005 0.463294 0.247059
0.200977 0.468757 0.246448
0.242893 0.469306 0.240558
0.289708 0.471321 0.236759
0.334371 0.476097 0.236088
0.375494 0.475608 0.230274
0.416541 0.478553 0.224323
0.460777 0.478431 0.216663
0.507912 0.48014 0.205875
0.553429 0.488853 0.205875
0.594247 0.487434 0.199573
0.641428 0.498772 0.197299
0.680644 0.499382 0.192767
0.719112 0.501839 0.188113
0.755398 0.510353 0.192157
0.783825 0.508339 0.188724
0.810422 0.511757 0.192584
0.836759 0.515312 0.193378
0.858701 0.518074 0.192157
0.879408 0.511025 0.192157
0.895399 0.509987 0.195895
0.91606 0.507591 0.19411
0.929717 0.499931 0.196201
0.943145 0.501961 0.201968
0 0.483696 0.28603
0 0.487861 0.291966
0 0.495201 0.295689
0 0.493828 0.296132
0 0.493416 0.293431
0.0103456 0.495384 0.293553
0.0113222 0.49662 0.284184
0.0374151 0.500435 0.274662
0.101961 0.496178 0.268315
0.148165 0.498222 0.269505
0.189548 0.502052 0.264912
0.228656 0.50341 0.261875
0.27483 0.507378 0.256809
0.319707 0.512093 0.251926
0.363897 0.514641 0.251911
0.410666 0.517281 0.244724
0.460792 0.514275 0.23505
0.512856 0.517281 0.230152
0.551492 0.52108 0.226627
0.603052 0.528313 0.21976
0.640192 0.532998 0.217105
0.681071 0.537804 0.213382
0.717983 0.539254 0.207431
0.7523 0.54641 0.211307
0.784131 0.549508 0.213886
0.812772 0.553887 0.216876
0.840299 0.55433 0.219013
0.860334 0.556085 0.215152
0.879652 0.557305 0.218891
0.900664 0.549996 0.219165
0.917906 0.546563 0.221088
0.931624 0.544549 0.225299
0.947188 0.54461 0.227207
0 0.514458 0.304906
0 0.520394 0.309712
0 0.5243 0.311055
0 0.524956 0.313466
0 0.523003 0.309529
0.0037232 0.522652 0.309316
0 0.530968 0.300496
0.0157015 0.530526 0.290944
0.0938125 0.528557 0.284688
0.144732 0.528435 0.283314
0.191135 0.534356 0.281178
0.234409 0.530632 0.276982
0.27715 0.537346 0.273289
0.32018 0.539498 0.267079
0.367895 0.54165 0.263432
0.417456 0.54519 0.261234
0.465568 0.544732 0.251102
0.520165 0.548836 0.245533
0.562478 0.551476 0.241413
0.606943 0.553552 0.231708
0.6477 0.562005 0.229816
0.686458 0.565988 0.226795
0.718669 0.569406 0.224109
0.757366 0.575006 0.22771
0.786831 0.578866 0.228244
0.811383 0.58381 0.231739
0.839292 0.586191 0.233997
0.860731 0.590295 0.234531
0.883177 0.588754 0.234592
0.902937 0.583612 0.237171
0.915709 0.575738 0.237369
0.925856 0.575082 0.242344
0.941176 0.577203 0.24828
0 0.542031 0.322423
0 0.549798 0.328603
0 0.557473 0.332357
0 0.554513 0.331716
0 0.552773 0.327947
0 0.553689 0.323415
0 0.559182 0.317205
0 0.559823 0.30811
0.0628672 0.557382 0.301625
0.130434 0.561929 0.301671
0.182986 0.563836 0.299626
0.227207 0.56611 0.296254
0.271473 0.567178 0.294453
0.311788 0.57203 0.286397
0.358541 0.578836 0.285863
0.40882 0.576593 0.277211
0.463111 0.576959 0.26949
0.515816 0.581262 0.2636
0.555718 0.583444 0.261189
0.599176 0.584344 0.25417
0.637125 0.591287 0.248493
0.681987 0.597482 0.243931
0.716075 0.600031 0.241077
0.750164 0.607431 0.242969
0.782315 0.6103 0.249271
0.807385 0.616709 0.249729
0.83212 0.618143 0.253437
0.853193 0.621195 0.248035
0.874388 0.620661 0.252277
0.891295 0.617105 0.251835
0.913878 0.615808 0.257542
0.924193 0.615686 0.2636
0.937987 0.6103 0.267521
0 0.569116 0.342641
0 0.573541 0.343648
0 0.580148 0.34725
0 0.577203 0.344137
0 0.58088 0.341543
0 0.583719 0.338323
0 0.5897 0.331334
0 0.589792 0.322744
0.0283055 0.587259 0.317891
0.123842 0.592615 0.31696
0.18143 0.594125 0.315648
0.226734 0.596429 0.312749
0.276158 0.601038 0.310903
0.31548 0.60441 0.304173
0.363058 0.609552 0.298772
0.414588 0.60856 0.294514
0.467887 0.609552 0.288228
0.515846 0.615106 0.284138
0.558083 0.617243 0.279561
0.595834 0.619989 0.273289
0.634379 0.622492 0.268132
0.67924 0.628626 0.262013
0.719112 0.63389 0.259312
0.748974 0.637385 0.258656
0.781857 0.643259 0.264332
0.80322 0.649241 0.263447
0.828733 0.648493 0.267155
0.851835 0.648859 0.267155
0.874815 0.65539 0.273228
0.89485 0.658717 0.273304
0.910201 0.64918 0.275303
0.925612 0.651347 0.28542
0.93872 0.645106 0.286763
0 0.601587 0.360906
0 0.605386 0.363485
0 0.611551 0.363485
0 0.609674 0.363714
0 0.610666 0.359152
0 0.607874 0.347799
0 0.614816 0.339925
0 0.621744 0.33814
0.00891127 0.620066 0.334676
0.100999 0.620706 0.331731
0.170932 0.626764 0.328603
0.223239 0.626688 0.327306
0.270832 0.629938 0.323674
0.316472 0.63357 0.319295
0.362844 0.640101 0.314977
0.414511 0.643809 0.311788
0.466667 0.64332 0.308583
0.519646 0.65037 0.303456
0.559411 0.654124 0.298436
0.600122 0.654841 0.291844
0.64303 0.657984 0.287495
0.679011 0.657633 0.282811
0.717968 0.667597 0.280751
0.753933 0.672602 0.277592
0.782666 0.675059 0.276875
0.806668 0.678447 0.280079
0.831754 0.682734 0.283696
0.852811 0.683619 0.284627
0.868299 0.67921 0.283543
0.891051 0.68542 0.290318
0.907637 0.684062 0.294652
0.923049 0.682551 0.30457
0.934676 0.678676 0.307347
0 0.637507 0.378927
0 0.641627 0.380377
0 0.640192 0.379171
0 0.644114 0.383093
0 0.640528 0.379263
0 0.641443 0.367773
0 0.642893 0.365164
0 0.644709 0.34995
0 0.651347 0.348898
0.0796826 0.651499 0.346731
0.151659 0.651957 0.343633
0.220706 0.655589 0.342397
0.266117 0.657816 0.339178
0.314244 0.661402 0.334554
0.360891 0.66627 0.327459
0.409277 0.669734 0.326024
0.466056 0.678187 0.324025
0.513115 0.678553 0.316747
0.549218 0.681819 0.313237
0.592782 0.683833 0.306966
0.629969 0.68333 0.299016
0.672572 0.689525 0.295766
0.70602 0.692576 0.296574
0.737499 0.696086 0.296574
0.77525 0.706615 0.290623
0.795392 0.708415 0.290272
0.824735 0.711513 0.292882
0.84889 0.712428 0.298222
0.865293 0.716884 0.29691
0.887373 0.718379 0.300862
0.902449 0.714473 0.30605
0.917937 0.716136 0.315022
0.933333 0.718624 0.320104
0 0.663233 0.387137
0 0.667155 0.389456
0 0.669627 0.389334
0 0.668971 0.394812
0 0.666545 0.38851
0 0.666224 0.375814
0 0.671534 0.370916
0 0.673899 0.361883
0 0.677821 0.358953
0.0674754 0.677333 0.355947
0.155093 0.67892 0.354391
0.215488 0.680766 0.354421
0.272908 0.687419 0.352697
0.319356 0.68632 0.343297
0.365698 0.69276 0.340429
0.412741 0.695583 0.337835
0.467765 0.704417 0.335851
0.51899 0.707622 0.329717
0.562142 0.710918 0.324392
0.601312 0.711391 0.318257
0.637003 0.715312 0.312703
0.677546 0.716533 0.309438
0.708843 0.721645 0.311254
0.737743 0.726284 0.3084
0.768505 0.727398 0.307973
0.801221 0.736889 0.308568
0.82826 0.738842 0.307881
0.851377 0.741497 0.309804
0.86862 0.742901 0.311803
0.887007 0.749142 0.314931
0.902281 0.746792 0.317449
0.920623 0.751049 0.330465
0.933333 0.746685 0.332723
0 0.688243 0.393133
0 0.695064 0.399847
0 0.697734 0.404471
0 0.692714 0.398322
0 0.691173 0.396445
0 0.693812 0.384771
0 0.699077 0.376287
0 0.701289 0.369909
0 0.70515 0.37377
0.0542611 0.706859 0.368475
0.147738 0.705943 0.364034
0.214343 0.708797 0.368566
0.273289 0.709194 0.363729
0.317891 0.714885 0.354711
0.367956 0.718746 0.351965
0.416938 0.725673 0.349081
0.47451 0.732357 0.346563
0.526589 0.738231 0.340719
0.570657 0.740322 0.336645
0.610727 0.746075 0.330755
0.652445 0.746563 0.329168
0.68542 0.745708 0.325154
0.717403 0.748714 0.325551
0.740963 0.752239 0.32282
0.76495 0.754894 0.322789
0.796353 0.763088 0.326589
0.831983 0.769238 0.324636
0.85658 0.77203 0.323537
0.869368 0.77377 0.320836
0.886915 0.777356 0.327443
0.898344 0.776532 0.330632
0.917769 0.779324 0.341299
0.928435 0.775494 0.346075
0 0.725002 0.41091
0 0.729625 0.413458
0 0.728725 0.414801
0 0.725856 0.416541
0 0.722698 0.41033
0 0.723186 0.400229
0 0.733043 0.392325
0 0.731121 0.384298
0 0.732967 0.382345
0.0540017 0.733089 0.378439
0.144671 0.739162 0.379171
0.215045 0.736767 0.375418
0.268803 0.740673 0.373693
0.32343 0.74461 0.367163
0.36762 0.750362 0.364218
0.414908 0.750561 0.35935
0.472801 0.756374 0.357717
0.528222 0.767437 0.353796
0.566781 0.770718 0.349874
0.612345 0.774258 0.348287
0.647395 0.77438 0.342885
0.68191 0.774929 0.337621
0.714443 0.778759 0.336599
0.742519 0.7832 0.337255
0.765347 0.786679 0.336461
0.792142 0.792813 0.33724
0.82414 0.790967 0.338109
0.846418 0.793591 0.337881
0.870604 0.801221 0.333227
0.886229 0.805142 0.339834
0.902403 0.803616 0.339406
0.911101 0.803464 0.34406
0.929412 0.8065 0.35465
0 0.750484 0.415686
0 0.754314 0.416419
0 0.754452 0.419654
0 0.755077 0.422858
0 0.754406 0.416815
0 0.749981 0.412375
0 0.755016 0.398749
0 0.758495 0.393744
0 0.754284 0.387015
0.0206149 0.762249 0.389654
0.13051 0.76199 0.385275
0.206546 0.768383 0.381384
0.267552 0.77084 0.378408
0.322225 0.773297 0.375616
0.377142 0.779416 0.373602
0.418708 0.780758 0.368978
0.471321 0.781735 0.363851
0.524025 0.790539 0.364706
0.569604 0.79527 0.360784
0.611749 0.799435 0.359487
0.649241 0.799756 0.357595
0.686397 0.802213 0.352331
0.712978 0.806363 0.348531
0.744488 0.810254 0.348852
0.772427 0.816541 0.351598
0.789746 0.815824 0.350332
0.824262 0.818036 0.350347
0.840818 0.818631 0.349752
0.859709 0.824201 0.353033
0.878355 0.824994 0.360479
0.903319 0.828428 0.35848
0.913252 0.826566 0.361639
0.922301 0.831128 0.362997
0 0.777691 0.418997
0 0.780804 0.416907
0 0.777737 0.419028
0 0.774197 0.416663
0 0.777768 0.416587
0 0.775006 0.414649
0 0.778927 0.404547
0 0.779782 0.401465
0 0.786313 0.397208
