public/luts/复古褐色 - Sepia.3dl
#DarkroomStore © 2019-2021 - 暗房商店
3DMESH
Mesh 4 10
0 64 128 192 256 320 384 448 512 576 640 704 768 832 896 960 1023
28 8 0
68 36 24
116 72 56
192 124 92
260 172 128
344 228 172
432 284 212
504 340 260
568 388 296
596 416 324
636 452 356
672 488 384
712 536 420
748 576 448
768 596 468
776 604 476
784 612 484
68 36 24
88 56 32
168 112 84
244 164 120
300 196 144
368 240 180
436 288 216
504 340 260
552 376 292
600 420 328
636 452 356
668 484 380
708 528 412
744 568 452
776 604 476
788 616 488
788 616 488
44 24 12
48 28 12
104 68 48
228 148 112
324 212 164
388 256 188
448 300 224
516 352 272
572 392 308
608 428 336
648 464 368
664 480 384
692 508 404
736 560 444
776 604 476
788 616 488
788 616 488
44 24 12
44 24 12
80 40 32
156 104 72
264 176 132
372 244 184
448 300 224
520 352 264
584 404 312
616 436 344
656 472 376
688 504 400
724 544 428
752 580 456
776 604 476
792 620 492
792 620 492
64 32 20
68 36 24
88 52 32
132 88 64
212 140 100
328 216 160
420 280 204
492 328 248
544 376 288
624 448 348
680 496 392
712 536 420
752 576 460
792 620 492
788 616 488
780 608 480
780 608 480
64 32 20
64 32 20
72 40 28
116 72 48
176 116 88
260 172 128
368 240 180
460 308 232
524 356 268
576 396 304
628 444 348
680 496 392
724 548 432
764 592 464
792 620 492
796 624 496
792 620 492
84 52 40
88 56 40
100 64 44
120 76 60
156 104 80
220 148 108
312 208 156
420 280 204
508 344 264
572 392 300
616 440 340
660 476 380
704 520 416
740 564 448
764 592 464
776 604 476
776 604 476
96 60 40
100 64 44
108 72 52
128 84 60
168 108 80
212 140 100
264 176 128
352 236 172
448 300 224
528 360 272
588 408 316
640 456 360
692 508 404
728 552 436
720 544 428
740 564 448
740 564 448
96 60 40
100 64 44
104 68 48
116 76 56
152 100 76
212 136 108
264 176 124
308 204 152
392 260 192
484 328 244
572 392 300
632 452 352
676 492 388
704 528 412
728 548 432
736 560 444
732 556 440
100 64 44
104 68 48
112 76 56
124 80 64
148 96 72
196 128 96
256 168 124
308 204 152
348 232 168
436 288 216
512 340 264
588 408 316
660 476 380
700 516 412
720 540 424
724 548 432
724 548 432
104 68 48
104 68 48
104 68 48
124 80 64
156 104 80
196 128 96
256 168 124
300 196 144
340 224 168
392 260 192
464 312 236
536 368 280
624 440 344
684 500 396
716 536 420
720 544 428
720 544 428
128 84 60
128 84 60
144 92 68
164 104 84
196 128 96
212 136 108
236 156 120
288 192 144
340 224 168
376 248 188
428 288 212
500 336 256
576 396 304
644 460 364
688 504 400
704 520 416
704 524 412
140 88 64
140 92 68
148 96 72
168 108 80
192 124 92
216 144 104
244 164 120
284 188 140
332 220 164
384 252 184
416 276 200
460 308 232
528 360 272
600 420 328
672 488 384
700 516 412
700 516 412
140 88 64
140 88 64
148 96 68
168 108 80
196 128 96
224 152 112
256 168 124
280 184 136
328 216 160
380 252 192
424 284 208
444 296 220
492 328 248
552 376 292
612 432 340
676 492 388
692 508 404
164 104 76
168 108 80
184 116 88
196 128 96
220 148 108
252 164 120
272 176 128
296 192 140
320 208 160
368 240 180
416 276 200
456 304 228
472 320 244
524 356 268
580 400 308
632 448 352
656 472 376
160 100 72
168 108 80
172 112 84
192 124 92
228 148 112
260 172 128
296 192 140
324 212 164
344 228 172
372 244 184
396 264 196
444 296 220
476 320 236
504 340 260
556 376 292
604 424 332
632 448 352
136 84 52
136 84 60
136 84 52
152 100 68
196 128 96
292 188 140
304 200 148
324 212 156
344 228 168
372 244 184
396 264 196
440 292 220
472 320 236
508 340 256
536 368 280
584 404 312
608 428 336
80 44 24
84 56 32
104 68 48
180 120 92
256 168 124
344 228 172
432 284 212
504 340 260
572 392 300
600 420 328
640 456 360
676 492 388
716 536 420
752 580 452
768 596 468
780 608 480
788 616 488
84 48 28
104 68 48
200 132 100
256 168 124
300 196 144
372 244 184
440 292 220
508 344 264
560 380 296
600 420 328
636 452 356
672 488 384
708 528 412
744 568 452
780 608 480
788 616 488
788 616 488
56 24 12
60 28 16
112 76 56
252 164 120
340 224 168
392 260 192
452 304 228
528 356 280
576 396 304
616 436 344
656 472 376
660 476 380
692 508 404
740 564 448
776 604 476
788 616 488
788 616 488
44 24 12
44 24 12
84 48 28
156 104 72
264 176 124
380 252 192
460 308 232
532 364 276
592 412 320
624 444 352
660 476 376
692 508 404
724 548 432
756 580 464
780 608 480
792 620 492
792 620 492
68 36 24
72 40 28
96 60 40
144 96 72
216 144 104
328 216 160
420 280 204
492 328 248
552 384 296
632 452 356
680 496 392
720 544 428
760 588 460
800 628 500
792 620 492
784 612 484
780 608 480
60 28 16
64 32 20
72 40 28
120 76 52
184 116 88
260 172 128
372 244 184
460 308 232
524 356 268
576 396 304
632 448 352
688 504 400
732 552 436
768 596 468
796 624 496
800 628 496
796 624 496
84 52 40
88 60 36
104 68 48
124 80 64
164 104 76
228 148 112
320 208 156
424 284 208
508 344 264
572 392 300
616 440 340
660 476 380
708 528 420
744 568 452
768 596 468
780 608 480
780 608 480
96 60 40
100 64 44
108 72 52
128 84 60
168 108 80
212 140 100
268 180 128
352 236 172
448 300 224
532 364 276
588 408 316
644 460 364
692 508 404
728 548 432
724 544 428
740 564 448
740 564 448
100 64 44
100 64 44
108 72 52
116 76 60
152 100 76
216 144 104
272 176 128
312 208 156
392 260 192
492 328 248
576 396 304
632 456 356
676 492 388
708 528 412
728 552 436
736 560 444
736 560 444
100 64 44
104 68 48
108 72 52
124 80 64
148 96 72
200 132 100
256 168 124
308 204 152
352 236 172
436 288 216
512 340 264
592 412 320
656 472 376
700 516 412
720 540 424
724 544 428
724 544 428
108 72 52
104 68 48
104 68 48
128 84 60
160 108 84
200 132 100
256 168 124
304 200 148
340 224 168
392 260 192
468 316 240
536 368 280
620 436 344
684 500 396
716 536 420
724 544 428
724 544 428
128 84 60
128 84 60
144 92 68
168 108 88
200 132 100
220 148 108
240 160 116
296 192 140
340 224 168
376 248 188
428 288 212
500 336 256
572 392 300
644 460 364
688 504 400
704 520 416
704 528 416
140 88 64
144 92 68
148 96 72
164 104 76
192 124 92
216 144 104
252 164 120
284 188 140
336 220 164
384 252 184
416 276 200
464 312 236
524 356 268
604 424 332
672 488 384
700 516 412
700 520 416
136 84 60
140 88 64
144 92 68
168 108 80
196 128 96
224 152 112
256 168 124
280 184 136
328 216 160
380 252 192
428 288 212
448 300 224
492 328 248
556 376 292
616 436 344
676 492 388
692 508 404
168 108 80
172 112 84
184 116 88
196 128 96
220 148 108
252 164 120
272 176 128
300 196 144
324 212 156
368 240 180
416 276 200
456 304 228
472 320 244
524 356 268
584 404 312
636 452 356
656 472 376
160 100 72
164 104 76
172 112 84
192 124 92
224 144 108
260 172 128
300 196 144
324 212 156
344 228 172
368 240 180
400 268 200
444 296 220
476 324 240
504 340 260
560 380 296
604 424 332
636 452 356
136 84 52
132 84 52
140 88 56
152 100 68
196 128 96
280 184 136
304 200 148
324 212 156
344 228 168
372 248 180
400 268 200
440 292 216
480 320 240
508 340 256
536 368 280
584 404 312
608 428 336
116 72 48
140 88 64
136 92 68
172 112 84
256 168 124
348 232 176
440 292 220
512 348 268
576 396 304
604 424 332
640 456 360
676 492 388
720 540 424
752 580 452
776 604 476
788 616 488
788 616 488
124 80 56
152 100 68
216 144 104
260 172 128
308 204 152
376 248 188
448 300 224
516 352 272
568 388 304
608 428 336
644 460 364
672 488 384
708 524 420
748 572 456
780 608 480
788 616 488
788 616 488
116 80 60
132 88 64
244 164 120
324 212 156
392 260 192
416 276 200
468 316 240
540 372 284
588 408 316
636 452 356
664 480 376
668 484 380
696 512 404
744 568 452
776 604 476
792 620 492
792 620 492
64 32 20
72 40 28
112 76 56
212 140 100
312 208 156
420 280 204
496 332 252
560 380 288
608 428 336
636 460 360
664 480 376
700 516 412
732 556 440
760 588 460
788 616 488
796 624 496
796 624 496
80 52 28
88 60 36
124 80 60
176 116 88
228 148 112
336 220 164
436 288 216
496 332 252
580 400 308
644 468 368
692 508 404
728 552 436
768 596 468
812 640 512
804 632 504
784 612 484
780 608 480
40 20 8
56 24 12
76 44 32
140 88 64
196 128 96
264 176 124
372 244 184
460 308 232
528 360 272
576 396 304
644 460 364
708 524 420
736 560 444
772 600 472
804 632 504
804 632 504
800 628 500
88 56 36
96 60 40
108 72 52
128 84 60
188 120 92
240 160 116
324 212 156
428 288 212
508 344 264
576 396 304
620 444 344
664 480 376
720 540 424
748 572 456
772 600 472
784 612 484
780 608 480
96 60 40
100 64 44
112 76 56
132 88 64
172 112 84
220 148 108
272 180 132
352 236 172
448 300 224
532 364 276
588 408 316
640 456 360
692 508 404
728 548 432
724 544 428
740 564 448
740 564 448
100 64 44
104 68 48
108 72 52
124 80 64
164 104 84
224 152 112
272 176 128
316 204 156
396 264 196
496 332 252
576 396 308
632 456 356
676 492 388
712 532 416
728 552 436
740 564 448
740 564 448
100 60 44
100 64 44
104 68 48
124 80 64
152 100 76
208 132 104
264 176 132
316 204 156
360 232 172
436 288 216
512 344 264
592 412 320
656 472 376
700 520 412
720 540 424
724 548 432
724 548 432
104 68 48
104 68 48
104 68 48
124 80 64
160 108 76
200 132 100
260 172 128
304 200 148
344 228 172
392 260 192
468 316 240
540 372 284
624 440 344
680 496 392
716 536 420
724 544 428
724 544 428
124 80 60
128 84 60
144 92 68
164 104 84
200 132 100
220 148 108
244 164 120
300 196 144
340 224 168
376 248 188
432 284 212
500 336 256
576 396 304
644 460 364
688 504 400
704 520 416
704 524 412
140 88 64
140 88 64
148 96 72
164 104 76
192 124 92
224 152 112
256 168 124
296 188 144
340 224 168
384 252 184
416 276 200
460 308 232
528 360 272
600 420 328
672 488 384
696 516 412
704 520 416
124 80 56
136 84 60
144 92 68
164 104 76
192 124 92
224 152 112
256 168 124
284 188 140
332 220 164
388 256 188
428 288 212
448 300 224
492 328 248
556 376 292
616 436 344
676 492 388
692 508 404
164 104 76
172 112 84
184 116 88
196 128 96
220 148 108
252 164 120
272 180 132
300 196 144
328 216 160
372 244 184
416 276 200
456 304 228
476 324 240
524 356 268
584 404 312
632 448 352
660 476 380
160 100 72
164 104 76
172 112 84
192 124 92
220 148 108
260 172 128
300 196 144
324 212 156
348 232 168
372 244 184
408 264 200
444 296 220
484 320 240
504 340 260
560 380 296
604 424 332
636 452 356
136 84 52
136 84 52
136 84 52
148 96 64
192 124 92
276 180 132
304 200 148
324 212 156
348 232 168
380 248 184
408 264 200
444 296 220
484 320 240
508 340 256
540 372 284
584 404 312
608 428 336
152 100 68
188 120 88
236 156 112
212 140 100
252 164 120
348 232 176
444 296 224
524 356 268
584 404 312
620 444 344
648 468 372
680 496 392
720 540 424
756 584 456
784 612 484
788 616 488
788 616 488
164 104 76
172 112 84
240 160 116
284 188 140
308 204 152
380 252 192
456 308 232
528 364 276
588 408 316
632 448 352
664 480 384
672 488 384
704 520 416
748 572 456
780 608 480
792 620 492
