public/luts/影院色彩 - Eterna (Cinema).3dl
#DarkroomStore © 2019-2021 - 暗房商店
3DMESH
Mesh 4 10
0 64 128 192 256 320 384 448 512 576 640 704 768 832 896 960 1023
32 40 20
48 40 92
52 44 132
52 56 180
68 60 216
100 72 276
172 84 332
192 88 380
196 88 428
200 96 492
236 100 552
288 100 620
348 96 708
328 104 780
372 100 784
428 100 792
448 100 792
60 92 32
64 96 104
76 96 172
76 96 212
88 96 252
116 84 288
164 80 336
196 88 372
180 88 440
200 96 492
236 100 548
280 100 616
336 96 696
324 100 776
368 104 784
420 100 792
448 100 792
84 168 44
80 160 48
52 168 152
32 168 216
52 160 276
116 144 312
128 140 360
148 120 400
168 92 448
180 96 500
228 96 548
264 96 600
312 100 668
344 100 760
352 104 780
408 104 788
444 100 796
116 220 72
116 220 72
108 220 128
68 224 204
28 220 268
40 216 332
104 212 384
148 208 436
160 200 484
184 184 528
236 152 564
248 136 612
308 100 676
352 96 736
340 104 784
380 104 788
408 100 788
144 272 104
144 268 104
140 268 112
116 272 196
64 272 256
32 272 316
56 276 396
60 268 456
128 268 500
192 264 552
236 252 600
272 240 644
300 224 688
340 188 744
352 144 784
336 104 784
336 104 784
180 328 124
180 328 124
176 324 120
152 316 180
116 332 240
52 328 308
32 328 380
72 332 452
60 324 512
60 316 560
184 320 616
232 316 672
248 316 716
296 300 764
328 292 808
360 272 820
364 216 808
208 384 140
212 388 144
208 384 140
204 380 144
172 380 236
80 380 288
40 388 364
36 388 436
56 388 508
72 384 576
56 376 628
80 376 676
220 380 732
256 372 772
304 368 820
340 360 832
360 348 832
212 432 160
212 432 160
216 436 164
212 432 160
220 436 204
176 432 284
84 444 344
40 444 420
32 448 492
92 448 568
92 444 628
100 444 688
168 444 744
200 448 788
224 440 832
224 432 836
232 428 836
228 488 172
228 488 172
228 484 172
228 484 172
220 484 188
236 488 260
172 496 332
88 504 404
56 512 480
88 516 548
144 520 624
64 516 692
40 512 756
56 504 800
80 500 832
152 496 836
204 496 836
256 556 192
260 552 192
260 552 192
256 548 188
252 544 188
228 548 256
152 556 332
104 556 384
92 568 456
104 576 528
184 580 604
144 576 680
32 576 736
0 572 796
0 568 832
36 560 840
44 560 836
300 624 212
300 624 212
296 624 212
296 620 208
292 616 204
272 612 240
200 612 320
100 612 384
56 612 444
136 628 512
212 640 576
264 644 660
136 640 728
40 636 796
0 640 848
4 632 852
0 624 844
316 688 232
316 688 232
316 688 232
316 688 232
324 684 232
320 680 228
252 676 324
196 676 388
124 676 440
152 684 504
224 696 560
328 708 628
324 708 704
172 704 780
44 700 840
12 700 860
8 692 860
296 732 224
296 732 224
296 732 224
296 732 224
296 732 224
304 728 224
308 736 280
240 736 384
208 736 436
224 744 504
280 752 560
328 760 624
400 772 688
332 772 768
164 768 836
84 764 868
80 760 864
292 784 216
292 784 216
292 788 216
292 784 224
288 780 220
288 776 220
308 784 272
280 796 392
220 796 448
256 800 504
316 808 556
384 816 616
440 824 672
460 836 732
340 832 812
196 828 876
176 824 876
316 848 236
316 848 236
316 848 236
316 848 236
320 840 232
316 836 236
316 836 236
328 840 348
280 848 448
244 852 504
352 864 556
436 872 604
500 876 664
548 888 724
476 892 792
432 896 852
300 892 884
348 912 256
348 912 256
348 912 256
348 912 256
344 908 252
344 904 252
344 900 256
336 896 292
348 900 424
296 904 500
284 912 556
392 924 608
464 932 660
472 940 728
648 952 808
380 948 844
380 948 876
352 924 256
352 924 256
352 924 256
352 924 256
352 924 256
356 928 260
352 924 256
352 924 260
320 932 412
312 940 492
304 940 544
320 944 608
376 944 660
428 952 724
660 972 812
372 964 844
324 964 872
104 48 48
76 44 88
76 48 120
72 60 176
76 68 224
112 72 280
180 84 332
192 88 380
204 88 432
208 96 492
244 96 552
296 96 620
348 96 708
332 100 780
376 104 788
432 104 796
456 100 796
96 100 36
100 100 100
112 108 180
104 104 216
112 96 252
132 80 292
168 80 328
208 88 376
188 92 444
208 96 496
244 96 548
288 100 620
336 96 688
336 100 772
368 104 784
428 100 792
452 100 796
84 168 44
84 164 52
64 168 156
80 168 224
96 164 284
148 144 312
152 132 356
168 116 404
184 92 452
196 96 500
236 100 552
276 100 596
316 100 660
348 96 760
356 104 780
416 104 792
448 96 796
116 220 72
116 220 72
104 216 116
72 216 200
28 220 268
84 216 340
140 216 388
164 208 432
168 200 488
196 180 528
244 152 568
256 132 612
312 100 668
352 92 740
348 100 784
380 104 788
412 104 788
148 272 104
144 268 100
144 268 104
116 272 196
64 272 256
36 276 320
56 276 396
76 268 452
164 268 504
204 260 552
248 256 604
296 236 640
312 220 688
348 184 744
360 144 784
340 104 784
344 100 784
180 328 124
180 328 124
180 328 124
156 324 180
112 328 236
48 324 304
32 328 372
68 328 448
64 320 504
84 320 560
212 324 620
240 320 668
256 320 712
300 300 756
332 288 808
364 268 820
372 216 812
208 384 140
212 388 144
208 384 140
204 380 144
176 376 236
80 380 288
40 388 364
36 388 436
56 388 508
72 384 576
56 376 620
120 376 672
236 384 736
264 376 776
316 364 812
348 356 832
368 352 832
212 432 160
216 436 164
216 436 164
212 432 160
220 436 204
176 432 284
84 444 344
40 444 420
32 448 492
92 448 568
88 444 628
104 440 688
176 448 740
216 444 792
240 440 828
240 432 832
252 428 832
220 488 172
228 484 172
224 488 172
228 484 172
220 484 188
236 488 260
172 496 332
88 504 404
56 512 480
88 516 556
144 520 624
64 516 692
36 508 752
88 500 800
76 504 832
172 500 836
224 496 840
264 556 196
260 552 192
256 548 188
256 548 188
252 544 184
228 548 256
152 556 332
104 556 384
92 568 456
104 576 528
184 580 604
144 580 680
32 576 744
0 572 804
0 568 832
32 564 840
60 560 840
300 624 212
300 624 212
296 620 208
296 620 208
292 616 204
272 612 240
200 612 320
104 616 388
56 612 444
136 628 512
212 640 576
264 644 660
136 640 728
44 640 800
0 640 848
4 632 852
0 628 848
316 688 232
316 688 232
316 688 232
316 688 232
324 684 232
320 680 228
256 672 324
204 672 388
124 676 440
152 684 504
220 692 564
328 708 628
324 708 704
172 704 780
44 700 840
12 700 860
12 696 860
300 736 228
296 732 224
296 732 224
296 732 224
296 732 224
304 728 224
316 732 280
240 736 384
212 740 448
224 744 504
280 752 560
328 760 624
400 772 688
332 772 768
168 768 836
84 764 868
80 760 864
292 784 216
292 788 220
292 784 220
292 784 220
288 780 220
288 780 220
308 784 264
276 792 380
220 796 448
256 800 496
316 808 556
384 816 616
440 824 672
460 836 732
340 832 812
196 828 876
176 824 876
316 848 236
316 848 236
316 848 236
316 848 236
320 840 232
316 836 236
316 836 236
328 840 348
280 848 448
244 852 504
352 864 556
436 872 604
500 876 664
548 888 724
476 892 792
428 892 848
300 892 884
348 912 256
348 912 256
348 912 256
348 912 256
344 908 252
348 904 252
344 900 256
336 896 288
348 900 424
300 908 504
284 912 556
388 924 608
464 932 660
468 936 724
644 952 808
388 948 844
388 948 884
352 924 256
352 924 256
352 924 256
356 928 260
352 924 256
352 924 256
352 924 256
356 920 260
320 932 408
308 936 488
308 940 548
320 944 608
376 944 660
432 952 724
660 972 812
372 964 844
324 964 872
148 56 88
156 60 124
108 60 140
92 68 172
108 76 224
144 76 284
188 84 328
196 84 380
212 92 436
224 96 500
256 104 556
300 100 624
348 96 700
340 100 776
380 104 788
440 100 796
468 100 800
164 100 36
160 100 120
160 112 192
144 108 224
140 96 256
152 84 292
188 84 336
216 88 380
196 92 448
220 100 500
260 100 556
296 100 612
336 96 684
348 100 764
372 100 784
436 100 796
464 96 796
152 160 64
160 160 64
168 168 168
144 164 240
148 160 284
180 144 316
176 132 356
188 116 400
196 92 448
208 96 504
252 100 552
280 96 584
324 96 652
356 96 760
368 104 784
416 104 792
456 100 796
136 224 80
140 220 80
148 220 116
148 224 216
152 220 284
164 224 348
184 212 388
184 204 428
188 200 484
216 176 524
252 152 568
276 124 612
320 100 672
352 92 740
356 104 780
392 104 784
424 100 788
152 276 108
144 268 100
144 268 104
136 272 192
64 272 256
40 272 320
128 272 400
176 272 456
196 272 504
224 264 552
268 244 596
316 232 644
316 216 688
352 180 744
368 144 788
352 104 780
352 104 780
180 328 124
180 328 124
180 328 124
160 320 180
112 328 236
52 328 308
32 328 372
76 328 452
140 328 512
180 324 564
244 320 620
260 324 672
264 320 716
316 296 760
340 292 804
376 268 824
380 216 808
208 384 140
208 384 140
208 384 140
204 380 144
176 376 228
80 380 288
40 388 364
36 388 436
56 388 508
68 380 572
56 376 624
192 384 684
256 380 740
284 372 776
324 364 816
356 360 832
380 352 832
216 436 164
212 432 160
216 436 164
220 432 160
220 436 204
184 436 280
80 440 340
40 444 420
32 448 492
92 448 568
92 444 628
144 448 688
200 448 748
232 448 792
256 440 832
264 432 840
272 424 840
228 488 168
228 488 172
228 484 172
228 484 172
224 492 184
236 488 260
172 496 332
88 504 404
56 512 480
88 516 556
144 520 624
64 516 692
36 508 752
96 504 800
116 500 836
204 500 840
248 500 844
264 556 192
260 552 192
256 548 188
256 552 192
256 548 188
236 548 248
148 552 320
104 556 384
92 568 456
104 576 528
184 576 612
144 576 680
32 576 744
8 568 804
44 568 840
56 564 840
100 560 840
300 624 212
300 624 212
296 620 208
296 620 208
296 620 208
272 612 236
204 612 320
104 616 388
60 616 448
136 628 512
212 636 580
264 644 660
140 644 732
40 636 796
0 640 848
0 632 852
0 624 848
316 688 232
316 688 232
316 688 232
320 692 236
324 684 232
320 680 228
256 672 324
204 672 388
124 676 440
152 684 504
224 696 568
332 712 632
324 704 712
172 704 780
44 700 840
12 700 860
8 696 856
296 732 224
296 732 224
296 732 224
296 732 224
296 732 224
304 728 228
316 732 280
240 740 376
212 740 448
224 744 504
280 752 560
324 756 620
400 772 688
332 772 768
164 768 836
84 764 868
80 760 864
292 788 216
292 784 224
292 784 224
292 784 224
288 780 220
288 780 220
300 780 248
280 796 384
220 796 444
256 800 504
316 808 556
384 816 616
444 828 676
460 836 732
340 832 812
196 828 876
176 824 876
316 848 236
316 848 236
316 848 236
316 848 236
320 840 232
320 840 240
316 836 236
324 844 340
284 844 448
244 852 504
340 864 552
436 872 604
500 876 664
548 888 724
476 892 792
428 892 848
300 892 884
348 912 256
348 912 256
348 912 256
348 912 256
348 912 256
348 904 252
344 900 256
336 900 284
348 900 424
300 908 504
284 912 556
392 924 608
464 932 660
472 940 728
644 952 808
380 948 852
380 948 880
352 924 256
352 924 256
356 928 260
352 924 256
356 920 256
352 924 256
356 920 256
356 928 264
320 932 408
308 936 488
308 944 548
320 944 608
380 948 660
428 952 724
660 972 812
372 964 848
324 964 872
212 48 104
212 56 140
208 56 204
156 72 200
144 80 228
160 80 292
204 84 332
192 84 392
208 92 452
240 100 508
272 100 560
312 100 620
360 100 676
368 100 772
392 104 788
452 96 800
472 96 800
208 68 44
216 72 112
212 72 200
188 100 244
168 104 260
180 88 304
208 88 344
212 92 388
208 92 456
244 96 508
276 100 552
304 100 604
348 96 660
364 96 764
380 104 788
444 96 796
