public/luts/柔和肖像 - Pro Neg.Std.3dl
#DarkroomStore © 2019-2021 - 暗房商店
3DMESH
Mesh 4 10
0 64 128 192 256 320 384 448 512 576 640 704 768 832 896 960 1023
0 0 0
16 4 72
28 8 128
52 12 212
48 24 304
100 32 416
140 36 536
144 40 644
128 36 752
124 40 836
168 68 920
168 76 980
156 84 1023
112 80 1023
100 64 1023
104 76 1023
96 96 1023
24 64 28
32 64 72
48 72 168
60 76 256
80 80 336
112 76 432
120 80 532
116 84 632
112 96 724
156 104 816
168 112 908
172 120 976
148 112 1023
96 116 1023
104 116 1023
108 116 1016
108 124 1016
4 156 0
0 156 32
0 160 128
8 160 244
28 164 348
60 160 428
52 160 516
100 164 608
152 168 704
160 172 792
168 172 884
160 164 972
136 164 1016
124 168 1016
108 168 1016
116 172 1016
96 172 1016
4 252 0
4 248 8
4 252 96
0 252 208
0 252 312
4 252 408
28 252 496
88 252 580
112 252 668
116 252 756
116 252 848
116 252 932
132 244 996
148 240 1016
144 240 1023
124 236 1023
76 236 1023
0 336 0
0 336 0
0 336 24
0 340 160
0 336 276
0 332 372
0 340 464
0 332 548
4 332 628
36 328 716
88 324 804
128 320 896
144 316 972
140 316 1012
108 312 1023
48 308 1012
4 308 1016
0 408 0
0 408 0
0 408 0
0 408 104
0 412 240
0 408 340
0 404 436
0 400 512
0 400 600
0 392 676
4 392 772
20 392 868
24 388 952
12 388 1016
0 384 1023
0 384 1023
0 376 1016
0 488 4
0 484 0
0 484 0
0 476 60
0 476 192
0 472 304
0 468 396
0 468 484
0 464 564
0 460 648
0 456 736
0 452 820
0 452 908
0 448 976
0 444 1012
12 436 1012
28 432 1012
4 556 0
0 552 0
0 552 0
0 544 0
0 540 140
0 536 260
0 532 360
0 524 452
0 524 540
0 520 624
4 516 712
0 512 796
0 508 880
0 504 948
0 500 1004
0 500 1016
0 496 1016
0 616 0
0 612 0
0 608 0
0 608 0
0 600 96
0 592 216
4 592 320
0 584 408
0 580 496
0 576 588
0 572 680
0 568 768
0 564 848
0 564 932
4 556 1000
4 548 1023
4 548 1023
0 684 0
0 680 4
0 676 0
4 672 0
0 664 4
0 656 144
0 652 272
4 648 376
0 648 460
0 636 548
0 632 644
0 628 736
0 620 816
0 616 904
4 608 964
0 604 1008
0 596 1016
0 756 0
0 752 0
4 748 0
0 740 0
0 732 0
0 728 80
0 720 204
0 712 304
0 708 396
0 708 500
0 696 596
0 684 684
0 680 780
4 676 872
0 664 948
0 656 1004
0 648 1008
0 832 0
0 828 0
0 820 0
0 812 0
0 804 4
0 792 0
0 788 116
0 776 236
0 772 336
0 764 436
4 760 544
0 752 652
0 744 740
0 732 828
0 724 912
0 720 972
0 712 1004
0 900 4
0 896 0
4 892 0
0 880 0
0 872 0
0 860 0
0 852 20
0 844 164
4 836 280
0 828 396
0 824 496
0 812 592
4 804 688
0 792 788
0 784 880
0 776 952
0 768 992
0 968 0
0 964 0
0 956 0
0 948 4
0 936 0
0 928 0
0 920 0
0 908 24
0 896 200
0 892 328
0 880 440
0 872 536
0 860 624
0 852 716
0 844 820
0 840 908
0 828 960
4 1008 4
4 1008 4
0 1004 0
0 992 4
4 988 0
4 980 0
0 972 4
0 968 0
0 956 56
0 948 236
0 940 360
4 936 476
0 924 580
0 912 676
4 904 776
0 892 852
0 888 912
0 1023 4
0 1016 0
0 1016 0
0 1016 0
0 1016 0
0 1016 0
4 1008 4
0 1004 0
0 1004 0
4 1000 136
0 996 268
0 992 392
4 984 500
0 980 616
0 956 720
0 940 816
0 928 868
0 1023 4
0 1016 0
0 1016 0
0 1016 0
0 1016 0
0 1016 0
0 1016 4
0 1016 0
0 1016 0
0 1016 24
0 1016 208
0 1016 328
0 1016 440
0 1012 556
0 1004 676
0 980 772
0 972 832
64 16 24
56 12 68
52 12 108
72 20 196
80 32 296
132 36 420
160 32 532
172 40 652
152 32 760
164 52 844
192 76 924
184 76 984
168 80 1016
120 80 1023
116 64 1016
116 84 1023
112 104 1023
68 76 32
72 72 72
92 84 180
100 76 252
116 72 336
136 80 432
144 76 532
144 76 628
152 96 728
180 108 828
192 108 912
192 116 980
160 108 1016
116 112 1016
120 116 1023
128 120 1016
112 124 1016
8 160 0
0 160 20
20 160 136
84 164 260
100 164 360
120 160 436
104 160 516
144 160 612
176 168 708
188 172 800
188 176 892
180 168 980
156 160 1023
144 164 1016
128 168 1016
136 176 1023
108 172 1012
4 252 0
0 252 8
0 256 96
0 252 216
24 252 320
72 252 416
100 252 504
132 256 588
144 252 672
152 252 760
148 252 848
152 248 932
164 240 1000
168 240 1023
160 240 1016
140 236 1023
92 236 1023
4 340 0
4 340 0
0 336 36
0 340 172
4 340 280
0 336 376
0 336 472
8 332 552
52 328 636
104 324 724
132 328 812
156 320 896
168 320 972
156 316 1016
140 312 1023
76 316 1023
12 308 1023
4 412 4
0 408 0
0 408 0
0 408 112
0 408 236
0 408 352
0 400 432
0 400 520
0 400 600
0 396 684
20 392 772
52 392 868
28 384 952
28 388 1012
8 384 1016
8 376 1023
32 372 1016
0 484 0
0 488 4
0 484 0
0 480 68
0 476 192
0 472 304
0 468 404
0 472 488
0 460 568
0 456 644
0 456 736
0 452 820
0 452 912
0 448 976
24 444 1016
72 440 1023
76 436 1016
4 556 0
4 556 0
0 552 0
4 548 12
0 540 140
0 536 260
4 532 372
0 524 452
0 524 540
0 520 624
4 516 712
0 512 796
0 504 876
0 504 948
12 500 1008
0 500 1016
0 496 1016
0 616 0
0 616 0
0 612 0
0 608 0
0 600 100
0 592 216
4 588 328
0 588 412
0 580 496
0 580 592
0 576 684
0 568 768
0 564 848
0 564 932
4 556 1000
4 548 1016
0 544 1016
0 684 0
0 680 4
0 676 0
0 668 0
0 668 8
0 656 156
0 652 272
4 648 376
0 648 460
4 640 552
0 632 644
0 628 736
0 620 824
0 616 904
4 608 972
0 600 1008
0 596 1016
0 756 0
0 756 4
4 748 0
0 744 4
0 736 0
0 728 80
0 720 204
0 712 304
0 704 404
0 704 508
0 696 604
0 688 696
4 684 788
4 676 872
0 664 948
0 656 1004
0 648 1008
0 832 0
0 828 0
0 820 0
0 812 0
0 800 0
0 792 0
0 788 120
0 776 236
0 772 336
0 764 444
0 760 544
0 752 652
0 744 740
0 732 828
0 728 916
4 724 976
4 716 1008
0 900 4
0 896 0
4 892 0
4 884 4
0 872 0
0 860 0
0 852 20
0 844 172
4 836 288
0 828 396
0 824 496
0 812 592
0 800 688
0 792 788
0 784 880
0 776 952
0 772 996
0 968 0
0 960 0
0 956 0
0 948 4
0 936 0
0 928 0
0 916 0
0 908 24
4 900 204
0 892 320
0 880 440
0 872 536
0 860 624
0 852 716
0 844 820
0 836 916
0 828 960
0 1004 0
0 1004 0
0 1004 0
0 992 4
4 988 0
4 980 0
0 972 4
0 968 0
0 956 56
0 948 244
0 940 360
4 936 476
0 924 580
0 912 684
4 904 776
0 896 860
0 888 912
0 1016 0
0 1016 0
0 1016 0
0 1016 0
0 1012 0
0 1016 0
0 1008 4
0 1004 0
0 1004 0
4 1000 144
0 996 276
0 992 396
4 984 500
0 980 616
0 956 728
0 940 816
0 932 872
0 1016 0
0 1016 0
0 1016 0
0 1016 0
0 1016 0
0 1016 0
0 1016 4
0 1016 0
0 1016 0
4 1016 32
0 1016 204
0 1012 336
0 1016 440
0 1012 560
0 1000 672
0 980 772
0 972 832
140 40 64
148 40 108
104 28 136
100 28 180
124 36 292
172 36 416
196 28 540
200 36 652
196 40 764
212 60 848
220 76 924
216 76 984
192 80 1016
148 76 1023
144 68 1023
140 84 1016
132 100 1016
140 84 40
156 80 96
176 84 200
152 76 256
164 72 344
176 68 440
184 76 544
192 76 644
204 100 744
220 108 832
224 108 916
216 112 988
188 104 1023
152 108 1016
144 116 1023
148 120 1016
132 128 1016
120 164 0
136 164 0
164 164 164
180 168 276
180 164 368
184 160 448
176 156 532
196 160 620
216 168 720
216 168 800
228 172 896
212 156 984
192 156 1016
184 164 1016
164 168 1023
156 172 1016
128 172 1016
72 256 0
80 256 12
104 256 108
124 256 228
148 256 336
164 256 432
176 248 512
192 252 592
196 248 680
196 248 760
200 244 844
196 244 940
204 240 1004
204 236 1016
188 236 1023
164 236 1023
124 236 1023
4 348 0
8 344 0
48 340 48
100 344 176
20 340 288
8 336 384
100 332 480
124 332 564
156 328 644
176 328 732
188 324 816
196 316 900
204 312 972
188 312 1016
180 312 1023
120 308 1016
16 308 1016
0 416 0
0 416 0
0 416 12
0 412 128
8 412 252
0 408 352
0 404 444
28 400 524
88 396 604
48 392 684
124 392 780
152 392 880
68 388 952
104 384 1008
92 380 1023
88 376 1016
92 372 1016
0 492 0
0 488 0
0 484 0
0 476 76
0 476 212
0 472 312
0 472 408
0 468 496
0 460 568
0 456 656
0 456 736
0 452 828
32 452 920
60 448 980
116 444 1023
132 436 1023
128 432 1016
0 556 0
4 556 0
0 552 0
0 548 20
0 540 148
0 536 268
0 528 368
0 532 464
0 524 544
0 516 632
0 516 716
0 512 804
0 508 880
24 504 956
40 500 1000
0 500 1016
0 492 1016
0 620 4
0 616 0
0 612 0
0 612 4
0 600 100
0 596 228
0 592 336
0 588 420
0 584 508
0 580 592
0 576 684
0 568 768
0 564 852
0 560 940
4 556 1000
4 548 1023
0 544 1016
0 684 0
0 680 4
0 676 0
4 672 0
0 664 16
0 656 164
0 652 272
4 648 376
0 640 464
4 640 552
0 632 648
0 628 744
0 624 828
0 616 904
4 608 972
0 604 1008
0 596 1016
0 756 0
0 752 0
4 748 0
0 744 4
0 732 0
0 728 88
0 720 212
0 716 308
0 708 404
0 704 508
0 696 604
0 688 696
0 684 788
0 676 880
0 668 952
0 656 1004
0 652 1012
0 832 0
0 828 0
0 820 0
0 812 0
0 800 0
4 796 0
0 788 128
0 776 244
0 772 344
0 764 444
0 760 552
0 752 652
0 744 740
0 736 832
0 728 916
0 720 972
0 716 1008
0 900 4
0 900 4
4 892 0
4 884 4
0 872 0
0 860 0
0 852 20
0 844 176
4 836 292
0 828 396
0 816 500
0 812 592
4 804 692
0 796 788
0 784 880
0 776 952
0 772 996
0 968 0
0 964 0
0 956 0
0 948 4
0 936 0
0 928 0
0 920 0
0 908 28
4 900 204
0 888 328
0 884 440
0 872 536
4 864 628
0 852 716
4 848 824
0 832 912
0 828 968
0 1004 0
0 1004 0
0 1004 0
0 992 4
4 988 0
0 976 0
0 968 0
0 964 0
0 956 72
0 952 244
0 944 360
0 936 476
0 928 584
0 916 688
4 904 784
0 896 864
0 892 916
0 1016 0
0 1016 0
0 1016 0
0 1016 0
0 1012 0
0 1016 0
0 1012 0
0 1004 0
0 1004 0
0 1000 144
0 996 284
0 992 396
0 988 508
0 976 624
0 956 728
0 940 816
0 936 872
0 1016 0
0 1016 0
0 1016 0
0 1016 0
0 1016 0
0 1016 0
0 1016 0
0 1016 0
0 1016 0
0 1016 40
0 1016 216
0 1012 336
0 1016 448
0 1012 564
0 1000 684
0 980 780
0 968 840
220 32 96
232 32 140
256 28 248
184 36 240
176 36 292
220 28 428
248 20 552
256 32 668
260 56 776
264 76 852
260 76 928
256 72 996
232 72 1023
192 68 1023
180 72 1023
180 92 1016
160 104 1016
224 88 52
236 80 100
252 80 220
240 76 300
224 76 356
236 72 452
244 68 552
260 80 660
268 104 760
268 100 840
272 104 920
256 104 996
236 92 1023
208 104 1023
184 116 1023
184 116 1023
