public/luts/柔和色彩 - Astia.3dl
#DarkroomStore © 2019-2021 - 暗房商店
3DMESH
Mesh 4 10
0 64 128 192 256 320 384 448 512 576 640 704 768 832 896 960 1023
0 0 0
12 0 84
20 0 164
16 12 276
4 20 420
80 8 584
124 0 756
116 0 916
68 0 1023
104 0 1023
120 0 1023
84 0 1023
64 0 1023
48 0 1023
44 0 1023
40 0 1023
60 0 1023
8 56 16
16 44 68
36 52 204
28 56 336
52 48 456
84 40 596
80 24 748
48 16 900
84 0 1012
128 12 1016
112 8 1023
76 8 1016
24 0 1016
40 0 1023
40 0 1023
24 16 1016
36 12 1016
4 156 0
0 156 20
0 144 136
4 144 312
4 136 460
0 116 584
8 116 712
72 112 844
104 108 956
92 104 1012
68 92 1016
24 76 1023
0 40 1023
4 52 1023
16 68 1016
4 72 1016
0 68 1016
0 268 0
0 268 0
4 256 80
0 244 216
0 240 388
0 232 528
0 228 656
0 224 780
12 216 900
12 204 988
4 188 1016
0 184 1016
4 168 1016
4 160 1016
0 156 1016
0 152 1023
0 144 1023
0 376 0
4 364 4
0 352 4
0 348 136
0 340 312
0 332 468
0 328 600
0 316 720
0 316 832
0 304 936
0 288 1008
0 276 1023
0 272 1023
0 260 1023
0 248 1023
0 240 1023
0 232 1016
0 468 0
0 464 4
0 448 0
0 436 48
0 432 236
0 420 396
0 412 536
0 404 668
0 392 780
0 384 904
0 372 984
0 364 1016
0 356 1023
0 348 1023
0 336 1023
0 328 1023
0 308 1023
0 552 0
0 544 0
0 536 0
0 524 12
0 508 136
0 496 320
0 488 476
0 480 608
0 468 724
0 456 844
0 444 976
0 436 1016
0 424 1016
0 416 1023
0 404 1023
0 392 1016
0 384 1016
0 636 0
0 628 0
0 616 0
0 600 0
0 584 76
0 568 224
0 556 408
0 544 544
0 536 664
0 524 784
0 512 880
0 500 964
0 488 1012
0 476 1023
0 464 1023
0 452 1016
0 440 1016
4 700 0
0 696 0
0 684 0
0 668 0
0 652 24
0 636 196
0 620 328
0 608 476
0 596 612
0 580 728
0 572 844
0 560 940
0 544 1016
0 532 1016
0 520 1016
0 512 1023
0 500 1016
0 772 0
4 768 0
0 756 0
0 736 0
4 720 0
4 700 104
0 684 260
4 668 404
0 656 536
0 644 672
0 632 788
0 620 888
0 604 968
0 588 1012
4 572 1023
0 560 1023
0 552 1023
0 840 0
4 836 4
0 824 4
0 804 0
0 784 0
0 768 20
0 748 176
0 736 328
0 720 468
0 708 596
0 692 716
4 680 852
0 660 956
0 640 1016
0 620 1023
0 604 1023
0 596 1023
0 924 4
0 912 0
0 900 4
0 872 0
0 848 0
0 828 0
0 812 28
0 796 224
0 776 380
0 764 524
0 748 648
0 736 768
4 720 892
4 700 984
0 680 1023
0 668 1023
0 652 1016
0 968 0
0 968 0
0 956 0
0 948 4
0 924 4
0 900 0
0 876 0
0 856 128
0 840 284
4 824 452
0 804 584
0 792 700
0 776 816
0 756 924
4 736 1000
0 716 1016
0 708 1016
0 1012 0
0 1012 0
4 1008 4
0 1000 0
0 980 0
0 968 0
4 940 0
0 920 0
0 900 180
0 884 348
0 872 496
0 852 628
0 828 748
0 812 860
0 796 960
0 776 1023
0 756 1012
0 1023 4
0 1023 4
0 1023 4
0 1023 4
0 1016 0
0 1004 0
0 988 0
4 980 0
0 964 8
0 948 220
0 936 380
4 924 528
0 904 652
0 884 792
0 860 912
0 844 992
0 836 1016
0 1023 4
0 1023 4
0 1023 4
0 1023 4
0 1023 4
0 1023 4
0 1016 0
0 1012 0
0 1012 0
0 1004 32
0 996 220
0 988 384
0 976 532
0 960 676
0 920 848
0 888 980
0 880 1016
0 1023 4
0 1023 4
0 1023 4
0 1023 4
0 1023 4
0 1023 4
0 1016 0
0 1016 0
0 1016 0
0 1016 4
0 1016 76
0 1016 288
0 1012 440
0 1004 592
0 980 744
0 944 920
0 924 992
64 4 16
48 4 72
44 0 128
40 16 256
48 20 404
120 12 576
144 0 744
128 4 916
64 0 1023
120 0 1023
128 4 1023
92 0 1023
64 0 1023
48 0 1023
44 0 1023
40 0 1023
60 0 1023
48 56 12
40 40 40
80 60 220
80 52 324
92 44 452
108 32 596
108 32 744
64 16 896
112 8 1004
140 16 1023
124 8 1012
88 4 1016
24 0 1023
32 4 1023
44 4 1023
28 16 1023
36 12 1023
0 160 0
4 152 16
4 140 136
4 144 312
32 132 460
52 112 580
72 112 708
112 112 840
128 112 948
104 100 1012
88 96 1023
24 68 1023
0 32 1023
8 60 1016
28 72 1023
8 76 1016
0 68 1016
0 268 0
0 264 0
4 256 84
0 244 216
0 240 388
0 232 528
16 224 660
24 220 776
12 216 892
16 204 980
4 188 1023
4 180 1016
28 168 1016
20 160 1016
12 156 1023
4 148 1023
0 144 1023
0 376 0
0 372 0
0 360 0
0 352 136
4 344 316
0 336 472
4 324 600
0 320 716
0 316 832
0 296 924
4 288 1008
4 276 1016
8 268 1023
0 260 1023
0 248 1023
0 240 1023
0 228 1012
0 468 0
0 464 4
0 452 0
0 440 60
0 428 232
0 420 392
0 412 536
0 404 660
0 392 780
0 384 904
0 368 980
0 364 1023
0 356 1023
0 348 1023
0 336 1023
0 320 1023
0 308 1023
0 552 0
0 544 0
0 532 0
0 524 12
0 508 136
0 496 320
0 488 476
4 480 604
0 468 724
0 456 844
0 444 976
0 436 1016
4 428 1023
0 416 1023
4 408 1023
0 396 1023
0 384 1023
0 636 0
0 628 0
0 616 0
0 600 0
0 584 84
0 568 224
0 556 400
0 544 544
0 540 668
0 524 780
0 512 880
0 500 964
0 488 1008
0 476 1023
0 464 1023
0 452 1016
0 440 1016
4 700 0
0 696 0
0 684 0
0 668 0
0 652 24
0 636 196
0 624 340
4 608 476
0 596 612
0 580 728
4 576 848
4 564 944
0 544 1016
0 536 1023
4 524 1023
0 512 1023
0 504 1023
0 772 0
0 764 0
0 756 0
0 736 0
4 720 0
0 700 100
0 684 264
4 668 404
0 660 540
0 648 668
0 632 788
0 620 888
0 604 968
0 588 1012
4 572 1023
0 560 1023
0 552 1023
0 840 0
4 836 4
0 820 0
0 804 0
0 784 0
0 768 16
0 748 176
0 736 328
0 720 468
0 708 596
0 692 716
4 680 852
0 668 952
0 640 1016
0 620 1023
0 600 1023
0 592 1016
0 920 0
4 912 0
0 900 4
0 872 0
0 848 0
0 828 0
0 812 28
0 796 228
0 780 380
0 764 524
0 748 648
0 736 768
4 720 892
0 696 980
4 684 1023
0 668 1023
0 656 1016
0 968 0
0 968 0
0 956 0
0 944 0
0 920 0
0 900 4
0 880 0
0 856 132
0 836 292
4 824 452
0 804 584
0 792 700
0 776 816
4 760 928
0 732 996
0 720 1023
0 708 1012
0 1012 0
0 1012 0
0 1004 0
0 1004 0
0 980 0
0 964 0
4 940 0
0 920 0
0 900 180
0 888 340
0 872 496
0 852 628
0 832 744
0 816 860
0 796 960
0 776 1023
0 764 1016
0 1023 4
0 1023 4
0 1023 4
0 1023 4
0 1016 0
4 1008 4
0 992 4
0 976 0
0 960 12
0 948 220
0 936 380
4 924 528
0 904 652
0 884 792
0 860 912
0 844 992
0 836 1016
0 1023 4
0 1023 4
0 1023 4
0 1023 4
0 1023 4
0 1023 4
0 1016 0
0 1016 0
0 1012 0
0 1004 32
0 996 236
0 988 392
4 980 536
0 960 676
0 920 848
0 888 980
0 880 1016
0 1023 4
0 1023 4
0 1023 4
0 1023 4
0 1023 4
0 1023 4
0 1016 0
0 1016 0
0 1016 0
0 1016 4
0 1016 76
0 1016 288
0 1016 440
0 1004 588
0 980 744
0 944 912
0 928 992
144 28 48
152 28 100
96 12 144
80 12 216
112 20 384
160 8 564
168 0 740
140 0 908
112 4 1023
160 0 1023
148 0 1016
104 0 1023
64 0 1023
48 0 1023
52 0 1023
48 0 1023
60 0 1023
144 68 12
148 60 72
172 48 216
148 48 312
148 36 436
152 28 580
140 24 728
120 20 884
160 20 996
164 16 1016
140 8 1016
104 0 1016
12 0 1023
28 0 1016
52 12 1023
36 16 1016
40 16 1016
112 160 0
128 152 0
140 132 136
132 136 312
144 124 452
140 112 568
144 112 700
164 108 832
164 108 944
136 100 1008
120 88 1023
40 48 1012
0 36 1016
32 60 1016
32 72 1016
12 76 1023
0 68 1023
20 268 0
40 268 0
68 256 72
92 248 228
108 240 388
116 236 528
128 216 652
112 216 772
72 208 880
48 200 980
64 184 1016
68 176 1016
84 168 1023
60 160 1023
32 156 1016
4 148 1023
4 140 1023
0 376 0
0 376 0
4 364 4
4 352 128
0 348 312
4 336 472
4 324 600
0 320 716
0 308 828
32 296 924
80 284 1000
92 272 1023
68 264 1023
16 256 1023
0 252 1023
0 240 1023
0 232 1023
0 468 0
0 464 0
0 452 0
0 440 64
0 432 236
0 420 400
0 408 532
0 400 656
0 392 768
4 384 900
0 372 976
0 364 1016
0 356 1023
0 344 1016
0 336 1023
0 320 1023
0 308 1023
0 552 0
0 548 0
0 536 0
0 524 12
0 508 144
0 496 320
0 488 476
0 476 596
0 468 716
0 456 840
0 444 968
0 436 1016
4 428 1023
0 416 1023
0 404 1023
0 392 1016
0 380 1016
0 632 0
0 628 0
0 616 0
0 600 0
0 584 88
0 568 232
0 556 400
0 544 544
0 540 668
0 524 780
0 512 880
0 500 964
0 492 1012
0 476 1023
0 468 1023
0 452 1016
0 440 1016
4 700 0
0 696 0
0 684 0
0 668 4
0 652 24
0 636 196
0 624 340
0 608 476
0 600 604
0 588 724
0 572 840
4 564 944
0 548 1012
0 536 1016
0 524 1023
0 512 1023
0 504 1023
0 772 0
0 764 0
0 756 4
0 736 0
4 720 0
0 700 112
0 684 268
4 668 404
0 660 540
0 644 664
0 632 788
0 620 888
0 604 968
0 588 1012
0 572 1023
0 564 1023
0 560 1023
0 840 0
0 832 0
0 820 0
0 804 4
0 784 0
0 768 20
0 748 176
0 736 328
0 720 468
0 708 596
0 692 716
0 680 844
0 664 948
4 648 1012
0 624 1023
0 604 1016
0 600 1016
0 920 0
0 908 0
0 896 0
0 872 0
4 844 0
0 828 0
0 812 28
4 800 232
0 780 388
0 764 524
0 752 652
0 736 768
0 720 892
4 700 976
0 680 1023
0 668 1023
0 660 1023
0 968 0
0 964 0
0 956 0
4 940 0
0 920 0
0 896 0
0 876 0
0 852 132
0 836 296
0 820 448
0 804 584
0 792 700
0 776 816
4 760 928
0 736 996
0 720 1023
0 716 1016
0 1012 0
0 1008 0
4 1008 4
0 1004 0
0 980 0
0 964 0
4 940 0
0 920 0
0 900 180
4 888 360
0 872 496
0 852 628
0 836 748
0 816 860
0 796 960
0 776 1023
0 764 1016
0 1023 4
0 1023 4
0 1023 4
0 1023 4
0 1016 0
4 1008 4
0 988 0
4 980 0
0 964 16
0 952 224
0 936 372
0 924 524
4 908 656
0 888 788
0 864 916
0 848 996
0 840 1016
0 1023 4
0 1023 4
0 1023 4
0 1023 4
0 1023 4
0 1023 4
0 1016 0
0 1016 0
0 1012 0
0 1004 32
0 996 236
0 992 396
0 980 536
0 964 680
0 924 852
4 892 984
0 880 1016
0 1023 4
0 1023 4
0 1023 4
0 1023 4
0 1023 4
0 1023 4
0 1016 0
0 1016 0
0 1016 0
0 1016 4
0 1016 84
0 1016 296
0 1016 448
0 1004 600
0 984 748
4 948 916
0 928 992
256 24 80
260 20 132
272 12 268
184 20 280
172 20 360
212 4 548
212 0 720
188 4 896
204 0 1012
200 0 1023
172 0 1023
132 0 1023
48 0 1023
44 0 1023
68 0 1023
64 0 1023
64 0 1023
252 60 12
256 52 80
272 44 220
248 36 356
216 32 428
212 24 568
212 28 712
204 28 864
220 32 984
200 12 1023
176 4 1023
124 0 1016
40 0 1023
52 0 1016
68 20 1023
52 16 1023
