public/luts/标准黑白+绿色 - Mono+Green.3dl
#DarkroomStore © 2019-2021 - 暗房商店
3DMESH
Mesh 4 10
0 64 128 192 256 320 384 448 512 576 640 704 768 832 896 960 1023
0 0 0
40 40 40
80 80 80
124 124 124
168 168 168
216 216 216
268 268 268
324 324 324
372 372 372
400 400 400
428 428 428
460 460 460
496 496 496
528 528 528
540 540 540
548 548 548
548 548 548
56 56 56
68 68 68
120 120 120
164 164 164
192 192 192
232 232 232
276 276 276
328 328 328
364 364 364
400 400 400
428 428 428
460 460 460
492 492 492
524 524 524
548 548 548
556 556 556
556 556 556
152 152 152
152 152 152
104 104 104
160 160 160
216 216 216
256 256 256
296 296 296
344 344 344
384 384 384
416 416 416
452 452 452
460 460 460
480 480 480
520 520 520
548 548 548
556 556 556
556 556 556
236 236 236
236 236 236
212 212 212
152 152 152
184 184 184
248 248 248
296 296 296
348 348 348
404 404 404
428 428 428
456 456 456
484 484 484
508 508 508
532 532 532
552 552 552
564 564 564
564 564 564
296 296 296
292 292 292
284 284 284
240 240 240
188 188 188
224 224 224
284 284 284
328 328 328
376 376 376
436 436 436
480 480 480
508 508 508
540 540 540
572 572 572
564 564 564
556 556 556
556 556 556
360 360 360
356 356 356
348 348 348
308 308 308
272 272 272
220 220 220
252 252 252
312 312 312
356 356 356
400 400 400
440 440 440
484 484 484
520 520 520
552 552 552
572 572 572
572 572 572
568 568 568
416 416 416
412 412 412
400 400 400
384 384 384
352 352 352
312 312 312
260 260 260
288 288 288
348 348 348
396 396 396
436 436 436
472 472 472
504 504 504
536 536 536
556 556 556
564 564 564
564 564 564
468 468 468
464 464 464
456 456 456
440 440 440
416 416 416
384 384 384
348 348 348
292 292 292
308 308 308
368 368 368
416 416 416
456 456 456
500 500 500
524 524 524
516 516 516
532 532 532
532 532 532
520 520 520
520 520 520
516 516 516
508 508 508
488 488 488
452 452 452
416 416 416
380 380 380
328 328 328
344 344 344
400 400 400
452 452 452
488 488 488
512 512 512
528 528 528
536 536 536
532 532 532
572 572 572
568 568 568
564 564 564
556 556 556
540 540 540
508 508 508
476 476 476
448 448 448
412 412 412
360 360 360
360 360 360
420 420 420
476 476 476
508 508 508
524 524 524
528 528 528
528 528 528
632 632 632
632 632 632
632 632 632
616 616 616
592 592 592
568 568 568
532 532 532
504 504 504
480 480 480
448 448 448
396 396 396
380 380 380
448 448 448
500 500 500
524 524 524
528 528 528
528 528 528
680 680 680
676 676 676
668 668 668
652 652 652
628 628 628
620 620 620
604 604 604
572 572 572
540 540 540
516 516 516
480 480 480
432 432 432
420 420 420
468 468 468
504 504 504
516 516 516
516 516 516
724 724 724
720 720 720
712 712 712
700 700 700
688 688 688
668 668 668
648 648 648
624 624 624
596 596 596
568 568 568
540 540 540
512 512 512
464 464 464
448 448 448
492 492 492
512 512 512
516 516 516
776 776 776
772 772 772
764 764 764
748 748 748
732 732 732
712 712 712
696 696 696
680 680 680
652 652 652
620 620 620
600 600 600
580 580 580
548 548 548
508 508 508
468 468 468
500 500 500
512 512 512
816 816 816
812 812 812
804 804 804
792 792 792
780 780 780
760 760 760
744 744 744
728 728 728
712 712 712
684 684 684
656 656 656
628 628 628
604 604 604
568 568 568
524 524 524
496 496 496
496 496 496
864 864 864
860 860 860
856 856 856
844 844 844
820 820 820
796 796 796
776 776 776
760 760 760
744 744 744
728 728 728
708 708 708
680 680 680
652 652 652
632 632 632
588 588 588
544 544 544
520 520 520
912 912 912
916 916 916
912 912 912
900 900 900
868 868 868
800 800 800
792 792 792
784 784 784
764 764 764
748 748 748
736 736 736
708 708 708
680 680 680
652 652 652
628 628 628
588 588 588
560 560 560
36 36 36
44 44 44
68 68 68
120 120 120
164 164 164
216 216 216
268 268 268
324 324 324
376 376 376
400 400 400
428 428 428
460 460 460
496 496 496
528 528 528
544 544 544
548 548 548
552 552 552
72 72 72
84 84 84
140 140 140
168 168 168
188 188 188
236 236 236
276 276 276
332 332 332
368 368 368
400 400 400
428 428 428
460 460 460
488 488 488
524 524 524
552 552 552
556 556 556
556 556 556
160 160 160
156 156 156
112 112 112
176 176 176
228 228 228
260 260 260
300 300 300
352 352 352
388 388 388
424 424 424
456 456 456
460 460 460
480 480 480
520 520 520
548 548 548
556 556 556
556 556 556
236 236 236
236 236 236
208 208 208
152 152 152
184 184 184
252 252 252
308 308 308
360 360 360
408 408 408
432 432 432
460 460 460
484 484 484
512 512 512
532 532 532
556 556 556
564 564 564
564 564 564
296 296 296
296 296 296
280 280 280
236 236 236
188 188 188
228 228 228
284 284 284
328 328 328
380 380 380
444 444 444
480 480 480
512 512 512
544 544 544
576 576 576
568 568 568
560 560 560
560 560 560
364 364 364
360 360 360
348 348 348
308 308 308
272 272 272
220 220 220
252 252 252
308 308 308
356 356 356
400 400 400
444 444 444
492 492 492
524 524 524
552 552 552
572 572 572
576 576 576
572 572 572
416 416 416
412 412 412
400 400 400
384 384 384
352 352 352
312 312 312
260 260 260
292 292 292
348 348 348
396 396 396
436 436 436
472 472 472
508 508 508
540 540 540
556 556 556
564 564 564
564 564 564
468 468 468
464 464 464
456 456 456
440 440 440
416 416 416
384 384 384
344 344 344
292 292 292
308 308 308
368 368 368
416 416 416
456 456 456
500 500 500
524 524 524
516 516 516
532 532 532
536 536 536
520 520 520
520 520 520
516 516 516
508 508 508
488 488 488
452 452 452
416 416 416
380 380 380
328 328 328
344 344 344
404 404 404
452 452 452
488 488 488
512 512 512
528 528 528
536 536 536
532 532 532
572 572 572
572 572 572
564 564 564
556 556 556
540 540 540
508 508 508
476 476 476
448 448 448
412 412 412
360 360 360
360 360 360
420 420 420
476 476 476
508 508 508
524 524 524
528 528 528
528 528 528
632 632 632
632 632 632
628 628 628
616 616 616
592 592 592
568 568 568
532 532 532
504 504 504
480 480 480
448 448 448
396 396 396
380 380 380
448 448 448
496 496 496
524 524 524
528 528 528
528 528 528
680 680 680
676 676 676
668 668 668
652 652 652
628 628 628
620 620 620
604 604 604
568 568 568
540 540 540
512 512 512
480 480 480
432 432 432
420 420 420
468 468 468
504 504 504
516 516 516
516 516 516
724 724 724
720 720 720
716 716 716
700 700 700
684 684 684
668 668 668
648 648 648
624 624 624
592 592 592
568 568 568
540 540 540
512 512 512
464 464 464
448 448 448
492 492 492
512 512 512
516 516 516
780 780 780
776 776 776
768 768 768
752 752 752
732 732 732
712 712 712
696 696 696
680 680 680
652 652 652
620 620 620
600 600 600
580 580 580
548 548 548
508 508 508
468 468 468
500 500 500
508 508 508
816 816 816
812 812 812
804 804 804
796 796 796
780 780 780
760 760 760
744 744 744
728 728 728
712 712 712
684 684 684
656 656 656
628 628 628
604 604 604
568 568 568
524 524 524
496 496 496
496 496 496
868 868 868
864 864 864
856 856 856
844 844 844
820 820 820
796 796 796
772 772 772
756 756 756
740 740 740
728 728 728
704 704 704
680 680 680
652 652 652
632 632 632
588 588 588
544 544 544
520 520 520
912 912 912
916 916 916
912 912 912
900 900 900
872 872 872
804 804 804
792 792 792
776 776 776
760 760 760
744 744 744
736 736 736
708 708 708
680 680 680
652 652 652
628 628 628
588 588 588
560 560 560
44 44 44
56 56 56
80 80 80
108 108 108
160 160 160
212 212 212
264 264 264
328 328 328
376 376 376
404 404 404
428 428 428
460 460 460
496 496 496
532 532 532
548 548 548
552 552 552
552 552 552
80 80 80
88 88 88
132 132 132
164 164 164
192 192 192
232 232 232
280 280 280
332 332 332
372 372 372
408 408 408
436 436 436
460 460 460
488 488 488
524 524 524
552 552 552
556 556 556
556 556 556
152 152 152
148 148 148
176 176 176
220 220 220
264 264 264
272 272 272
308 308 308
360 360 360
396 396 396
436 436 436
464 464 464
464 464 464
484 484 484
520 520 520
548 548 548
560 560 560
560 560 560
236 236 236
236 236 236
220 220 220
180 180 180
216 216 216
280 280 280
336 336 336
380 380 380
424 424 424
444 444 444
464 464 464
492 492 492
516 516 516
536 536 536
560 560 560
564 564 564
564 564 564
300 300 300
296 296 296
284 284 284
240 240 240
196 196 196
232 232 232
292 292 292
332 332 332
404 404 404
456 456 456
488 488 488
520 520 520
552 552 552
584 584 584
576 576 576
560 560 560
560 560 560
364 364 364
364 364 364
352 352 352
312 312 312
272 272 272
224 224 224
256 256 256
308 308 308
360 360 360
400 400 400
456 456 456
508 508 508
532 532 532
560 560 560
580 580 580
580 580 580
576 576 576
416 416 416
412 412 412
404 404 404
384 384 384
352 352 352
312 312 312
264 264 264
296 296 296
348 348 348
400 400 400
440 440 440
472 472 472
516 516 516
544 544 544
560 560 560
568 568 568
568 568 568
468 468 468
468 468 468
460 460 460
444 444 444
416 416 416
380 380 380
340 340 340
292 292 292
308 308 308
368 368 368
416 416 416
456 456 456
500 500 500
524 524 524
516 516 516
536 536 536
536 536 536
520 520 520
520 520 520
516 516 516
508 508 508
488 488 488
452 452 452
416 416 416
380 380 380
332 332 332
348 348 348
408 408 408
452 452 452
488 488 488
512 512 512
528 528 528
540 540 540
536 536 536
572 572 572
572 572 572
568 568 568
556 556 556
540 540 540
508 508 508
476 476 476
448 448 448
412 412 412
360 360 360
360 360 360
420 420 420
476 476 476
508 508 508
524 524 524
528 528 528
528 528 528
636 636 636
632 632 632
632 632 632
616 616 616
592 592 592
564 564 564
528 528 528
504 504 504
480 480 480
444 444 444
392 392 392
380 380 380
448 448 448
496 496 496
524 524 524
528 528 528
528 528 528
680 680 680
676 676 676
668 668 668
656 656 656
632 632 632
620 620 620
604 604 604
568 568 568
540 540 540
512 512 512
480 480 480
428 428 428
420 420 420
468 468 468
504 504 504
516 516 516
516 516 516
724 724 724
724 724 724
716 716 716
704 704 704
688 688 688
668 668 668
648 648 648
624 624 624
592 592 592
564 564 564
540 540 540
508 508 508
464 464 464
448 448 448
492 492 492
516 516 516
516 516 516
780 780 780
776 776 776
768 768 768
752 752 752
728 728 728
708 708 708
688 688 688
676 676 676
648 648 648
620 620 620
600 600 600
580 580 580
548 548 548
508 508 508
468 468 468
500 500 500
508 508 508
820 820 820
816 816 816
808 808 808
796 796 796
780 780 780
760 760 760
744 744 744
728 728 728
712 712 712
684 684 684
656 656 656
628 628 628
604 604 604
568 568 568
524 524 524
496 496 496
496 496 496
868 868 868
864 864 864
860 860 860
844 844 844
824 824 824
796 796 796
772 772 772
756 756 756
740 740 740
728 728 728
704 704 704
680 680 680
652 652 652
628 628 628
588 588 588
544 544 544
520 520 520
916 916 916
916 916 916
916 916 916
904 904 904
876 876 876
804 804 804
788 788 788
768 768 768
752 752 752
740 740 740
732 732 732
708 708 708
680 680 680
652 652 652
628 628 628
588 588 588
560 560 560
44 44 44
64 64 64
108 108 108
116 116 116
144 144 144
200 200 200
268 268 268
328 328 328
376 376 376
412 412 412
436 436 436
460 460 460
496 496 496
532 532 532
552 552 552
556 556 556
556 556 556
76 76 76
76 76 76
116 116 116
156 156 156
180 180 180
224 224 224
284 284 284
340 340 340
388 388 388
428 428 428
452 452 452
460 460 460
484 484 484
524 524 524
552 552 552
556 556 556
