public/luts/标准黑白+红色 - Mono+Red.3dl
#DarkroomStore © 2019-2021 - 暗房商店
3DMESH
Mesh 4 10
0 64 128 192 256 320 384 448 512 576 640 704 768 832 896 960 1023
0 0 0
48 48 48
76 76 76
88 88 88
104 104 104
136 136 136
156 156 156
164 164 164
192 192 192
208 208 208
232 232 232
244 244 244
248 248 248
248 248 248
252 252 252
256 256 256
256 256 256
68 68 68
76 76 76
96 96 96
108 108 108
124 124 124
144 144 144
156 156 156
172 172 172
196 196 196
228 228 228
236 236 236
244 244 244
252 252 252
252 252 252
252 252 252
256 256 256
256 256 256
84 84 84
88 88 88
132 132 132
160 160 160
164 164 164
172 172 172
180 180 180
208 208 208
228 228 228
236 236 236
244 244 244
244 244 244
252 252 252
264 264 264
264 264 264
268 268 268
268 268 268
128 128 128
132 132 132
144 144 144
200 200 200
224 224 224
232 232 232
232 232 232
240 240 240
256 256 256
260 260 260
272 272 272
280 280 280
284 284 284
288 288 288
288 288 288
288 288 288
284 284 284
172 172 172
172 172 172
180 180 180
208 208 208
260 260 260
284 284 284
292 292 292
296 296 296
296 296 296
300 300 300
308 308 308
312 312 312
320 320 320
312 312 312
312 312 312
308 308 308
296 296 296
208 208 208
212 212 212
212 212 212
228 228 228
260 260 260
312 312 312
336 336 336
344 344 344
348 348 348
352 352 352
348 348 348
348 348 348
348 348 348
352 352 352
348 348 348
344 344 344
344 344 344
248 248 248
252 252 252
256 256 256
260 260 260
276 276 276
308 308 308
364 364 364
388 388 388
392 392 392
400 400 400
400 400 400
400 400 400
392 392 392
392 392 392
392 392 392
388 388 388
388 388 388
284 284 284
284 284 284
288 288 288
296 296 296
308 308 308
328 328 328
352 352 352
408 408 408
436 436 436
440 440 440
440 440 440
440 440 440
440 440 440
436 436 436
420 420 420
424 424 424
424 424 424
316 316 316
316 316 316
316 316 316
320 320 320
332 332 332
352 352 352
372 372 372
396 396 396
452 452 452
480 480 480
484 484 484
484 484 484
488 488 488
480 480 480
476 476 476
468 468 468
468 468 468
344 344 344
344 344 344
348 348 348
352 352 352
356 356 356
372 372 372
392 392 392
416 416 416
440 440 440
492 492 492
520 520 520
524 524 524
524 524 524
520 520 520
520 520 520
516 516 516
512 512 512
376 376 376
376 376 376
376 376 376
376 376 376
384 384 384
392 392 392
408 408 408
432 432 432
452 452 452
480 480 480
532 532 532
564 564 564
564 564 564
564 564 564
560 560 560
560 560 560
556 556 556
404 404 404
404 404 404
404 404 404
408 408 408
416 416 416
420 420 420
428 428 428
448 448 448
468 468 468
488 488 488
516 516 516
564 564 564
596 596 596
600 600 600
596 596 596
596 596 596
596 596 596
428 428 428
428 428 428
432 432 432
432 432 432
436 436 436
444 444 444
452 452 452
464 464 464
484 484 484
508 508 508
524 524 524
552 552 552
596 596 596
632 632 632
636 636 636
632 632 632
632 632 632
452 452 452
452 452 452
452 452 452
456 456 456
460 460 460
464 464 464
472 472 472
480 480 480
496 496 496
520 520 520
544 544 544
552 552 552
580 580 580
620 620 620
664 664 664
668 668 668
668 668 668
476 476 476
476 476 476
480 480 480
480 480 480
484 484 484
492 492 492
496 496 496
504 504 504
512 512 512
528 528 528
552 552 552
572 572 572
584 584 584
616 616 616
656 656 656
688 688 688
692 692 692
492 492 492
492 492 492
492 492 492
496 496 496
504 504 504
512 512 512
520 520 520
524 524 524
532 532 532
540 540 540
556 556 556
576 576 576
596 596 596
608 608 608
644 644 644
680 680 680
700 700 700
492 492 492
492 492 492
492 492 492
496 496 496
504 504 504
524 524 524
528 528 528
532 532 532
536 536 536
548 548 548
556 556 556
576 576 576
596 596 596
616 616 616
640 640 640
672 672 672
688 688 688
92 92 92
84 84 84
88 88 88
104 104 104
116 116 116
148 148 148
164 164 164
172 172 172
200 200 200
220 220 220
236 236 236
248 248 248
252 252 252
248 248 248
252 252 252
256 256 256
256 256 256
84 84 84
96 96 96
120 120 120
128 128 128
136 136 136
152 152 152
168 168 168
180 180 180
212 212 212
232 232 232
240 240 240
248 248 248
252 252 252
252 252 252
252 252 252
256 256 256
260 260 260
88 88 88
92 92 92
136 136 136
164 164 164
172 172 172
176 176 176
188 188 188
216 216 216
232 232 232
240 240 240
244 244 244
244 244 244
252 252 252
264 264 264
268 268 268
268 268 268
268 268 268
132 132 132
132 132 132
148 148 148
200 200 200
220 220 220
232 232 232
236 236 236
244 244 244
260 260 260
264 264 264
276 276 276
280 280 280
288 288 288
292 292 292
292 292 292
288 288 288
284 284 284
172 172 172
176 176 176
184 184 184
216 216 216
260 260 260
284 284 284
292 292 292
296 296 296
296 296 296
304 304 304
312 312 312
316 316 316
320 320 320
316 316 316
312 312 312
308 308 308
300 300 300
208 208 208
208 208 208
212 212 212
228 228 228
264 264 264
312 312 312
336 336 336
340 340 340
344 344 344
348 348 348
348 348 348
348 348 348
348 348 348
352 352 352
348 348 348
348 348 348
344 344 344
252 252 252
252 252 252
256 256 256
264 264 264
280 280 280
312 312 312
364 364 364
388 388 388
396 396 396
396 396 396
400 400 400
396 396 396
392 392 392
392 392 392
392 392 392
392 392 392
388 388 388
284 284 284
288 288 288
288 288 288
296 296 296
308 308 308
328 328 328
356 356 356
408 408 408
436 436 436
440 440 440
440 440 440
440 440 440
440 440 440
432 432 432
420 420 420
424 424 424
424 424 424
316 316 316
316 316 316
316 316 316
320 320 320
332 332 332
352 352 352
376 376 376
396 396 396
452 452 452
480 480 480
484 484 484
484 484 484
484 484 484
480 480 480
476 476 476
468 468 468
464 464 464
344 344 344
344 344 344
348 348 348
352 352 352
356 356 356
372 372 372
392 392 392
416 416 416
440 440 440
492 492 492
520 520 520
524 524 524
524 524 524
520 520 520
520 520 520
516 516 516
512 512 512
376 376 376
376 376 376
376 376 376
376 376 376
384 384 384
392 392 392
408 408 408
432 432 432
452 452 452
480 480 480
532 532 532
564 564 564
564 564 564
564 564 564
560 560 560
560 560 560
556 556 556
404 404 404
404 404 404
404 404 404
408 408 408
416 416 416
420 420 420
428 428 428
448 448 448
468 468 468
488 488 488
516 516 516
564 564 564
596 596 596
600 600 600
596 596 596
596 596 596
596 596 596
428 428 428
428 428 428
432 432 432
432 432 432
436 436 436
444 444 444
452 452 452
464 464 464
484 484 484
508 508 508
524 524 524
552 552 552
596 596 596
632 632 632
636 636 636
632 632 632
632 632 632
452 452 452
452 452 452
452 452 452
456 456 456
460 460 460
464 464 464
472 472 472
480 480 480
500 500 500
520 520 520
544 544 544
552 552 552
580 580 580
624 624 624
664 664 664
668 668 668
668 668 668
476 476 476
476 476 476
476 476 476
480 480 480
484 484 484
488 488 488
496 496 496
504 504 504
512 512 512
528 528 528
552 552 552
572 572 572
584 584 584
616 616 616
660 660 660
688 688 688
692 692 692
492 492 492
492 492 492
492 492 492
496 496 496
504 504 504
512 512 512
520 520 520
528 528 528
536 536 536
544 544 544
556 556 556
576 576 576
596 596 596
612 612 612
644 644 644
680 680 680
700 700 700
492 492 492
492 492 492
492 492 492
496 496 496
504 504 504
524 524 524
528 528 528
532 532 532
540 540 540
548 548 548
556 556 556
576 576 576
596 596 596
616 616 616
640 640 640
672 672 672
688 688 688
160 160 160
176 176 176
136 136 136
124 124 124
144 144 144
172 172 172
184 184 184
196 196 196
220 220 220
232 232 232
244 244 244
252 252 252
256 256 256
252 252 252
252 252 252
256 256 256
256 256 256
148 148 148
172 172 172
200 200 200
168 168 168
168 168 168
176 176 176
188 188 188
204 204 204
228 228 228
244 244 244
248 248 248
248 248 248
252 252 252
256 256 256
252 252 252
260 260 260
260 260 260
136 136 136
152 152 152
200 200 200
204 204 204
204 204 204
200 200 200
208 208 208
228 228 228
240 240 240
248 248 248
252 252 252
252 252 252
256 256 256
272 272 272
272 272 272
272 272 272
272 272 272
136 136 136
140 140 140
160 160 160
216 216 216
232 232 232
240 240 240
244 244 244
256 256 256
272 272 272
276 276 276
284 284 284
288 288 288
296 296 296
296 296 296
296 296 296
292 292 292
288 288 288
180 180 180
184 184 184
196 196 196
228 228 228
264 264 264
284 284 284
292 292 292
296 296 296
300 300 300
312 312 312
320 320 320
320 320 320
324 324 324
316 316 316
316 316 316
312 312 312
300 300 300
208 208 208
208 208 208
216 216 216
236 236 236
268 268 268
316 316 316
336 336 336
340 340 340
344 344 344
348 348 348
348 348 348
352 352 352
352 352 352
356 356 356
352 352 352
352 352 352
348 348 348
252 252 252
252 252 252
256 256 256
264 264 264
288 288 288
320 320 320
368 368 368
388 388 388
396 396 396
396 396 396
400 400 400
396 396 396
396 396 396
392 392 392
392 392 392
392 392 392
388 388 388
288 288 288
288 288 288
288 288 288
296 296 296
308 308 308
332 332 332
360 360 360
412 412 412
436 436 436
440 440 440
440 440 440
440 440 440
436 436 436
432 432 432
420 420 420
424 424 424
424 424 424
316 316 316
320 320 320
320 320 320
324 324 324
336 336 336
356 356 356
376 376 376
400 400 400
452 452 452
480 480 480
484 484 484
484 484 484
484 484 484
480 480 480
472 472 472
468 468 468
464 464 464
344 344 344
344 344 344
348 348 348
352 352 352
356 356 356
376 376 376
396 396 396
416 416 416
440 440 440
492 492 492
524 524 524
524 524 524
524 524 524
520 520 520
516 516 516
516 516 516
512 512 512
376 376 376
376 376 376
376 376 376
380 380 380
384 384 384
392 392 392
412 412 412
432 432 432
456 456 456
484 484 484
532 532 532
564 564 564
564 564 564
564 564 564
560 560 560
560 560 560
556 556 556
404 404 404
404 404 404
408 408 408
412 412 412
416 416 416
424 424 424
432 432 432
448 448 448
468 468 468
488 488 488
516 516 516
564 564 564
596 596 596
600 600 600
596 596 596
596 596 596
596 596 596
428 428 428
428 428 428
428 428 428
432 432 432
436 436 436
444 444 444
452 452 452
468 468 468
488 488 488
508 508 508
524 524 524
552 552 552
600 600 600
636 636 636
636 636 636
632 632 632
632 632 632
452 452 452
452 452 452
452 452 452
456 456 456
460 460 460
464 464 464
472 472 472
484 484 484
500 500 500
524 524 524
544 544 544
556 556 556
580 580 580
624 624 624
664 664 664
668 668 668
668 668 668
476 476 476
476 476 476
480 480 480
480 480 480
484 484 484
492 492 492
496 496 496
504 504 504
512 512 512
532 532 532
552 552 552
572 572 572
584 584 584
620 620 620
660 660 660
692 692 692
692 692 692
492 492 492
492 492 492
492 492 492
496 496 496
504 504 504
512 512 512
520 520 520
528 528 528
536 536 536
544 544 544
560 560 560
580 580 580
596 596 596
612 612 612
648 648 648
680 680 680
700 700 700
492 492 492
492 492 492
492 492 492
496 496 496
504 504 504
524 524 524
528 528 528
532 532 532
540 540 540
548 548 548
560 560 560
580 580 580
596 596 596
616 616 616
640 640 640
672 672 672
692 692 692
228 228 228
252 252 252
272 272 272
204 204 204
188 188 188
216 216 216
224 224 224
240 240 240
252 252 252
256 256 256
256 256 256
256 256 256
260 260 260
256 256 256
252 252 252
264 264 264
264 264 264
220 220 220
232 232 232
272 272 272
256 256 256
224 224 224
224 224 224
228 228 228
240 240 240
256 256 256
260 260 260
260 260 260
256 256 256
260 260 260
264 264 264
264 264 264
268 268 268
