public/luts/标准黑白+黄色 - Mono+Yellow.3dl
#DarkroomStore © 2019-2021 - 暗房商店
3DMESH
Mesh 4 10
0 64 128 192 256 320 384 448 512 576 640 704 768 832 896 960 1023
0 0 0
44 44 44
72 72 72
100 100 100
128 128 128
172 172 172
212 212 212
236 236 236
276 276 276
300 300 300
332 332 332
356 356 356
372 372 372
388 388 388
396 396 396
404 404 404
404 404 404
56 56 56
68 68 68
100 100 100
128 128 128
152 152 152
184 184 184
212 212 212
244 244 244
276 276 276
312 312 312
332 332 332
356 356 356
372 372 372
388 388 388
400 400 400
408 408 408
408 408 408
116 116 116
116 116 116
140 140 140
168 168 168
188 188 188
208 208 208
232 232 232
268 268 268
296 296 296
316 316 316
336 336 336
352 352 352
372 372 372
396 396 396
408 408 408
412 412 412
416 416 416
180 180 180
180 180 180
188 188 188
208 208 208
236 236 236
252 252 252
264 264 264
288 288 288
316 316 316
336 336 336
356 356 356
376 376 376
396 396 396
412 412 412
420 420 420
424 424 424
424 424 424
232 232 232
232 232 232
236 236 236
248 248 248
272 272 272
296 296 296
312 312 312
328 328 328
340 340 340
360 360 360
384 384 384
400 400 400
420 420 420
432 432 432
436 436 436
436 436 436
432 432 432
280 280 280
284 284 284
284 284 284
288 288 288
300 300 300
324 324 324
348 348 348
368 368 368
380 380 380
392 392 392
400 400 400
416 416 416
436 436 436
452 452 452
460 460 460
464 464 464
460 460 460
332 332 332
332 332 332
332 332 332
336 336 336
340 340 340
352 352 352
380 380 380
404 404 404
420 420 420
436 436 436
444 444 444
456 456 456
460 460 460
472 472 472
476 476 476
480 480 480
480 480 480
376 376 376
376 376 376
376 376 376
380 380 380
384 384 384
392 392 392
400 400 400
428 428 428
448 448 448
464 464 464
480 480 480
492 492 492
500 500 500
504 504 504
500 500 500
500 500 500
500 500 500
420 420 420
420 420 420
420 420 420
420 420 420
424 424 424
432 432 432
440 440 440
448 448 448
476 476 476
496 496 496
516 516 516
532 532 532
544 544 544
544 544 544
544 544 544
540 540 540
540 540 540
460 460 460
460 460 460
460 460 460
460 460 460
464 464 464
472 472 472
480 480 480
488 488 488
496 496 496
520 520 520
540 540 540
560 560 560
576 576 576
584 584 584
588 588 588
584 584 584
584 584 584
504 504 504
500 500 500
504 504 504
504 504 504
504 504 504
508 508 508
516 516 516
524 524 524
532 532 532
540 540 540
564 564 564
584 584 584
604 604 604
620 620 620
628 628 628
628 628 628
624 624 624
544 544 544
544 544 544
544 544 544
544 544 544
544 544 544
548 548 548
552 552 552
560 560 560
568 568 568
572 572 572
584 584 584
608 608 608
628 628 628
648 648 648
656 656 656
660 660 660
660 660 660
584 584 584
584 584 584
584 584 584
584 584 584
584 584 584
584 584 584
588 588 588
596 596 596
600 600 600
608 608 608
612 612 612
624 624 624
648 648 648
672 672 672
688 688 688
696 696 696
696 696 696
620 620 620
620 620 620
620 620 620
620 620 620
620 620 620
624 624 624
624 624 624
628 628 628
636 636 636
644 644 644
652 652 652
652 652 652
660 660 660
684 684 684
712 712 712
728 728 728
728 728 728
660 660 660
660 660 660
660 660 660
660 660 660
660 660 660
660 660 660
660 660 660
664 664 664
668 668 668
676 676 676
680 680 680
688 688 688
688 688 688
704 704 704
724 724 724
744 744 744
752 752 752
688 688 688
688 688 688
692 692 692
692 692 692
692 692 692
696 696 696
696 696 696
696 696 696
700 700 700
704 704 704
708 708 708
712 712 712
720 720 720
724 724 724
736 736 736
756 756 756
764 764 764
704 704 704
704 704 704
704 704 704
704 704 704
708 708 708
712 712 712
712 712 712
712 712 712
716 716 716
716 716 716
720 720 720
724 724 724
732 732 732
736 736 736
744 744 744
756 756 756
764 764 764
68 68 68
64 64 64
76 76 76
108 108 108
140 140 140
180 180 180
216 216 216
244 244 244
284 284 284
308 308 308
332 332 332
356 356 356
376 376 376
388 388 388
396 396 396
404 404 404
404 404 404
72 72 72
76 76 76
120 120 120
136 136 136
156 156 156
188 188 188
220 220 220
252 252 252
284 284 284
316 316 316
336 336 336
356 356 356
376 376 376
388 388 388
400 400 400
408 408 408
408 408 408
120 120 120
120 120 120
144 144 144
172 172 172
196 196 196
208 208 208
236 236 236
272 272 272
300 300 300
316 316 316
336 336 336
352 352 352
372 372 372
396 396 396
408 408 408
416 416 416
416 416 416
180 180 180
180 180 180
188 188 188
212 212 212
232 232 232
252 252 252
268 268 268
288 288 288
320 320 320
336 336 336
360 360 360
376 376 376
396 396 396
412 412 412
420 420 420
428 428 428
428 428 428
232 232 232
236 236 236
240 240 240
252 252 252
272 272 272
296 296 296
312 312 312
324 324 324
340 340 340
360 360 360
384 384 384
400 400 400
420 420 420
432 432 432
440 440 440
440 440 440
432 432 432
284 284 284
284 284 284
284 284 284
288 288 288
304 304 304
328 328 328
348 348 348
364 364 364
376 376 376
392 392 392
400 400 400
420 420 420
436 436 436
452 452 452
460 460 460
464 464 464
464 464 464
332 332 332
332 332 332
332 332 332
336 336 336
340 340 340
356 356 356
380 380 380
404 404 404
420 420 420
432 432 432
444 444 444
452 452 452
460 460 460
472 472 472
480 480 480
480 480 480
480 480 480
376 376 376
376 376 376
376 376 376
380 380 380
384 384 384
392 392 392
404 404 404
428 428 428
448 448 448
468 468 468
480 480 480
492 492 492
500 500 500
504 504 504
500 500 500
500 500 500
500 500 500
420 420 420
420 420 420
420 420 420
420 420 420
424 424 424
432 432 432
440 440 440
448 448 448
476 476 476
500 500 500
516 516 516
532 532 532
544 544 544
544 544 544
544 544 544
540 540 540
540 540 540
460 460 460
460 460 460
460 460 460
460 460 460
464 464 464
472 472 472
480 480 480
488 488 488
496 496 496
520 520 520
540 540 540
560 560 560
576 576 576
584 584 584
588 588 588
584 584 584
580 580 580
504 504 504
504 504 504
500 500 500
504 504 504
504 504 504
508 508 508
516 516 516
524 524 524
532 532 532
544 544 544
564 564 564
584 584 584
604 604 604
620 620 620
628 628 628
628 628 628
624 624 624
544 544 544
544 544 544
544 544 544
544 544 544
544 544 544
548 548 548
552 552 552
560 560 560
568 568 568
572 572 572
584 584 584
608 608 608
628 628 628
648 648 648
656 656 656
660 660 660
660 660 660
584 584 584
584 584 584
584 584 584
584 584 584
584 584 584
588 588 588
588 588 588
596 596 596
600 600 600
608 608 608
612 612 612
624 624 624
648 648 648
672 672 672
688 688 688
696 696 696
696 696 696
620 620 620
620 620 620
620 620 620
620 620 620
620 620 620
624 624 624
624 624 624
628 628 628
636 636 636
644 644 644
652 652 652
652 652 652
664 664 664
684 684 684
712 712 712
728 728 728
728 728 728
660 660 660
660 660 660
660 660 660
660 660 660
660 660 660
660 660 660
660 660 660
664 664 664
668 668 668
676 676 676
684 684 684
688 688 688
688 688 688
704 704 704
728 728 728
744 744 744
752 752 752
688 688 688
688 688 688
692 692 692
692 692 692
692 692 692
696 696 696
696 696 696
700 700 700
700 700 700
704 704 704
708 708 708
716 716 716
720 720 720
724 724 724
736 736 736
756 756 756
764 764 764
704 704 704
704 704 704
704 704 704
704 704 704
708 708 708
712 712 712
712 712 712
716 716 716
716 716 716
720 720 720
720 720 720
724 724 724
732 732 732
740 740 740
744 744 744
756 756 756
764 764 764
120 120 120
136 136 136
112 112 112
116 116 116
152 152 152
192 192 192
224 224 224
260 260 260
296 296 296
316 316 316
340 340 340
360 360 360
376 376 376
392 392 392
400 400 400
408 408 408
408 408 408
116 116 116
132 132 132
168 168 168
160 160 160
176 176 176
200 200 200
232 232 232
264 264 264
296 296 296
320 320 320
340 340 340
356 356 356
376 376 376
392 392 392
400 400 400
408 408 408
412 412 412
136 136 136
140 140 140
168 168 168
196 196 196
212 212 212
220 220 220
248 248 248
280 280 280
304 304 304
320 320 320
344 344 344
356 356 356
372 372 372
400 400 400
412 412 412
416 416 416
416 416 416
184 184 184
184 184 184
192 192 192
216 216 216
236 236 236
256 256 256
272 272 272
296 296 296
324 324 324
344 344 344
364 364 364
380 380 380
400 400 400
416 416 416
424 424 424
428 428 428
428 428 428
236 236 236
236 236 236
244 244 244
256 256 256
276 276 276
296 296 296
312 312 312
324 324 324
340 340 340
364 364 364
384 384 384
404 404 404
420 420 420
436 436 436
440 440 440
440 440 440
436 436 436
284 284 284
284 284 284
284 284 284
292 292 292
308 308 308
328 328 328
348 348 348
364 364 364
376 376 376
388 388 388
400 400 400
420 420 420
436 436 436
452 452 452
464 464 464
464 464 464
464 464 464
332 332 332
332 332 332
332 332 332
336 336 336
344 344 344
360 360 360
380 380 380
404 404 404
420 420 420
432 432 432
444 444 444
452 452 452
460 460 460
472 472 472
480 480 480
484 484 484
480 480 480
376 376 376
376 376 376
380 380 380
380 380 380
384 384 384
396 396 396
404 404 404
428 428 428
448 448 448
464 464 464
480 480 480
492 492 492
500 500 500
504 504 504
500 500 500
500 500 500
500 500 500
420 420 420
420 420 420
420 420 420
420 420 420
428 428 428
436 436 436
444 444 444
448 448 448
476 476 476
500 500 500
516 516 516
532 532 532
540 540 540
544 544 544
540 540 540
540 540 540
540 540 540
460 460 460
460 460 460
460 460 460
464 464 464
464 464 464
472 472 472
480 480 480
488 488 488
496 496 496
520 520 520
540 540 540
560 560 560
576 576 576
584 584 584
588 588 588
584 584 584
580 580 580
504 504 504
504 504 504
504 504 504
504 504 504
504 504 504
508 508 508
516 516 516
524 524 524
532 532 532
544 544 544
564 564 564
584 584 584
604 604 604
620 620 620
628 628 628
628 628 628
624 624 624
544 544 544
544 544 544
544 544 544
544 544 544
548 548 548
548 548 548
552 552 552
560 560 560
568 568 568
572 572 572
584 584 584
608 608 608
628 628 628
648 648 648
656 656 656
660 660 660
660 660 660
584 584 584
584 584 584
584 584 584
584 584 584
584 584 584
588 588 588
588 588 588
596 596 596
600 600 600
608 608 608
612 612 612
624 624 624
648 648 648
672 672 672
688 688 688
696 696 696
696 696 696
620 620 620
620 620 620
620 620 620
620 620 620
620 620 620
624 624 624
628 628 628
628 628 628
636 636 636
644 644 644
652 652 652
652 652 652
664 664 664
684 684 684
712 712 712
728 728 728
728 728 728
660 660 660
660 660 660
660 660 660
660 660 660
660 660 660
660 660 660
664 664 664
664 664 664
668 668 668
676 676 676
680 680 680
688 688 688
692 692 692
704 704 704
728 728 728
748 748 748
752 752 752
692 692 692
692 692 692
692 692 692
692 692 692
692 692 692
696 696 696
696 696 696
700 700 700
700 700 700
704 704 704
708 708 708
716 716 716
720 720 720
724 724 724
740 740 740
756 756 756
764 764 764
704 704 704
704 704 704
704 704 704
704 704 704
708 708 708
712 712 712
716 716 716
716 716 716
716 716 716
720 720 720
720 720 720
724 724 724
732 732 732
740 740 740
748 748 748
760 760 760
768 768 768
172 172 172
192 192 192
220 220 220
172 172 172
176 176 176
216 216 216
252 252 252
284 284 284
312 312 312
328 328 328
348 348 348
364 364 364
380 380 380
396 396 396
404 404 404
412 412 412
412 412 412
168 168 168
180 180 180
220 220 220
220 220 220
208 208 208
228 228 228
256 256 256
288 288 288
316 316 316
332 332 332
348 348 348
360 360 360
376 376 376
396 396 396
408 408 408
412 412 412
