public/luts/标准肖像 - Pro Neg.Hi.3dl
#DarkroomStore © 2019-2021 - 暗房商店
3DMESH
Mesh 4 10
0 64 128 192 256 320 384 448 512 576 640 704 768 832 896 960 1023
0 0 0
4 0 56
12 0 116
36 4 200
24 16 308
80 20 440
116 8 572
120 0 696
100 8 824
104 16 908
144 32 964
148 36 1012
128 32 1016
72 28 1023
52 28 1016
64 40 1016
64 56 1016
0 40 4
4 36 48
36 40 152
44 44 244
56 48 348
84 40 456
96 32 564
92 32 684
100 40 788
144 56 876
148 60 956
156 64 1008
124 52 1016
68 48 1016
68 68 1023
76 76 1023
68 76 1023
4 128 0
0 124 0
0 120 96
0 120 232
8 112 348
40 112 456
40 104 548
92 108 652
136 120 756
152 120 848
152 124 940
136 108 1008
104 92 1016
108 104 1016
88 116 1023
88 124 1023
52 124 1023
0 216 0
0 216 0
0 216 60
0 212 172
0 208 296
0 208 416
12 208 516
56 208 612
84 208 708
100 204 800
108 200 896
120 196 996
128 188 1016
136 184 1016
128 184 1023
96 184 1016
48 184 1016
0 308 0
0 304 4
0 304 4
0 304 108
0 304 252
0 296 372
4 300 480
0 300 572
0 292 660
8 292 756
80 284 856
124 280 940
136 272 1004
132 272 1016
92 268 1016
44 264 1016
0 260 1016
0 396 0
4 396 0
4 392 4
0 388 40
0 388 192
0 384 328
0 380 436
0 376 528
0 376 624
0 372 720
0 364 820
16 364 920
20 360 1004
4 352 1023
0 348 1023
0 344 1016
0 332 1016
0 476 0
0 476 0
0 476 4
0 468 8
0 464 124
0 460 280
0 456 396
0 456 496
0 448 584
0 444 668
0 436 764
0 432 864
0 428 964
0 424 1016
0 416 1023
28 408 1016
44 404 1016
0 552 0
0 552 0
0 544 0
0 540 0
0 536 76
0 524 200
0 520 344
0 520 456
4 516 552
0 508 648
0 504 740
0 500 836
0 492 916
0 484 984
0 480 1012
0 472 1016
0 468 1016
0 616 0
0 612 0
0 608 0
0 600 0
0 596 24
4 592 176
0 584 300
0 580 408
4 576 504
0 572 604
0 564 708
0 560 808
0 548 904
0 540 980
0 532 1016
0 528 1023
0 524 1023
0 680 4
0 676 0
0 676 0
0 668 4
0 656 0
0 648 96
0 644 232
0 640 352
0 636 452
0 628 560
0 624 672
4 616 780
0 608 868
0 596 944
0 588 1000
0 580 1016
0 572 1016
0 756 4
4 748 0
0 744 0
0 736 0
0 728 4
0 720 20
0 712 160
0 708 284
0 700 392
4 700 504
0 688 612
0 680 732
0 668 836
4 664 936
0 644 1004
0 632 1023
0 632 1023
0 828 0
0 824 4
0 820 0
4 808 0
4 796 0
0 788 0
0 780 20
0 772 180
0 764 312
4 760 432
0 752 548
0 744 668
0 732 788
0 728 888
0 712 968
0 704 1008
0 700 1016
0 896 0
0 896 0
0 888 0
0 880 0
0 872 0
0 860 0
0 852 4
0 844 84
0 832 232
0 824 368
0 820 492
0 808 608
4 796 728
0 788 852
0 780 948
0 768 1004
0 764 1012
0 968 0
0 964 0
4 960 4
0 956 0
4 940 0
0 928 0
0 916 0
0 908 0
0 900 108
0 892 280
0 884 408
0 872 536
0 860 656
0 848 768
0 840 892
0 832 984
0 820 1012
0 1012 0
4 1008 4
0 1004 0
0 1004 0
0 988 0
0 980 0
0 976 0
0 964 0
0 956 0
4 952 176
4 944 328
4 936 464
0 924 592
0 908 724
0 900 836
0 892 924
0 888 976
0 1023 4
0 1023 4
0 1023 4
0 1016 0
0 1016 0
0 1012 0
0 1012 0
0 1004 0
0 1004 0
4 1000 40
0 1000 224
0 988 376
4 984 512
0 968 660
0 952 788
0 936 892
0 932 944
0 1023 4
0 1023 4
0 1023 4
0 1016 0
0 1016 0
0 1016 0
0 1016 0
0 1016 0
0 1016 0
0 1016 4
0 1016 128
0 1016 308
0 1012 444
0 1008 592
0 996 732
0 976 856
0 968 916
44 0 16
32 8 56
24 4 92
56 12 184
60 20 296
108 16 440
136 4 568
140 4 704
116 4 828
140 20 908
164 36 968
156 32 1008
144 28 1023
84 28 1012
68 28 1016
80 48 1023
76 60 1016
32 44 8
32 32 32
68 52 160
76 52 244
92 44 348
108 32 460
116 28 568
112 28 680
132 44 792
160 60 880
168 60 960
168 60 1008
132 48 1023
92 48 1023
80 68 1016
84 76 1012
72 80 1012
0 132 0
4 128 4
12 120 100
40 124 240
68 116 356
88 104 460
92 104 556
128 108 656
160 120 764
164 116 852
172 116 944
156 104 1012
124 92 1023
128 108 1016
104 116 1016
104 124 1023
68 124 1016
0 220 0
0 220 0
0 216 60
0 212 172
4 212 308
32 212 432
64 204 528
104 204 616
124 208 716
124 204 800
136 200 896
140 196 984
156 188 1016
152 184 1023
140 188 1023
112 180 1023
64 180 1016
0 316 0
0 316 0
0 316 0
0 312 112
0 308 256
0 300 376
4 300 488
4 300 584
4 296 672
68 292 760
120 284 852
152 276 940
160 276 1000
148 272 1023
116 268 1016
68 264 1023
4 256 1023
0 400 4
0 396 0
4 396 0
0 392 52
0 392 204
0 384 328
0 384 440
0 380 540
0 376 632
0 372 720
20 368 820
32 364 924
28 356 1000
24 356 1023
0 348 1023
0 340 1016
32 336 1016
0 476 0
0 476 0
0 476 0
0 476 12
0 464 132
0 460 280
0 460 400
0 456 500
0 448 584
0 440 676
0 436 764
4 436 868
0 432 968
0 424 1016
24 416 1023
72 408 1012
80 400 1016
0 552 0
0 552 0
0 544 0
0 544 0
0 536 84
0 528 204
0 524 348
0 520 456
4 516 556
0 508 648
0 504 740
0 496 836
0 492 916
0 484 984
16 480 1023
0 472 1016
0 468 1016
0 616 0
0 612 0
0 612 0
0 600 0
0 596 24
0 592 180
0 584 304
0 580 408
0 580 504
0 572 604
0 564 708
0 560 808
0 552 908
0 544 984
0 532 1016
0 528 1023
0 524 1023
0 680 4
0 680 4
0 676 0
0 668 4
0 660 0
4 652 104
0 644 240
0 640 360
0 636 460
4 632 564
0 620 668
0 612 776
0 608 872
0 596 944
0 584 996
0 580 1016
0 572 1016
0 752 0
0 752 0
0 744 0
0 736 0
0 728 4
0 720 20
0 712 168
0 708 284
0 700 392
0 696 500
0 692 616
0 676 728
0 668 836
0 660 932
4 648 1008
0 632 1023
0 632 1023
0 828 0
0 824 4
0 820 0
0 808 0
4 796 0
0 792 4
0 788 24
0 772 188
0 764 312
4 760 432
0 752 552
0 744 668
0 732 788
0 728 888
0 712 968
0 704 1008
0 700 1016
0 896 0
0 900 4
0 888 0
0 880 0
0 872 0
0 860 0
0 852 4
0 840 92
0 832 240
0 824 368
0 816 488
0 808 608
0 800 728
0 788 852
0 780 948
0 768 1004
0 764 1012
0 968 0
0 964 0
4 960 4
0 956 0
4 940 0
0 928 0
0 920 0
0 908 0
0 900 116
0 888 268
0 884 408
0 872 536
0 860 656
0 848 768
0 840 892
0 832 984
0 824 1016
0 1012 0
4 1008 4
0 1004 0
0 1004 0
0 988 0
0 980 0
0 976 0
0 964 0
4 960 4
4 952 176
4 944 328
0 932 460
0 928 596
4 912 728
0 900 836
0 892 924
0 888 976
0 1023 4
0 1023 4
0 1023 4
0 1016 0
0 1016 0
0 1012 0
0 1012 0
0 1004 0
0 1004 0
4 1000 40
0 996 236
0 988 376
4 984 516
0 968 660
0 952 788
0 936 892
0 932 944
0 1023 4
0 1023 4
0 1023 4
0 1016 0
0 1016 0
0 1016 0
0 1016 0
0 1016 0
0 1016 0
0 1016 4
0 1016 140
0 1016 308
0 1012 452
0 1004 600
0 1000 736
0 976 856
0 968 916
108 16 48
128 20 92
76 12 116
72 16 160
100 24 288
144 12 432
168 0 576
164 4 708
164 16 824
184 24 904
192 32 968
184 32 1012
164 28 1016
104 28 1023
92 36 1023
96 52 1023
84 64 1016
116 52 12
128 52 68
148 52 180
124 44 248
136 40 344
148 32 464
152 28 576
160 28 688
180 52 800
196 60 888
200 60 964
188 56 1012
152 40 1023
120 48 1016
104 68 1016
104 80 1016
84 80 1016
88 132 0
100 128 0
120 120 120
128 124 252
152 116 368
156 104 464
156 104 560
180 112 664
200 116 768
200 120 860
204 116 944
184 100 1016
156 92 1016
152 108 1016
136 116 1016
124 120 1016
88 120 1016
8 228 0
32 228 8
56 224 72
96 220 196
116 220 328
132 216 444
148 208 532
168 204 624
172 208 716
176 204 808
188 200 908
184 192 980
188 188 1016
184 184 1016
168 184 1023
124 180 1023
92 180 1012
0 328 0
0 324 0
4 320 4
4 324 120
4 312 272
4 304 388
40 304 504
60 300 588
124 296 676
152 292 764
176 284 856
192 276 944
196 280 1004
176 272 1016
156 268 1023
104 260 1016
8 256 1016
0 404 0
0 400 4
0 400 4
0 396 64
0 396 208
0 392 340
0 384 448
0 380 540
20 380 632
20 372 728
104 368 820
128 364 924
40 356 1004
84 352 1023
64 348 1023
68 340 1016
84 328 1016
0 488 4
0 484 0
4 480 0
0 476 12
0 468 144
0 464 288
0 460 408
4 460 504
0 452 588
0 440 676
0 440 768
4 436 868
20 428 964
48 424 1016
104 416 1023
128 408 1016
124 400 1016
4 556 0
4 556 0
0 552 0
0 544 0
4 540 96
0 532 216
0 524 356
0 520 464
0 520 560
0 512 652
0 504 740
0 496 840
0 492 924
24 484 984
48 480 1016
0 472 1016
0 464 1016
0 620 4
0 616 0
0 612 0
0 608 0
0 600 36
0 592 192
0 588 316
4 584 420
0 576 508
0 572 608
0 568 712
0 556 816
0 552 912
0 544 984
0 532 1016
0 524 1023
0 524 1023
0 684 0
0 680 4
0 676 0
0 668 4
0 660 0
0 652 112
0 648 244
0 644 364
0 640 464
0 636 564
0 624 676
0 612 776
0 608 876
0 596 944
0 584 996
0 580 1016
0 572 1016
0 756 4
0 752 0
0 744 0
0 736 0
0 728 4
0 720 20
4 716 172
0 708 284
0 708 396
4 696 512
0 688 624
0 676 728
4 672 840
0 660 932
4 648 1008
0 636 1023
0 632 1023
0 832 0
0 824 4
0 820 0
0 808 0
0 796 0
0 792 4
0 784 32
0 772 200
0 768 316
4 760 440
4 756 556
0 744 676
4 736 792
0 724 884
0 716 972
0 704 1008
0 700 1016
0 896 0
0 900 4
0 888 0
0 880 0
0 872 0
0 860 0
0 852 4
0 840 92
0 832 248
0 828 372
0 820 492
0 808 608
0 800 728
0 788 852
0 780 948
0 768 1004
0 764 1012
0 968 0
0 964 0
4 960 4
0 956 0
4 940 0
4 932 4
0 916 0
4 912 4
0 900 120
0 892 280
0 884 412
0 872 536
0 864 660
0 852 772
0 840 892
0 832 984
0 824 1012
0 1012 0
4 1008 4
0 1004 0
0 1000 0
0 992 4
0 980 0
0 976 0
0 964 0
0 956 0
4 952 184
4 944 324
0 936 460
0 928 596
0 916 728
0 908 840
0 896 928
0 892 980
0 1023 4
0 1023 4
0 1023 4
0 1016 0
0 1016 0
0 1012 0
0 1012 0
4 1008 4
0 1004 0
0 1000 36
0 996 236
0 988 376
0 984 516
0 976 664
0 956 792
0 936 892
0 932 948
0 1023 4
0 1023 4
0 1023 4
0 1016 0
0 1016 0
0 1016 0
0 1016 0
0 1016 4
0 1016 0
0 1016 4
0 1016 144
0 1016 312
0 1016 456
0 1004 600
0 996 744
0 976 856
0 968 916
200 24 76
208 24 128
228 16 232
156 28 228
148 24 292
192 8 440
216 0 592
220 8 720
232 20 828
236 32 900
232 32 972
224 24 1016
188 20 1023
148 28 1023
124 44 1023
128 60 1016
108 64 1016
204 56 20
212 52 84
224 48 192
208 40 292
192 36 352
204 28 472
216 28 588
228 40 704
244 60 808
240 56 896
244 56 968
220 48 1008
188 28 1016
168 56 1023
144 76 1016
136 80 1023
