public/luts/标准黑白 - Monochrome.Std.3dl
#DarkroomStore © 2019-2021 - 暗房商店
3DMESH
Mesh 4 10
0 64 128 192 256 320 384 448 512 576 640 704 768 832 896 960 1023
0 0 0
44 44 44
72 72 72
104 104 104
132 132 132
168 168 168
204 204 204
224 224 224
264 264 264
284 284 284
316 316 316
336 336 336
356 356 356
364 364 364
376 376 376
380 380 380
384 384 384
48 48 48
64 64 64
104 104 104
132 132 132
152 152 152
184 184 184
208 208 208
236 236 236
264 264 264
300 300 300
320 320 320
340 340 340
356 356 356
364 364 364
376 376 376
384 384 384
384 384 384
68 68 68
72 72 72
88 88 88
136 136 136
172 172 172
200 200 200
228 228 228
268 268 268
300 300 300
320 320 320
340 340 340
340 340 340
356 356 356
376 376 376
388 388 388
396 396 396
396 396 396
104 104 104
104 104 104
108 108 108
128 128 128
164 164 164
208 208 208
240 240 240
280 280 280
320 320 320
332 332 332
356 356 356
376 376 376
392 392 392
404 404 404
416 416 416
416 416 416
416 416 416
132 132 132
132 132 132
136 136 136
148 148 148
164 164 164
204 204 204
244 244 244
272 272 272
304 304 304
352 352 352
384 384 384
404 404 404
428 428 428
444 444 444
436 436 436
424 424 424
416 416 416
156 156 156
156 156 156
160 160 160
164 164 164
176 176 176
192 192 192
232 232 232
272 272 272
304 304 304
332 332 332
360 360 360
388 388 388
416 416 416
436 436 436
452 452 452
448 448 448
444 444 444
184 184 184
188 188 188
192 192 192
196 196 196
200 200 200
212 212 212
228 228 228
268 268 268
308 308 308
340 340 340
368 368 368
392 392 392
416 416 416
436 436 436
452 452 452
456 456 456
456 456 456
212 212 212
212 212 212
216 216 216
220 220 220
228 228 228
232 232 232
240 240 240
256 256 256
292 292 292
332 332 332
364 364 364
392 392 392
420 420 420
436 436 436
420 420 420
440 440 440
440 440 440
232 232 232
236 236 236
236 236 236
240 240 240
244 244 244
256 256 256
268 268 268
272 272 272
284 284 284
320 320 320
364 364 364
400 400 400
424 424 424
440 440 440
448 448 448
452 452 452
448 448 448
256 256 256
256 256 256
256 256 256
260 260 260
264 264 264
272 272 272
284 284 284
296 296 296
300 300 300
312 312 312
340 340 340
384 384 384
424 424 424
448 448 448
456 456 456
460 460 460
456 456 456
280 280 280
280 280 280
280 280 280
284 284 284
288 288 288
296 296 296
304 304 304
312 312 312
320 320 320
328 328 328
344 344 344
368 368 368
412 412 412
448 448 448
468 468 468
468 468 468
468 468 468
304 304 304
304 304 304
308 308 308
312 312 312
316 316 316
320 320 320
324 324 324
332 332 332
340 340 340
344 344 344
356 356 356
368 368 368
396 396 396
436 436 436
460 460 460
468 468 468
468 468 468
328 328 328
328 328 328
328 328 328
332 332 332
332 332 332
340 340 340
344 344 344
352 352 352
356 356 356
368 368 368
372 372 372
380 380 380
396 396 396
424 424 424
460 460 460
476 476 476
476 476 476
344 344 344
344 344 344
348 348 348
348 348 348
352 352 352
356 356 356
364 364 364
368 368 368
376 376 376
388 388 388
400 400 400
400 400 400
408 408 408
424 424 424
444 444 444
476 476 476
480 480 480
372 372 372
372 372 372
376 376 376
376 376 376
380 380 380
384 384 384
388 388 388
392 392 392
396 396 396
404 404 404
416 416 416
420 420 420
424 424 424
432 432 432
448 448 448
464 464 464
472 472 472
388 388 388
388 388 388
388 388 388
392 392 392
396 396 396
404 404 404
408 408 408
412 412 412
416 416 416
420 420 420
428 428 428
436 436 436
440 440 440
444 444 444
456 456 456
468 468 468
476 476 476
392 392 392
388 388 388
388 388 388
392 392 392
400 400 400
416 416 416
416 416 416
420 420 420
424 424 424
428 428 428
436 436 436
440 440 440
448 448 448
452 452 452
460 460 460
472 472 472
476 476 476
68 68 68
64 64 64
76 76 76
108 108 108
136 136 136
176 176 176
208 208 208
236 236 236
272 272 272
296 296 296
320 320 320
340 340 340
356 356 356
364 364 364
376 376 376
384 384 384
384 384 384
64 64 64
80 80 80
128 128 128
144 144 144
156 156 156
192 192 192
216 216 216
240 240 240
276 276 276
308 308 308
324 324 324
340 340 340
356 356 356
368 368 368
376 376 376
384 384 384
388 388 388
76 76 76
76 76 76
96 96 96
152 152 152
188 188 188
208 208 208
236 236 236
276 276 276
304 304 304
328 328 328
348 348 348
340 340 340
356 356 356
380 380 380
388 388 388
396 396 396
396 396 396
104 104 104
104 104 104
112 112 112
128 128 128
164 164 164
212 212 212
252 252 252
292 292 292
328 328 328
340 340 340
360 360 360
380 380 380
396 396 396
408 408 408
420 420 420
420 420 420
420 420 420
132 132 132
136 136 136
140 140 140
152 152 152
164 164 164
204 204 204
244 244 244
272 272 272
312 312 312
360 360 360
388 388 388
408 408 408
432 432 432
448 448 448
440 440 440
424 424 424
420 420 420
156 156 156
156 156 156
156 156 156
168 168 168
180 180 180
192 192 192
232 232 232
272 272 272
304 304 304
332 332 332
364 364 364
396 396 396
416 416 416
440 440 440
452 452 452
452 452 452
448 448 448
188 188 188
188 188 188
192 192 192
196 196 196
204 204 204
216 216 216
228 228 228
268 268 268
308 308 308
340 340 340
368 368 368
392 392 392
420 420 420
440 440 440
452 452 452
460 460 460
456 456 456
212 212 212
212 212 212
216 216 216
220 220 220
228 228 228
236 236 236
244 244 244
256 256 256
292 292 292
332 332 332
364 364 364
392 392 392
420 420 420
436 436 436
420 420 420
440 440 440
440 440 440
236 236 236
236 236 236
236 236 236
240 240 240
248 248 248
260 260 260
268 268 268
272 272 272
288 288 288
320 320 320
364 364 364
400 400 400
424 424 424
440 440 440
448 448 448
452 452 452
448 448 448
256 256 256
256 256 256
256 256 256
260 260 260
264 264 264
272 272 272
284 284 284
296 296 296
300 300 300
312 312 312
340 340 340
384 384 384
424 424 424
448 448 448
456 456 456
460 460 460
456 456 456
280 280 280
280 280 280
280 280 280
284 284 284
288 288 288
296 296 296
304 304 304
312 312 312
320 320 320
328 328 328
344 344 344
368 368 368
416 416 416
448 448 448
468 468 468
468 468 468
468 468 468
304 304 304
304 304 304
308 308 308
312 312 312
316 316 316
320 320 320
324 324 324
332 332 332
340 340 340
344 344 344
356 356 356
372 372 372
396 396 396
436 436 436
460 460 460
468 468 468
468 468 468
328 328 328
328 328 328
328 328 328
332 332 332
332 332 332
340 340 340
344 344 344
352 352 352
360 360 360
368 368 368
372 372 372
380 380 380
396 396 396
424 424 424
460 460 460
476 476 476
476 476 476
344 344 344
344 344 344
348 348 348
348 348 348
352 352 352
356 356 356
364 364 364
368 368 368
376 376 376
384 384 384
400 400 400
400 400 400
408 408 408
424 424 424
444 444 444
476 476 476
480 480 480
372 372 372
372 372 372
372 372 372
376 376 376
380 380 380
384 384 384
388 388 388
392 392 392
396 396 396
404 404 404
416 416 416
420 420 420
424 424 424
432 432 432
448 448 448
464 464 464
472 472 472
388 388 388
388 388 388
388 388 388
392 392 392
396 396 396
404 404 404
408 408 408
412 412 412
416 416 416
420 420 420
428 428 428
436 436 436
440 440 440
444 444 444
456 456 456
468 468 468
476 476 476
392 392 392
388 388 388
392 392 392
396 396 396
400 400 400
412 412 412
416 416 416
420 420 420
424 424 424
428 428 428
436 436 436
440 440 440
448 448 448
456 456 456
460 460 460
472 472 472
476 476 476
112 112 112
124 124 124
104 104 104
112 112 112
148 148 148
188 188 188
220 220 220
252 252 252
288 288 288
308 308 308
328 328 328
344 344 344
360 360 360
368 368 368
376 376 376
384 384 384
388 388 388
108 108 108
128 128 128
156 156 156
160 160 160
176 176 176
204 204 204
228 228 228
260 260 260
292 292 292
320 320 320
332 332 332
344 344 344
356 356 356
368 368 368
376 376 376
388 388 388
392 392 392
100 100 100
108 108 108
172 172 172
200 200 200
224 224 224
228 228 228
252 252 252
292 292 292
316 316 316
344 344 344
360 360 360
348 348 348
360 360 360
384 384 384
396 396 396
404 404 404
404 404 404
108 108 108
108 108 108
128 128 128
160 160 160
192 192 192
240 240 240
280 280 280
312 312 312
344 344 344
356 356 356
372 372 372
388 388 388
404 404 404
416 416 416
428 428 428
424 424 424
420 420 420
136 136 136
140 140 140
156 156 156
168 168 168
172 172 172
208 208 208
252 252 252
280 280 280
332 332 332
372 372 372
396 396 396
420 420 420
440 440 440
456 456 456
448 448 448
428 428 428
420 420 420
152 152 152
156 156 156
160 160 160
176 176 176
188 188 188
196 196 196
232 232 232
272 272 272
304 304 304
332 332 332
376 376 376
412 412 412
428 428 428
448 448 448
460 460 460
460 460 460
456 456 456
188 188 188
188 188 188
192 192 192
200 200 200
208 208 208
220 220 220
232 232 232
272 272 272
312 312 312
344 344 344
372 372 372
396 396 396
428 428 428
444 444 444
456 456 456
464 464 464
460 460 460
212 212 212
216 216 216
216 216 216
224 224 224
228 228 228
236 236 236
244 244 244
256 256 256
288 288 288
332 332 332
364 364 364
392 392 392
420 420 420
436 436 436
424 424 424
440 440 440
440 440 440
236 236 236
236 236 236
236 236 236
240 240 240
252 252 252
264 264 264
268 268 268
272 272 272
288 288 288
324 324 324
368 368 368
400 400 400
424 424 424
440 440 440
452 452 452
456 456 456
452 452 452
256 256 256
256 256 256
256 256 256
260 260 260
264 264 264
276 276 276
288 288 288
296 296 296
300 300 300
312 312 312
340 340 340
384 384 384
424 424 424
448 448 448
456 456 456
460 460 460
456 456 456
280 280 280
280 280 280
280 280 280
284 284 284
288 288 288
296 296 296
304 304 304
312 312 312
320 320 320
328 328 328
344 344 344
368 368 368
416 416 416
448 448 448
468 468 468
468 468 468
468 468 468
304 304 304
308 308 308
308 308 308
312 312 312
320 320 320
324 324 324
328 328 328
336 336 336
340 340 340
348 348 348
356 356 356
372 372 372
400 400 400
436 436 436
460 460 460
468 468 468
468 468 468
324 324 324
328 328 328
328 328 328
332 332 332
336 336 336
340 340 340
344 344 344
352 352 352
360 360 360
368 368 368
372 372 372
380 380 380
396 396 396
424 424 424
464 464 464
476 476 476
476 476 476
344 344 344
344 344 344
344 344 344
348 348 348
352 352 352
356 356 356
364 364 364
368 368 368
376 376 376
388 388 388
400 400 400
400 400 400
408 408 408
424 424 424
444 444 444
476 476 476
480 480 480
372 372 372
372 372 372
376 376 376
376 376 376
380 380 380
384 384 384
388 388 388
392 392 392
400 400 400
408 408 408
416 416 416
420 420 420
424 424 424
436 436 436
448 448 448
464 464 464
472 472 472
388 388 388
388 388 388
388 388 388
392 392 392
396 396 396
404 404 404
408 408 408
412 412 412
416 416 416
420 420 420
428 428 428
436 436 436
440 440 440
444 444 444
456 456 456
472 472 472
476 476 476
392 392 392
392 392 392
392 392 392
392 392 392
400 400 400
412 412 412
416 416 416
416 416 416
420 420 420
424 424 424
436 436 436
440 440 440
448 448 448
456 456 456
460 460 460
472 472 472
476 476 476
152 152 152
168 168 168
184 184 184
152 152 152
160 160 160
204 204 204
240 240 240
280 280 280
312 312 312
332 332 332
344 344 344
352 352 352
364 364 364
372 372 372
380 380 380
392 392 392
396 396 396
152 152 152
164 164 164
192 192 192
196 196 196
192 192 192
220 220 220
252 252 252
288 288 288
324 324 324
344 344 344
356 356 356
352 352 352
360 360 360
380 380 380
388 388 388
396 396 396
