public/luts/标准色彩 - Provia.Std.3dl
#DarkroomStore © 2019-2021 - 暗房商店
3DMESH
Mesh 4 10
0 64 128 192 256 320 384 448 512 576 640 704 768 832 896 960 1023
0 0 0
12 0 68
20 0 128
56 4 228
32 12 340
104 12 476
160 4 616
164 0 752
140 4 888
132 8 972
184 24 1012
180 16 1016
168 8 1023
108 8 1016
80 12 1023
108 24 1023
120 32 1023
4 52 12
12 52 60
32 52 172
48 52 276
80 48 380
112 36 496
128 28 604
124 28 724
128 28 840
176 48 932
184 48 996
184 44 1023
156 20 1023
100 8 1016
100 36 1023
112 52 1016
120 52 1016
0 152 0
4 152 20
0 144 128
0 144 272
8 132 388
40 116 492
48 108 584
120 112 692
168 112 804
176 112 892
184 108 972
164 88 1016
128 60 1016
140 72 1023
116 84 1016
124 92 1016
104 92 1016
0 260 4
0 256 0
0 252 80
0 248 204
0 240 336
0 236 452
12 220 552
52 216 648
80 212 744
112 200 844
132 192 940
136 184 1008
156 172 1023
164 160 1023
156 160 1023
120 156 1016
72 152 1016
0 348 0
0 352 4
4 344 4
0 344 132
0 340 280
0 332 404
0 328 516
0 320 604
0 312 692
4 300 792
80 284 888
132 276 964
152 272 1016
148 256 1023
116 248 1023
72 232 1016
4 224 1016
4 440 4
0 436 0
0 432 0
4 428 60
0 424 228
0 416 356
0 408 464
4 400 564
0 392 660
0 388 752
0 376 856
8 364 948
12 356 1008
8 348 1023
0 340 1023
0 320 1023
44 308 1023
0 516 0
0 516 0
4 508 4
0 504 8
0 496 144
0 488 300
0 480 420
0 476 532
0 472 624
0 460 712
0 448 808
0 444 904
4 432 984
0 420 1023
0 408 1023
56 396 1016
88 384 1016
0 584 0
0 584 4
0 580 0
0 572 4
0 564 92
0 556 224
0 548 372
0 540 484
0 536 584
0 524 680
0 516 776
0 508 864
0 500 940
0 484 992
0 472 1016
0 464 1023
0 456 1023
4 652 0
0 648 0
4 644 4
0 636 0
0 624 40
0 624 196
0 612 320
0 604 440
0 600 540
0 592 648
0 580 744
0 572 844
0 564 928
0 548 992
0 540 1012
0 528 1023
0 520 1016
0 716 0
0 712 0
0 708 0
4 700 0
0 688 0
0 684 108
0 676 252
0 668 380
0 660 488
0 656 592
0 644 696
0 632 792
4 624 888
4 612 952
4 600 1000
0 584 1023
0 580 1016
0 784 0
0 780 0
0 776 4
0 764 0
0 760 0
0 752 20
0 744 172
0 736 300
0 728 424
0 720 540
0 712 656
0 704 756
0 692 852
4 680 936
4 668 1004
0 652 1016
0 640 1016
0 856 0
0 852 0
0 844 0
0 840 4
0 824 4
0 820 0
0 812 28
4 804 212
0 788 356
0 788 472
4 776 596
0 768 708
0 756 804
0 740 892
0 732 964
0 720 1016
0 716 1016
0 920 0
0 916 0
4 912 0
0 904 0
0 900 4
0 888 4
0 872 0
0 864 116
0 856 264
0 848 408
0 836 536
0 828 644
0 824 744
0 808 856
0 800 944
0 788 1008
0 776 1016
0 980 0
0 976 0
0 976 0
0 968 0
0 956 0
0 948 4
4 940 0
0 928 0
0 916 168
0 908 320
0 904 464
0 888 580
0 880 688
0 872 776
4 860 900
0 852 988
0 840 1016
0 1012 0
0 1016 0
0 1012 0
0 1004 0
0 1004 0
0 988 0
0 980 0
0 976 0
0 968 20
4 964 224
0 956 372
0 952 504
0 944 624
0 936 740
4 928 856
4 920 944
0 912 984
0 1023 4
0 1023 4
0 1023 4
0 1016 0
0 1016 0
0 1016 0
0 1016 0
0 1012 0
0 1004 0
0 1004 52
0 1000 256
0 1000 404
0 1000 540
4 1000 672
0 980 804
4 972 916
0 968 972
0 1023 4
0 1023 4
0 1023 4
0 1016 0
0 1016 0
0 1016 0
0 1016 0
0 1016 0
0 1016 0
0 1016 4
0 1016 160
0 1012 336
0 1012 480
0 1016 612
0 1016 736
0 1012 868
0 1004 932
68 4 16
52 4 60
52 0 104
76 12 208
84 16 336
144 12 480
180 0 612
184 0 748
152 0 884
176 16 964
204 20 1004
196 16 1023
172 8 1016
116 8 1016
100 16 1023
116 28 1023
136 32 1016
44 56 12
44 44 44
80 60 188
96 52 276
120 40 380
144 32 496
156 28 608
152 20 728
168 36 840
196 44 928
208 48 996
200 40 1023
164 16 1023
120 12 1016
116 40 1023
132 56 1023
132 56 1016
4 156 0
4 152 16
4 144 128
28 144 280
72 132 400
104 112 492
112 108 588
160 112 696
188 108 800
196 108 896
200 104 976
180 84 1023
148 56 1016
152 72 1023
136 88 1016
132 96 1023
116 92 1023
0 256 0
0 260 4
0 252 80
0 248 204
0 240 344
4 228 456
56 224 560
108 212 652
132 212 752
144 200 844
160 192 940
164 184 1008
184 172 1023
184 164 1023
172 160 1023
136 156 1023
92 152 1023
4 360 0
0 352 4
0 352 4
0 348 136
0 348 284
4 336 408
0 328 516
0 320 612
4 308 700
52 296 796
128 288 888
164 276 964
180 264 1012
164 256 1016
148 244 1023
96 228 1023
4 224 1023
0 440 0
4 440 4
0 432 0
4 428 60
0 420 224
0 416 356
0 408 468
0 404 564
0 392 660
0 388 752
12 372 852
24 364 944
28 356 1012
24 348 1023
0 336 1023
16 320 1016
76 308 1016
0 516 0
0 516 0
0 512 4
0 504 4
0 496 152
0 484 304
0 480 432
0 476 532
0 468 620
0 456 708
0 448 808
0 440 900
0 428 980
0 420 1023
16 408 1023
100 396 1023
116 384 1016
0 588 0
0 584 0
0 580 0
0 572 0
0 560 100
0 556 232
0 548 372
0 540 484
0 536 584
0 524 680
0 516 776
0 508 864
0 492 940
0 484 996
8 472 1016
0 464 1023
0 456 1023
4 652 0
0 648 0
0 640 0
0 636 0
0 624 40
0 624 196
0 612 324
0 604 440
0 600 540
0 592 648
0 580 744
0 572 844
0 560 928
0 548 992
0 536 1023
0 528 1023
0 516 1023
0 716 0
0 716 0
0 708 0
4 700 0
4 692 4
0 684 108
0 680 256
0 668 380
0 660 492
0 656 592
0 644 704
0 636 796
4 624 888
4 612 956
4 600 1000
0 584 1023
0 580 1016
4 788 4
0 784 0
0 776 0
4 768 0
0 760 0
0 752 20
0 744 172
0 732 300
0 728 428
0 720 540
0 712 656
0 704 764
0 692 852
4 680 940
4 668 1004
0 652 1016
0 644 1016
0 860 0
0 852 0
0 848 0
0 840 4
0 824 4
0 820 0
0 812 28
4 804 212
4 792 360
0 788 472
0 776 596
0 768 708
0 756 804
0 740 892
0 732 964
0 720 1016
0 716 1016
0 920 0
0 916 0
0 912 0
0 908 0
0 900 4
0 888 4
0 872 0
0 864 124
0 856 268
0 848 408
0 836 536
0 828 644
0 820 740
0 808 856
0 800 944
0 784 1004
0 780 1016
0 976 0
0 976 0
0 976 0
0 968 0
0 956 0
0 948 4
0 936 0
0 924 0
0 916 168
0 908 312
0 904 464
0 888 588
0 880 688
0 872 776
0 864 900
0 852 988
0 844 1016
0 1012 0
0 1012 0
0 1012 0
0 1004 0
0 1004 0
0 988 0
0 984 0
0 976 0
0 968 28
0 960 220
0 956 372
0 952 504
0 944 624
0 936 740
4 928 856
4 920 944
0 912 984
0 1023 4
0 1023 4
0 1023 4
0 1016 0
0 1016 0
0 1016 0
0 1016 0
0 1012 0
4 1008 4
0 1004 56
4 1004 264
0 1000 404
0 1000 540
0 996 668
0 980 804
4 972 916
0 968 972
0 1023 4
0 1023 4
0 1023 4
0 1016 0
0 1016 0
0 1016 0
0 1016 0
0 1016 0
0 1016 4
0 1016 4
0 1016 168
0 1012 336
0 1012 480
0 1016 612
0 1016 736
0 1012 868
0 1004 940
152 28 52
160 28 96
108 16 128
100 16 188
132 20 320
188 12 472
220 0 616
220 0 756
208 8 884
228 20 952
236 20 1004
224 12 1016
192 4 1023
136 4 1016
124 20 1016
148 32 1023
156 36 1023
144 68 12
160 60 76
180 52 200
164 48 280
176 40 384
192 32 492
196 28 612
204 24 736
220 44 848
236 48 928
240 44 1000
228 36 1023
184 4 1016
152 12 1023
140 44 1023
148 52 1023
148 52 1023
88 152 0
108 148 0
140 140 140
156 140 288
176 124 404
176 108 492
188 108 592
212 112 696
232 112 804
236 108 904
240 104 980
208 72 1023
184 60 1023
184 76 1016
164 88 1016
160 96 1023
128 92 1016
0 268 0
0 260 0
4 256 76
64 244 216
116 240 352
132 236 464
160 220 560
184 208 648
192 208 748
192 200 848
208 188 940
208 176 1004
216 176 1023
216 164 1023
196 160 1023
152 156 1016
112 148 1016
0 360 0
0 360 0
0 356 4
0 352 128
0 344 292
4 332 416
4 324 520
12 316 616
112 304 704
156 296 800
192 288 896
208 272 968
216 260 1012
196 256 1023
184 240 1023
128 228 1023
16 216 1023
0 444 0
4 444 0
0 436 0
0 436 80
0 424 228
0 420 364
0 408 468
0 400 568
0 392 664
12 384 756
92 372 856
96 360 952
40 356 1016
72 344 1016
68 332 1023
92 320 1023
120 304 1023
0 524 4
0 520 0
0 512 0
0 504 12
0 496 160
0 488 304
0 480 432
0 476 532
0 468 620
0 456 708
0 448 808
0 440 900
0 428 980
16 416 1016
104 404 1016
152 392 1016
152 380 1016
0 592 0
0 588 0
0 584 4
4 576 0
0 564 104
0 556 232
0 548 376
0 540 484
0 532 592
0 524 680
0 516 780
0 508 872
0 496 944
12 480 996
40 468 1023
0 464 1023
0 452 1016
0 648 0
0 648 0
0 644 0
0 636 0
0 628 40
0 620 196
0 612 324
0 604 440
0 604 544
0 592 648
0 576 752
0 572 844
0 560 928
0 548 992
0 532 1016
0 524 1023
0 516 1023
0 716 0
0 716 0
0 708 0
4 700 0
4 692 4
0 684 120
0 680 256
0 668 380
0 660 492
0 656 600
0 644 704
0 636 804
0 620 884
4 612 956
0 596 1004
0 584 1023
0 580 1016
4 788 4
0 784 0
0 776 4
0 772 0
0 760 0
0 752 20
0 744 172
4 736 304
0 728 428
0 720 540
0 712 656
0 704 764
0 692 852
4 680 940
4 668 1004
0 652 1016
0 644 1016
0 860 0
0 860 0
0 852 4
0 840 4
0 828 4
0 820 0
0 812 28
4 800 220
4 792 360
0 784 480
0 776 596
0 768 708
0 756 804
0 744 896
0 732 964
0 720 1016
0 716 1016
0 920 0
0 916 0
0 916 0
0 908 0
0 900 4
0 888 4
0 872 0
0 864 124
0 852 276
0 848 408
0 840 536
0 828 644
0 820 740
0 808 856
0 796 952
0 788 1008
0 776 1016
0 980 0
0 980 0
0 976 0
0 968 0
4 960 4
0 948 4
0 936 0
0 928 0
0 912 172
0 908 320
0 904 464
0 892 592
0 880 688
0 872 776
0 868 904
0 852 988
0 844 1016
0 1012 0
0 1012 0
0 1012 0
0 1004 0
0 1004 0
0 988 0
0 984 0
0 976 0
0 968 28
4 964 232
0 960 364
0 952 504
0 948 636
4 936 748
4 928 856
0 920 944
0 912 984
0 1023 4
0 1023 4
0 1023 4
0 1016 0
0 1016 0
0 1016 0
0 1012 0
0 1012 0
4 1008 4
0 1004 56
4 1004 264
4 1000 416
0 1000 548
4 1000 672
0 984 804
0 976 916
0 968 972
0 1023 4
0 1023 4
0 1023 4
0 1016 0
0 1016 0
0 1016 0
0 1016 0
0 1016 0
0 1016 4
0 1016 4
4 1016 172
4 1012 344
0 1012 480
0 1016 612
0 1016 740
0 1012 868
0 1004 940
264 20 80
272 16 124
288 8 248
204 24 252
192 16 316
244 0 476
272 0 620
280 4 760
280 16 872
288 24 944
284 20 1004
264 4 1023
228 0 1023
188 8 1023
164 28 1016
180 36 1016
180 36 1016
252 60 12
264 52 84
288 44 212
276 36 324
244 32 384
256 28 496
264 24 616
280 28 736
292 48 848
292 44 936
292 40 1004
260 16 1023
224 0 1023
200 20 1016
176 52 1023
176 52 1016
