public/luts/漂白效果 - Eterna (Bleach).3dl
#DarkroomStore © 2019-2021 - 暗房商店
3DMESH
Mesh 4 10
0 64 128 192 256 320 384 448 512 576 640 704 768 832 896 960 1023
4 4 0
28 16 44
44 28 84
44 40 112
52 52 148
100 60 196
128 60 240
152 56 296
164 56 340
172 56 376
200 84 404
224 80 428
236 56 436
228 32 452
248 40 484
264 44 512
276 48 512
52 72 48
52 72 76
60 76 120
60 76 152
88 76 184
104 64 212
124 60 256
148 64 300
156 52 344
176 60 380
204 88 408
224 80 428
224 60 444
216 36 456
236 36 484
260 48 512
276 48 512
76 132 80
76 132 80
80 136 136
88 144 188
84 140 244
112 136 280
112 128 316
140 108 348
160 80 368
168 56 392
192 80 416
204 84 436
200 56 448
204 32 460
224 36 492
248 48 508
264 48 508
112 188 112
112 188 112
112 192 144
120 208 196
128 208 252
128 208 316
116 204 368
128 200 400
160 196 432
184 188 456
192 176 480
204 168 500
212 136 492
212 104 484
216 56 504
228 40 504
232 40 504
136 248 148
132 244 144
136 248 156
140 264 204
152 276 256
168 280 324
164 284 388
160 288 444
156 284 472
152 284 500
196 280 532
240 280 556
260 276 572
280 276 596
284 264 600
292 252 600
280 248 592
156 316 180
156 316 180
156 316 180
172 324 224
176 340 276
204 348 332
212 360 392
216 368 452
212 376 504
208 376 544
204 372 564
200 364 580
208 368 604
220 360 616
292 372 648
308 364 648
328 360 648
152 388 212
156 392 216
156 392 216
192 400 256
212 408 312
244 420 360
264 432 416
272 440 464
280 452 520
272 460 564
260 460 600
252 456 628
232 448 632
212 444 644
260 444 652
352 452 680
368 452 684
196 460 268
192 460 268
196 460 268
232 464 300
260 484 344
276 492 396
300 504 444
320 516 500
328 524 544
336 532 588
320 540 624
312 540 656
300 532 680
276 524 680
268 516 680
272 508 676
256 504 668
244 524 316
244 524 316
244 524 316
268 532 340
304 548 384
332 560 428
344 576 476
368 584 528
376 596 572
380 600 612
384 612 656
372 616 688
368 616 708
368 612 728
356 600 724
352 596 720
344 588 712
276 588 356
280 592 360
280 592 360
292 592 364
348 612 428
384 628 476
404 640 512
424 656 560
428 660 600
420 664 636
424 672 668
420 680 704
412 684 736
408 680 756
408 680 764
400 672 756
400 664 756
328 656 400
328 656 400
328 656 404
332 660 404
388 680 468
432 696 512
444 708 556
480 724 600
484 732 640
484 732 672
452 720 692
468 732 724
472 744 756
472 752 784
464 752 800
460 748 796
452 744 796
368 724 452
368 724 452
368 724 452
372 728 456
436 748 508
484 764 556
492 776 600
516 788 640
544 804 684
540 800 704
520 788 720
512 784 740
528 792 776
532 804 808
528 812 836
528 812 836
524 808 832
444 792 508
444 792 508
444 792 508
444 792 508
480 808 544
536 832 596
552 840 636
540 840 668
580 860 712
584 868 740
572 852 740
564 832 760
572 836 788
576 840 824
572 852 852
576 860 868
576 860 868
560 852 560
560 852 560
560 852 560
560 856 564
544 868 592
572 892 640
576 900 676
576 904 708
608 916 740
620 924 772
612 916 772
608 868 772
616 864 804
620 872 836
616 880 864
612 892 884
612 892 884
640 916 616
644 916 616
644 916 616
640 924 620
636 920 616
592 940 668
540 940 692
524 944 724
596 952 760
652 968 788
656 968 808
648 932 804
656 884 808
664 904 856
664 916 880
656 924 896
656 928 908
648 976 640
648 976 640
652 980 644
652 980 644
656 984 648
608 980 696
436 968 704
400 968 728
500 976 764
644 996 796
676 1004 812
680 988 820
704 924 840
712 928 872
708 948 900
704 956 920
704 960 928
648 1016 660
648 1016 660
648 1016 660
648 1016 660
648 1016 660
632 1008 704
392 988 704
324 980 732
436 984 764
620 1004 796
684 1012 816
688 1004 824
712 952 848
724 932 880
728 952 900
720 968 924
720 972 936
76 20 20
68 24 56
60 28 72
56 40 108
68 52 144
108 64 200
136 60 244
156 60 292
176 56 336
184 60 372
212 88 408
228 76 424
236 48 432
232 36 456
252 44 488
276 48 508
284 48 512
76 80 56
76 76 76
92 84 128
92 80 148
100 76 180
112 64 208
124 60 256
160 56 300
164 52 348
184 60 380
212 88 408
224 80 428
232 56 444
224 36 460
240 40 484
268 48 508
280 48 508
80 132 84
84 140 88
84 140 140
88 144 196
88 144 248
136 136 272
140 128 316
148 104 344
168 80 368
172 64 388
200 84 420
216 84 432
212 64 448
216 32 464
228 36 484
256 44 508
276 48 508
112 188 112
112 188 112
108 188 140
120 200 192
128 208 252
128 208 316
120 200 360
168 196 404
180 196 440
192 188 460
204 176 484
212 164 492
220 140 488
220 100 484
224 56 504
236 40 508
236 40 508
136 248 148
136 248 148
136 248 156
140 264 204
152 276 256
168 284 324
164 284 388
156 284 440
152 280 468
148 280 496
228 284 536
252 280 560
268 276 576
284 272 588
296 264 604
292 252 596
284 244 592
156 316 180
156 316 180
156 320 184
172 324 224
176 340 276
204 348 332
212 360 392
216 364 452
208 372 500
208 376 544
200 368 560
208 368 576
204 364 600
252 372 628
296 372 648
316 368 648
340 360 648
152 388 212
156 388 216
156 392 216
192 400 256
216 408 304
244 420 360
260 432 416
268 440 464
280 452 520
272 460 564
260 460 604
248 452 624
232 448 632
212 444 644
308 448 664
364 452 684
376 452 688
196 460 268
196 460 268
196 460 268
232 464 300
256 480 340
276 492 396
300 504 444
320 516 500
328 524 540
336 532 588
320 540 624
312 540 656
296 528 676
276 524 680
268 516 680
280 508 680
256 504 668
244 528 316
244 524 316
248 528 320
272 536 344
304 548 384
332 560 428
344 576 476
368 584 528
372 592 568
380 600 612
384 612 656
372 616 688
368 616 708
368 612 728
356 600 724
348 592 716
344 588 712
276 588 356
280 592 360
280 592 360
292 592 364
352 616 432
388 628 476
400 644 512
424 656 560
428 660 600
420 664 636
424 672 668
420 680 704
412 684 736
408 680 756
408 680 764
400 668 756
400 664 756
328 656 400
328 656 400
328 656 400
332 660 404
388 680 468
432 696 512
444 708 556
484 728 604
484 732 640
484 732 672
452 720 692
468 732 724
472 744 756
472 752 784
464 752 800
460 748 796
452 740 796
368 724 452
368 724 452
368 724 452
368 724 452
436 748 508
484 764 556
492 776 600
516 788 640
544 804 684
540 800 704
520 788 720
512 784 740
528 792 776
532 804 808
532 816 840
524 812 836
524 808 832
444 792 508
444 792 508
444 792 508
448 796 512
480 808 544
536 832 596
552 840 640
540 844 668
584 864 716
584 868 740
572 852 740
564 832 760
572 836 788
576 840 824
572 852 852
576 860 868
576 860 868
556 856 560
560 852 560
560 852 560
564 856 564
544 868 592
572 892 640
576 900 676
576 904 708
608 916 740
620 924 772
612 916 772
608 868 772
616 864 804
620 872 836
616 880 864
612 892 884
608 892 884
644 916 616
644 916 616
644 916 616
648 920 620
636 920 616
588 936 664
540 940 692
524 940 728
596 952 760
652 968 788
656 968 808
644 928 800
660 888 812
664 908 848
664 916 880
656 924 896
656 928 908
648 976 640
652 980 644
652 980 644
652 980 644
652 980 644
608 980 696
436 968 704
400 968 728
500 972 764
644 996 796
676 1004 812
680 988 820
704 924 840
712 928 872
708 948 900
704 956 920
704 960 928
648 1016 660
648 1016 660
648 1016 660
648 1016 660
648 1016 660
636 1012 700
400 984 704
324 976 732
436 984 764
620 1004 796
684 1012 816
692 1008 828
708 948 844
724 936 872
728 952 900
720 968 924
720 972 936
116 36 44
124 40 76
88 40 84
76 44 104
92 52 148
124 64 196
148 60 244
172 60 296
188 56 340
188 64 376
212 80 404
236 60 416
248 40 432
252 40 456
268 44 488
284 48 512
292 52 512
120 80 44
128 80 88
132 88 124
116 80 148
112 72 172
128 64 212
140 60 256
176 56 296
176 56 344
188 64 376
216 84 408
236 64 420
240 40 432
240 36 456
256 40 484
280 52 512
292 52 512
124 140 84
132 140 88
144 144 144
140 148 200
148 148 244
160 132 264
160 124 304
172 100 332
180 76 368
180 64 384
212 92 412
224 80 428
224 60 444
228 32 460
248 40 484
268 52 508
284 52 512
132 188 120
132 188 120
124 192 140
128 204 196
144 208 260
144 204 320
180 200 352
196 196 396
208 192 428
212 184 456
224 176 480
232 160 488
236 132 480
236 92 484
240 52 500
244 40 512
244 40 504
140 252 152
136 248 148
140 252 160
140 264 204
156 280 260
168 280 324
164 284 388
160 280 432
196 284 472
224 284 504
252 284 536
268 280 556
284 276 576
300 272 592
308 260 596
304 248 596
300 244 592
160 320 184
152 316 180
156 320 184
172 324 224
176 340 276
208 352 336
212 360 392
212 364 448
208 372 500
204 372 540
216 368 560
216 364 576
224 368 608
292 376 644
316 376 652
336 368 656
348 360 656
156 392 216
156 392 216
156 392 216
188 396 252
216 408 304
244 420 360
268 436 420
272 444 468
280 452 520
268 456 568
260 460 600
252 456 628
228 444 628
244 444 648
340 456 680
380 460 692
392 456 692
192 460 268
196 460 268
196 460 268
232 464 300
256 480 340
276 492 388
300 504 444
320 516 500
332 520 540
336 532 592
320 540 624
312 540 656
296 528 676
272 520 676
296 516 680
300 512 680
280 508 680
244 524 316
244 528 316
248 528 320
272 536 344
304 548 384
332 560 428
344 576 476
372 588 528
376 596 572
384 604 616
384 612 656
372 616 688
368 616 708
364 608 724
352 596 720
348 592 716
344 584 716
280 592 360
280 592 360
280 592 360
292 592 364
344 616 428
388 628 476
400 644 512
424 656 560
432 664 604
420 664 636
424 672 668
420 676 712
408 680 732
408 680 756
404 676 760
404 668 756
396 660 756
328 656 400
328 656 400
332 660 404
332 660 404
388 680 468
432 696 512
444 708 556
480 724 600
488 736 644
484 732 672
452 720 692
468 732 724
472 744 756
468 748 780
460 752 800
464 752 800
452 740 796
368 724 452
368 724 452
372 728 456
372 728 456
436 748 508
488 768 560
500 776 596
516 788 640
544 804 684
544 804 708
520 788 720
512 784 736
528 792 776
532 804 808
528 812 836
528 812 836
524 804 836
444 792 508
444 792 508
444 792 508
448 796 512
480 808 544
536 832 596
552 840 640
540 840 668
584 864 716
584 868 740
572 852 740
564 832 760
572 836 788
576 840 824
572 852 852
576 860 868
576 860 868
560 852 560
552 856 560
560 852 560
564 856 564
544 868 592
572 892 640
576 900 676
576 904 708
608 916 740
620 924 772
616 916 776
608 868 772
616 864 804
620 872 836
616 880 864
612 892 884
608 892 884
640 916 616
644 916 616
640 916 616
644 916 616
636 920 616
592 940 668
540 940 692
524 940 728
596 952 760
652 968 788
648 972 808
648 932 804
656 884 808
668 908 860
664 916 880
656 924 896
656 928 908
652 980 644
652 980 644
652 980 644
652 980 644
652 980 644
608 980 696
436 968 704
400 968 728
500 972 764
644 996 796
676 1004 812
680 988 820
704 924 840
712 928 872
708 948 900
708 960 924
700 960 928
648 1016 660
648 1016 660
648 1016 660
648 1016 660
648 1016 660
636 1012 700
400 984 704
324 980 732
436 984 764
624 1008 796
688 1016 812
692 1008 828
708 948 844
724 936 872
728 952 900
720 968 924
720 972 936
172 44 48
184 52 88
176 60 132
124 52 128
116 56 140
136 68 204
168 64 244
180 60 300
192 60 344
204 68 376
228 72 396
252 48 416
268 40 428
280 44 452
284 48 488
308 56 516
316 60 516
172 76 36
176 72 76
180 68 128
156 80 160
136 72 176
140 68 212
168 64 256
188 64 300
188 52 348
208 72 380
228 72 396
244 48 412
264 40 432
272 44 456
280 48 488
296 56 512
