public/luts/电影色调 - Eterna (LUTs+).3dl
#DarkroomStore © 2019-2021 - 暗房商店
3DMESH
Mesh 4 10
0 64 128 192 256 320 384 448 512 576 640 704 768 832 896 960 1023
0 0 0
4 0 24
4 0 56
4 4 108
8 4 172
20 4 240
28 8 336
24 12 440
4 20 556
12 24 636
40 28 704
36 36 772
16 40 832
0 48 888
4 44 924
36 44 976
44 44 1004
0 40 4
4 44 48
4 40 100
16 36 152
16 36 204
20 40 264
12 44 344
0 48 440
12 56 552
36 64 632
28 68 704
28 76 772
0 84 832
0 84 888
24 88 928
36 84 972
40 84 1004
4 100 4
0 96 44
0 92 108
0 92 164
8 88 228
0 84 284
0 92 364
8 92 448
16 96 544
24 104 628
12 108 700
0 116 772
0 124 840
4 128 884
20 128 932
32 128 968
32 128 1008
8 160 4
4 160 52
8 160 108
4 156 168
8 156 232
4 156 304
0 152 372
0 152 452
0 152 540
4 152 620
0 152 700
4 160 780
12 168 832
12 168 884
24 176 932
4 172 972
4 172 1004
4 216 0
8 220 52
0 220 96
0 228 168
0 220 232
0 216 300
0 220 376
0 216 456
0 216 536
0 216 616
4 212 692
0 212 764
0 212 828
4 208 876
0 208 928
4 216 976
4 212 1012
0 284 4
4 288 56
0 288 104
0 292 160
0 288 232
4 288 304
8 292 380
12 288 456
8 288 536
4 284 624
0 280 696
0 284 764
4 280 836
0 264 888
4 260 932
16 260 976
20 260 1008
0 352 4
0 360 44
0 364 96
4 364 160
0 368 232
0 356 308
0 364 384
0 368 460
12 364 544
8 356 624
12 356 704
4 352 772
0 352 832
8 344 884
12 332 936
12 324 972
24 324 1012
4 432 8
4 432 48
12 436 100
12 440 168
16 444 236
8 440 304
8 440 388
12 440 464
20 444 548
28 440 620
28 436 692
28 432 760
16 424 816
16 416 872
8 404 920
20 388 968
0 384 1004
16 520 16
12 520 52
16 524 112
16 520 172
16 520 236
24 520 312
12 524 392
8 532 468
12 528 552
12 524 624
12 528 696
12 528 760
12 520 828
12 504 876
12 484 916
12 476 968
12 468 996
16 616 12
12 616 60
16 616 112
20 608 180
16 604 248
20 604 320
20 608 400
20 612 476
8 612 552
16 604 632
20 604 696
24 596 756
28 592 816
16 580 868
4 564 912
0 556 960
0 552 992
0 688 8
0 684 52
0 688 104
4 688 168
4 688 240
8 692 324
8 688 404
4 692 480
4 688 560
0 684 628
0 688 704
8 684 760
4 672 816
12 656 864
4 632 908
0 616 948
0 612 984
4 760 8
4 760 48
0 760 88
4 760 144
12 764 220
16 764 312
20 768 400
16 764 488
8 760 560
4 756 628
8 752 700
12 752 764
12 744 816
12 732 860
12 716 904
12 700 948
12 692 988
16 824 24
12 824 72
16 828 120
16 824 176
20 828 244
28 824 316
28 828 400
28 828 476
8 824 548
0 824 628
0 820 696
8 816 760
8 808 808
12 800 864
8 788 900
4 776 948
4 764 980
8 888 8
8 884 48
8 888 96
12 888 168
4 888 228
8 884 308
12 884 388
8 884 476
8 884 556
20 884 624
12 884 684
8 876 752
4 872 804
4 860 860
4 852 900
4 844 944
4 840 980
24 936 4
24 936 52
24 936 108
28 936 156
24 940 228
20 932 296
24 932 376
20 928 456
16 928 536
16 928 612
8 928 680
4 928 744
4 924 808
4 916 848
0 916 904
0 908 936
0 904 972
20 976 4
16 976 44
16 976 92
20 976 156
20 976 216
24 976 284
16 972 352
20 968 432
16 972 504
12 972 584
8 972 656
0 968 728
0 972 796
8 968 852
8 960 896
4 960 936
8 960 972
12 1012 4
8 1012 48
8 1012 92
12 1008 132
16 1004 200
12 1008 260
20 1008 344
16 1004 416
20 1004 500
20 1004 564
12 1004 632
16 1008 716
8 1004 784
4 1004 844
8 1000 896
4 1004 936
8 1004 972
56 0 0
36 0 28
24 0 48
24 4 96
36 4 168
64 8 244
68 8 332
64 12 436
40 16 544
64 24 628
92 28 704
80 32 768
64 40 832
44 44 884
52 44 928
80 40 976
96 40 1012
40 40 0
44 44 44
48 36 104
52 36 144
52 32 192
56 36 260
52 44 344
36 48 440
60 52 544
80 64 620
76 68 704
72 72 768
44 80 836
40 88 888
72 88 932
88 88 976
92 88 1012
44 100 0
44 100 48
36 92 96
44 96 164
48 88 228
36 84 284
40 92 364
52 92 448
64 96 532
64 100 616
60 108 700
40 116 772
40 124 840
44 128 884
64 128 932
84 128 976
80 128 1004
48 160 0
44 160 48
48 160 104
48 160 164
48 156 232
44 156 304
48 156 376
40 152 448
40 152 540
44 152 620
44 156 700
52 160 772
56 164 832
60 168 884
68 168 924
44 172 968
44 172 1004
48 220 4
40 220 48
40 220 96
40 228 164
48 224 236
40 220 304
40 220 376
44 224 460
44 220 536
40 216 612
48 212 692
44 212 764
48 212 828
48 212 876
44 212 932
40 212 972
44 212 1012
44 288 8
40 284 48
40 288 100
44 288 156
40 288 228
44 288 300
52 296 380
52 288 456
48 288 536
44 288 620
36 284 688
40 284 764
40 280 832
44 268 888
44 260 932
56 260 976
68 260 1012
40 356 0
36 360 44
40 364 96
48 368 164
44 368 236
40 360 308
40 364 380
40 368 456
52 368 540
48 360 624
48 352 696
44 352 768
44 348 828
48 344 884
52 332 932
56 328 972
72 324 1012
48 432 4
48 432 44
52 432 96
60 440 168
56 444 232
56 444 304
52 436 388
60 440 464
64 444 544
72 444 620
72 440 692
68 432 756
68 428 816
56 416 872
56 404 920
64 392 968
36 384 1008
56 520 12
56 524 56
56 524 108
64 520 172
64 520 240
64 520 312
56 528 392
48 532 464
52 528 552
52 528 624
56 532 700
56 532 764
52 516 824
52 504 872
48 488 920
52 476 964
52 468 996
60 616 12
60 612 56
60 616 116
60 612 176
64 600 244
64 608 320
68 604 392
60 612 476
52 616 552
60 608 632
68 608 696
68 604 756
68 592 816
56 580 868
44 564 908
44 556 960
40 552 988
44 692 8
44 688 56
40 688 100
44 688 168
48 692 244
56 692 324
48 688 400
44 692 484
44 688 556
40 688 628
40 692 700
48 684 760
44 672 812
52 660 860
56 632 912
48 616 952
44 616 988
44 760 8
44 760 44
40 760 84
48 768 140
52 764 220
60 768 312
68 768 404
56 764 484
40 764 560
44 760 640
52 756 700
56 756 768
52 744 812
52 732 864
56 716 908
52 700 948
52 692 984
56 828 24
52 824 68
56 828 120
64 824 176
72 828 244
72 828 316
68 828 396
68 828 484
52 824 556
40 824 624
40 820 692
48 816 756
48 808 808
48 796 856
48 788 900
48 772 944
48 772 980
48 888 4
48 888 52
48 892 96
48 884 164
44 888 228
48 884 304
48 880 384
48 884 476
48 884 552
56 880 620
52 884 684
44 880 752
44 872 804
44 860 856
44 852 900
48 848 948
48 840 976
64 936 0
64 936 52
64 936 104
68 936 164
68 936 228
60 932 296
64 932 376
60 932 452
56 932 532
56 932 612
48 928 680
40 928 740
44 928 804
44 916 852
48 912 900
40 908 936
40 904 980
60 976 4
56 976 44
60 972 92
60 976 156
60 976 216
64 976 284
60 976 356
64 976 436
56 972 504
52 972 580
48 972 660
40 968 728
36 968 788
44 964 848
52 964 896
44 960 940
48 960 972
52 1012 4
48 1012 44
52 1008 88
52 1008 136
56 1008 200
56 1008 256
60 1008 344
60 1008 420
60 1004 496
60 1004 568
56 1004 640
52 1004 708
48 1004 780
44 1004 840
52 1004 892
52 1004 940
52 1004 976
120 0 0
124 4 44
72 8 60
56 4 76
76 4 156
100 8 232
104 8 320
108 12 428
84 16 536
132 16 616
140 24 696
128 32 768
104 40 828
92 40 884
108 44 928
136 40 968
140 40 1008
112 40 0
120 40 44
112 40 104
96 32 136
96 32 188
104 36 252
96 40 332
84 44 428
128 56 536
132 56 620
128 64 696
124 72 772
80 76 832
88 84 884
124 84 928
136 88 976
136 88 1004
100 92 0
104 88 44
92 92 92
96 92 164
92 88 224
80 84 276
96 92 356
108 92 440
120 96 536
120 100 616
108 108 692
84 116 768
80 124 836
96 128 884
120 128 928
128 128 976
128 128 1012
100 160 4
100 160 44
96 164 100
104 160 164
88 156 220
96 160 296
88 152 360
84 152 440
92 152 532
84 152 616
96 152 692
104 156 772
112 164 828
116 164 884
116 168 928
96 172 972
84 168 1008
88 220 0
80 224 48
84 224 96
80 228 156
88 224 228
88 220 296
84 224 376
92 220 448
92 220 528
88 216 612
96 212 684
96 212 756
104 212 824
96 208 884
84 212 928
84 216 972
96 216 1012
88 288 4
88 288 44
92 288 100
88 292 160
88 292 232
92 292 296
100 292 380
100 288 456
92 292 536
92 284 612
80 288 692
84 288 760
88 284 832
80 264 884
92 264 932
100 264 976
108 264 1008
84 360 4
88 364 44
84 360 92
88 368 160
84 368 232
80 364 304
84 368 384
88 372 460
96 364 536
96 356 612
92 356 700
92 352 764
84 348 828
96 344 884
100 328 924
112 328 972
112 320 1008
100 432 4
96 432 48
104 440 100
104 440 160
108 444 236
100 448 308
96 444 380
104 444 464
108 444 540
116 440 620
116 440 692
112 436 760
108 428 816
96 420 876
96 408 916
96 396 968
76 384 1004
100 520 4
104 524 56
104 524 112
104 520 172
108 520 236
108 524 312
96 528 384
92 536 468
92 528 548
88 528 620
96 532 696
104 528 760
92 524 824
92 504 872
84 488 920
100 476 964
96 472 996
100 616 8
100 612 56
100 616 112
104 608 176
108 608 244
108 604 316
112 608 392
108 608 472
100 612 552
104 616 628
108 608 696
108 604 756
108 592 812
96 580 864
84 564 912
84 556 956
84 556 992
88 688 8
88 688 48
88 688 100
92 688 168
88 692 240
88 692 320
88 688 400
84 688 476
84 688 556
80 688 628
80 688 700
88 684 764
84 672 808
96 664 864
96 636 908
88 616 956
84 616 984
84 760 4
84 760 44
84 764 88
84 764 132
92 764 216
100 768 312
100 768 400
100 768 488
84 768 560
84 760 636
96 756 700
92 752 760
96 748 816
96 732 860
100 720 912
96 708 948
96 700 988
104 828 24
104 828 72
104 828 120
104 828 176
108 828 240
112 828 316
116 824 392
108 828 480
96 828 560
80 824 624
84 824 696
88 816 756
92 812 808
88 800 856
88 788 904
92 776 948
92 768 976
88 888 4
88 888 48
84 888 88
88 884 160
84 888 224
92 888 308
84 884 384
80 884 468
88 884 552
100 884 620
92 884 688
84 880 748
84 872 804
84 860 856
84 852 896
88 848 944
88 840 976
112 936 4
112 936 48
108 936 104
108 936 160
108 936 224
100 932 292
104 932 372
100 932 452
104 928 528
100 928 608
88 928 668
80 928 736
84 928 800
88 920 856
88 912 896
88 904 940
88 904 980
104 976 0
104 976 40
104 976 92
104 972 152
108 972 216
104 976 280
104 976 352
100 972 428
96 972 500
92 972 580
96 968 656
88 968 724
84 968 792
92 968 848
92 964 896
84 960 936
84 960 976
92 1012 4
96 1008 44
92 1008 88
96 1012 136
96 1008 196
96 1008 264
104 1008 344
100 1008 416
96 1004 492
100 1004 568
104 1004 640
100 1004 712
96 1004 784
84 1004 840
92 1000 896
92 1004 936
88 1000 972
200 8 8
196 8 48
196 8 88
136 8 104
116 8 140
144 4 220
152 8 312
160 8 412
192 12 528
200 16 608
204 20 692
188 28 764
148 36 828
140 44 884
172 44 928
192 40 972
196 40 1004
180 44 4
188 44 44
188 44 92
168 36 144
144 36 176
152 40 244
160 40 320
164 48 420
192 52 524
188 60 608
188 64 688
176 68 760
124 80 832
156 84 884
180 84 924
188 84 976
