public/luts/经典负片 - Classic Neg.3dl
#DarkroomStore © 2019-2021 - 暗房商店
3DMESH
Mesh 4 10
0 64 128 192 256 320 384 448 512 576 640 704 768 832 896 960 1023
24 24 24
24 28 48
32 28 84
44 28 128
60 32 196
76 32 272
104 36 348
124 44 440
156 52 544
180 72 636
200 100 712
236 136 784
272 188 848
308 232 900
368 296 952
440 372 1004
516 448 1012
20 44 28
16 52 48
28 56 88
36 56 132
44 64 192
64 72 264
84 84 340
116 92 436
136 100 532
164 116 628
188 132 712
224 172 780
264 208 840
320 260 904
372 316 948
448 388 1000
520 464 1016
24 72 36
24 92 68
24 88 84
40 100 128
48 116 196
48 120 264
68 128 348
88 136 432
112 152 532
144 172 636
176 188 712
212 216 784
264 252 848
320 296 904
376 352 952
460 424 996
540 496 1012
8 116 56
24 128 76
16 140 108
4 148 148
44 152 188
64 172 256
48 188 332
40 204 428
60 212 512
92 228 616
136 244 696
192 272 772
248 304 836
316 348 896
392 400 948
476 464 988
556 536 1016
0 168 80
0 180 96
28 200 132
0 216 164
0 216 216
16 224 268
64 244 320
56 268 404
16 284 504
8 292 604
76 316 688
164 332 764
244 368 836
324 412 892
416 456 940
500 520 988
588 580 1012
0 228 100
4 240 128
0 248 148
0 268 196
4 300 240
0 288 284
4 300 352
44 316 400
60 340 476
4 364 572
28 380 668
132 400 756
240 432 824
336 468 880
440 528 936
532 580 980
608 632 1008
0 296 140
0 304 152
0 312 184
0 340 224
4 364 264
0 388 312
4 372 372
0 380 428
0 396 488
48 420 552
64 448 648
160 476 740
264 500 812
372 540 872
476 588 928
568 640 976
644 680 1004
0 356 164
0 364 188
4 376 200
0 400 240
0 420 288
0 452 332
4 480 400
0 464 452
0 460 512
0 476 572
60 500 640
184 532 712
288 564 792
404 604 856
508 648 920
592 684 964
652 724 1004
0 424 200
0 436 208
4 448 236
0 464 268
0 484 312
0 516 360
0 552 416
0 576 484
0 556 544
0 552 596
0 560 660
172 584 716
320 616 772
428 652 840
524 688 904
612 728 960
676 760 996
0 500 228
0 508 240
0 520 264
0 532 288
0 556 336
0 584 396
0 616 440
0 648 492
0 660 564
0 636 620
0 632 676
112 640 732
316 664 784
440 692 832
540 732 892
632 768 952
692 804 992
0 576 260
0 588 276
0 600 292
0 612 324
0 632 368
0 652 420
0 680 472
0 708 516
0 736 572
0 740 648
0 716 700
60 704 744
308 716 804
440 736 844
548 768 892
644 804 944
708 840 992
0 664 312
0 668 320
0 680 336
0 684 368
0 696 408
0 716 452
8 736 508
0 760 552
0 784 600
0 808 656
0 808 720
0 776 772
276 772 812
428 784 856
540 804 908
636 836 944
720 868 988
0 740 364
0 748 372
0 748 392
0 756 420
0 764 444
0 776 492
84 788 532
224 804 592
112 824 624
4 848 668
4 864 728
0 864 780
216 840 828
416 832 868
528 844 912
628 860 948
708 888 988
0 812 432
0 816 452
0 816 460
4 820 480
4 824 508
92 836 544
248 844 588
344 856 628
360 872 668
296 888 696
160 904 740
40 924 792
152 916 844
388 892 888
520 892 924
620 896 960
704 916 1000
56 872 532
56 872 532
60 876 536
140 884 560
232 880 580
308 884 604
372 892 636
428 900 668
476 908 708
456 928 732
396 936 764
320 964 800
292 968 852
356 960 912
488 940 932
604 932 976
688 944 1004
380 924 620
388 924 632
400 928 636
428 936 652
444 940 660
476 940 680
496 948 700
528 948 724
564 956 752
576 968 780
536 976 796
488 988 828
428 1004 864
432 1008 900
472 1000 948
576 988 984
676 980 1012
560 976 708
564 972 712
568 976 716
572 980 728
576 976 728
588 984 740
600 984 752
624 988 780
628 992 788
648 992 824
632 1000 828
600 1012 852
548 1016 876
500 1012 900
512 1016 936
560 1016 988
652 1016 1012
48 24 24
56 16 48
64 20 88
76 24 144
92 28 204
108 28 280
132 32 356
160 36 448
180 44 540
204 64 640
228 92 716
248 136 788
288 176 856
336 232 908
384 292 956
448 368 1004
524 448 1016
44 48 28
48 48 48
60 56 88
64 56 140
80 64 196
100 68 272
120 76 352
144 88 440
168 96 536
192 112 636
216 140 716
244 168 784
292 212 852
328 256 904
384 312 952
456 392 996
532 468 1012
32 72 40
44 80 68
48 88 92
68 104 136
68 112 192
80 120 264
100 128 348
124 140 436
144 156 536
168 164 632
200 188 720
236 216 784
276 252 844
328 292 896
392 352 952
472 416 996
540 496 1012
24 112 60
40 120 72
52 136 108
32 148 140
76 156 192
80 180 268
76 188 344
84 200 432
104 212 528
136 232 624
168 248 708
216 268 780
276 308 840
332 348 892
408 400 944
488 464 992
572 536 1016
0 168 80
16 184 104
48 196 128
4 212 164
0 216 216
56 228 264
96 248 332
84 268 412
60 280 508
64 292 608
120 316 696
192 340 768
260 368 836
336 408 896
424 460 944
512 524 992
592 584 1016
4 232 104
0 236 124
4 252 152
20 272 196
0 304 240
4 292 288
12 300 348
80 324 408
88 344 484
52 372 584
80 384 684
164 404 756
260 436 824
360 476 892
452 528 940
544 580 984
616 632 1012
0 288 136
0 304 152
0 316 176
0 332 212
4 364 260
0 388 312
0 376 372
0 380 428
20 400 488
88 424 560
108 452 656
180 476 736
284 508 816
380 544 872
488 592 932
576 640 980
644 680 1004
4 360 168
0 368 180
0 380 204
0 404 244
0 428 300
0 456 332
0 484 400
0 464 460
0 468 516
0 480 576
104 504 640
208 540 716
308 568 792
416 608 864
516 648 924
604 688 972
664 728 1004
0 428 196
0 444 212
0 452 236
0 468 268
0 492 316
0 520 368
0 556 416
0 580 488
0 556 544
4 556 600
16 568 664
208 588 716
340 616 772
444 656 848
532 692 904
616 732 964
680 764 1000
0 504 236
0 512 252
0 520 264
0 540 304
0 564 340
0 588 396
0 616 440
0 652 504
0 664 568
0 644 624
0 636 680
164 640 736
332 664 784
456 696 832
556 736 892
636 772 956
700 800 992
0 580 264
0 592 280
0 600 304
0 612 328
0 632 368
0 656 416
0 680 472
0 712 520
0 736 584
0 744 652
0 720 700
92 708 748
328 712 800
456 744 844
556 768 896
648 800 944
716 840 992
0 668 316
0 672 324
0 676 344
0 692 372
0 704 408
0 716 452
24 740 516
12 756 556
0 784 600
4 808 664
0 808 720
28 784 768
300 776 812
440 780 860
548 804 904
644 832 944
720 864 976
0 740 364
0 752 376
0 752 392
0 756 420
0 764 452
0 776 492
116 796 544
256 808 600
164 828 628
40 852 672
0 868 732
0 864 780
256 840 836
432 840 876
540 840 916
636 860 952
716 888 988
0 816 436
0 812 444
0 816 460
0 824 484
24 828 508
116 836 544
268 844 596
364 856 636
384 872 676
332 892 704
220 912 740
104 924 792
208 920 848
404 896 884
532 892 928
628 896 964
704 916 1000
56 872 524
64 872 528
80 868 540
172 880 560
256 880 584
324 888 612
380 896 636
440 900 664
492 916 720
472 924 736
416 940 764
352 960 808
324 968 844
372 964 900
508 940 940
608 936 980
692 944 1004
396 936 632
412 932 636
416 936 640
432 936 644
460 936 664
484 944 684
516 948 708
544 944 728
572 960 756
584 968 784
552 972 800
508 992 828
448 1000 856
448 1008 904
488 996 952
588 980 976
680 980 1004
564 980 716
568 976 716
568 976 724
572 980 728
580 980 732
596 980 744
616 980 764
624 984 780
640 988 792
664 1000 824
636 1004 832
600 1012 852
564 1012 880
516 1016 904
532 1016 944
564 1012 988
652 1008 1008
96 24 16
84 24 44
112 12 96
132 12 156
140 12 212
160 12 288
176 16 368
204 20 452
224 24 556
248 48 644
268 84 724
288 124 792
320 176 856
352 224 908
400 292 952
468 372 1004
536 452 1012
84 40 16
88 48 44
100 48 88
112 52 144
120 56 204
140 56 280
168 64 360
192 72 456
216 84 552
232 100 644
260 132 716
284 164 788
308 204 848
352 252 900
408 312 952
468 384 996
536 464 1012
76 76 36
84 84 52
96 88 92
100 100 148
116 108 204
132 112 276
144 120 360
172 136 452
196 148 548
216 164 636
236 184 712
272 212 792
308 248 852
352 292 904
408 348 952
484 412 996
560 492 1016
52 120 56
68 120 80
88 132 108
88 144 148
116 156 192
112 168 272
124 184 356
140 200 436
160 212 528
188 224 636
216 244 712
252 268 784
304 300 844
356 344 900
424 396 948
504 464 996
572 536 1012
40 168 84
56 172 100
76 188 132
88 208 168
72 216 220
108 228 268
124 248 332
124 264 424
116 276 520
140 292 616
176 312 700
232 336 776
292 368 840
360 408 896
440 460 940
520 516 984
596 584 1016
8 220 116
12 232 116
40 252 148
88 268 184
8 296 240
12 292 284
84 300 348
128 320 408
124 348 496
108 368 600
132 380 680
204 404 760
292 436 824
376 476 888
464 524 936
548 580 976
624 628 1012
8 288 140
0 292 148
4 312 176
32 332 212
28 356 264
8 384 312
0 376 372
24 384 428
100 400 492
128 424 564
148 452 660
216 476 740
312 508 816
404 544 872
500 588 932
580 640 980
648 680 1004
4 360 168
0 364 188
4 372 208
0 392 236
8 420 288
0 448 336
4 480 396
0 464 460
0 464 516
44 480 572
164 508 640
240 536 716
332 568 792
440 608 872
532 648 920
608 684 972
668 724 1004
0 424 200
0 436 216
0 444 232
0 460 264
0 484 312
0 516 364
0 552 416
4 580 480
0 556 544
4 552 596
84 564 660
244 588 720
360 620 772
456 660 848
548 696 908
628 732 968
688 764 1000
0 496 232
0 508 240
0 520 264
0 536 300
0 556 336
0 584 388
0 616 440
4 652 496
0 664 568
0 644 624
4 636 684
208 644 728
368 668 792
472 696 828
564 740 896
644 776 956
704 804 996
0 580 264
0 588 276
0 600 304
0 608 324
4 628 368
4 652 416
4 676 480
0 708 524
0 732 580
0 744 648
0 716 700
156 708 748
352 716 800
472 740 848
568 772 896
652 804 948
716 840 992
8 664 316
0 664 320
0 680 336
0 688 368
0 700 408
0 716 452
44 736 512
72 756 560
0 784 600
0 804 660
0 804 728
64 788 768
328 776 820
460 784 860
564 804 908
652 832 948
728 868 980
4 736 368
4 744 380
4 752 396
0 756 420
0 764 452
12 776 496
140 792 540
284 808 600
236 828 636
80 844 668
0 868 728
36 864 784
288 844 832
444 836 872
552 844 912
640 864 956
720 892 992
4 808 432
0 808 452
0 816 460
0 820 480
32 824 508
144 832 544
280 840 588
372 856 640
412 868 672
356 888 700
264 908 744
176 924 800
256 916 848
420 896 888
536 892 924
632 900 964
708 916 1000
68 868 516
72 872 528
124 876 540
200 872 560
272 880 588
336 884 612
392 888 636
448 904 668
500 908 712
484 924 744
444 936 760
372 956 808
348 964 852
396 960 896
520 944 940
620 936 972
704 944 1000
400 928 628
408 928 632
428 932 640
448 932 648
468 932 660
488 940 684
520 940 704
548 948 732
572 960 756
596 960 784
564 976 804
512 988 828
464 1000 860
460 1008 904
496 1000 952
600 984 980
688 976 1004
548 976 708
568 976 716
576 980 720
580 980 732
588 980 732
600 980 740
616 980 764
632 988 784
644 992 796
660 996 820
648 1000 832
616 1012 848
572 1016 876
528 1012 904
544 1016 948
576 1016 992
656 1012 1012
132 32 16
140 16 40
136 24 80
180 0 156
200 0 224
216 0 300
244 0 380
260 0 472
276 4 560
300 20 656
316 64 732
336 112 796
360 160 852
392 224 912
436 288 960
484 356 992
552 444 1012
144 52 20
132 52 48
124 56 80
176 40 148
188 28 228
208 40 296
224 44 376
252 48 460
272 64 560
296 84 652
312 116 724
332 148 792
360 196 856
392 244 908
436 308 960
496 380 996
