public/luts/经典正片 - Classic Chrome.3dl
#DarkroomStore © 2019-2021 - 暗房商店
3DMESH
Mesh 4 10
0 64 128 192 256 320 384 448 512 576 640 704 768 832 896 960 1023
0 0 0
8 0 44
16 4 88
28 12 152
16 28 240
60 36 332
104 32 440
108 32 540
76 36 640
80 44 712
136 76 800
132 84 868
124 88 948
76 80 1008
80 60 1023
112 88 1016
116 112 1016
12 40 12
8 40 48
20 48 124
40 56 204
48 64 276
72 64 356
80 64 444
68 64 540
72 80 628
116 96 712
132 108 788
128 120 868
92 120 936
52 112 1004
88 116 1023
116 124 1016
108 140 1016
4 120 0
0 120 24
0 124 104
0 124 204
0 128 292
8 128 368
0 132 448
60 140 536
104 148 620
108 156 692
108 168 772
80 172 844
8 172 916
56 172 980
80 176 1023
104 184 1023
80 188 1016
0 196 0
0 196 16
0 200 84
0 204 184
0 212 276
0 216 368
0 220 444
0 224 524
8 228 600
16 228 676
8 236 752
8 240 824
48 236 892
72 240 960
88 252 1012
48 248 1023
4 252 1023
0 276 0
0 280 0
0 284 44
0 292 152
0 292 248
0 296 340
0 300 428
0 304 512
0 304 584
0 308 660
0 316 736
0 316 800
8 316 868
16 320 936
8 320 1000
0 328 1023
0 328 1016
0 356 0
0 360 0
0 360 12
0 364 112
0 372 228
0 372 328
0 376 416
0 372 496
0 380 572
0 380 644
0 384 720
0 384 784
0 388 848
0 388 912
0 392 972
0 392 1016
0 388 1016
0 436 0
0 436 0
0 436 0
0 440 92
0 436 204
0 444 312
0 448 400
0 452 484
0 444 556
0 444 624
0 444 696
4 448 768
0 448 832
0 452 900
0 452 952
0 452 1004
0 452 1012
0 504 0
4 508 4
4 508 4
0 508 48
0 512 172
0 512 276
0 508 376
0 508 464
0 512 548
0 508 616
0 508 688
0 512 756
0 508 816
0 508 880
0 512 948
0 504 1008
0 500 1012
0 572 0
0 572 4
0 572 4
0 568 16
0 572 144
0 572 252
0 572 356
0 572 440
0 568 520
0 568 600
0 568 680
0 568 744
0 560 804
0 564 860
0 564 924
0 560 984
0 560 1016
0 636 0
0 632 0
0 632 0
0 632 4
0 632 84
0 628 208
4 632 324
0 632 416
0 628 504
0 624 580
0 628 656
0 624 724
0 624 796
0 616 856
0 612 916
0 612 980
0 612 1012
0 704 0
0 704 0
0 700 0
4 700 0
0 696 36
0 696 180
0 692 284
0 688 384
0 688 472
4 688 560
0 684 648
0 684 712
0 680 772
0 676 840
4 668 900
0 660 964
0 660 1012
0 764 0
0 760 0
0 760 0
0 756 0
0 752 0
0 752 96
0 752 248
0 744 348
0 736 440
0 736 528
0 736 612
0 732 692
0 732 764
4 732 828
0 724 896
0 720 956
0 712 996
0 820 0
0 820 0
4 816 0
0 812 0
0 808 0
4 804 60
0 800 208
0 796 320
0 792 412
0 788 504
0 792 596
0 784 672
0 784 736
4 780 816
0 776 888
0 768 956
0 768 1000
0 880 0
0 872 0
0 872 0
0 868 0
4 864 0
0 860 0
0 852 132
0 848 272
0 844 384
0 840 484
0 840 572
0 832 644
0 828 708
0 824 772
0 824 856
0 820 936
0 816 984
0 932 4
0 932 4
4 932 4
0 928 0
0 928 0
0 920 0
0 912 64
0 904 216
0 900 336
0 896 440
0 896 540
0 892 624
0 892 704
0 888 772
0 884 848
0 880 916
0 880 964
0 984 0
4 988 0
0 984 0
0 984 0
0 980 0
0 980 0
4 980 0
0 976 168
0 972 292
0 964 400
4 960 492
0 952 580
0 948 668
0 952 744
0 936 828
0 928 912
0 924 952
0 1016 0
0 1016 0
0 1016 0
0 1016 0
0 1016 0
0 1016 0
0 1016 0
0 1016 48
0 1016 232
0 1012 360
0 1004 468
0 996 560
0 988 640
0 984 728
0 984 808
0 972 888
0 964 940
48 8 12
32 4 36
36 8 72
44 16 148
48 32 232
92 36 336
128 28 436
124 36 544
96 36 648
124 56 720
156 80 796
152 88 876
140 84 952
92 76 1012
104 68 1023
128 92 1016
128 116 1016
40 44 12
40 40 40
68 60 144
68 64 200
80 64 268
104 64 356
104 64 448
96 64 540
112 88 632
144 100 716
148 112 788
144 120 864
100 120 940
76 116 1004
104 116 1016
132 132 1016
124 144 1016
0 120 0
0 120 16
16 120 108
32 132 212
48 136 300
68 132 372
64 132 444
108 140 536
128 148 620
128 160 692
128 168 768
96 168 840
12 172 916
88 172 984
104 172 1023
120 184 1023
88 188 1023
4 204 0
0 204 20
0 200 92
0 212 188
4 216 280
4 220 372
24 220 452
48 224 524
48 224 604
44 236 676
48 240 752
60 236 828
92 244 896
100 244 964
108 248 1008
64 252 1023
4 252 1023
0 280 0
0 280 0
4 288 56
0 296 156
0 300 260
0 296 340
0 304 432
0 304 512
0 308 588
0 308 660
12 308 732
44 316 808
64 316 872
44 320 940
16 320 1004
0 328 1023
0 328 1016
0 360 0
0 360 0
0 364 16
0 364 120
0 372 228
0 372 328
0 376 416
0 376 496
0 380 572
0 380 644
0 384 720
0 388 792
0 388 856
0 396 916
0 392 976
0 396 1023
0 392 1016
4 440 4
0 436 0
4 440 4
0 440 92
0 444 208
0 444 312
0 448 400
0 448 484
4 448 560
0 444 628
0 444 696
0 452 772
0 452 836
0 452 900
0 452 952
0 452 1004
0 452 1012
0 504 0
4 508 4
4 508 4
0 516 52
0 512 172
0 512 284
0 512 380
0 508 464
0 508 544
0 512 620
4 512 692
0 512 756
4 512 820
0 508 880
0 512 948
0 508 1008
0 504 1016
4 576 0
0 572 0
0 572 0
0 568 16
0 572 148
0 572 252
0 572 356
0 572 452
0 568 520
0 568 604
0 572 676
0 568 744
0 568 808
0 568 872
0 564 924
0 564 984
0 560 1016
0 636 0
0 636 0
0 636 0
0 632 0
0 632 84
0 632 212
0 632 324
0 636 420
0 628 504
0 628 584
0 628 656
4 624 728
0 624 796
0 620 856
4 616 920
0 616 984
0 616 1012
0 704 0
0 704 0
4 700 0
4 700 0
0 696 36
0 696 180
0 692 292
4 692 388
0 688 472
0 692 560
0 684 648
0 680 708
0 680 772
0 676 840
4 668 900
0 664 968
0 660 1012
0 764 0
0 764 0
0 760 0
0 756 0
0 752 0
0 752 96
0 752 248
0 744 348
0 736 440
4 740 532
0 740 616
0 736 696
0 732 764
0 728 824
0 724 896
0 720 956
0 720 1000
0 820 0
0 820 0
4 816 0
0 812 0
0 812 0
0 808 60
0 800 208
0 796 320
0 796 412
4 792 508
0 788 592
0 784 672
0 784 736
0 776 812
0 772 884
0 768 956
0 768 1000
0 876 0
0 876 4
0 872 0
0 868 0
4 864 4
0 856 0
0 852 132
0 848 272
0 844 384
0 840 476
0 840 572
0 836 648
0 828 708
0 824 772
0 824 856
4 824 940
0 816 984
0 932 4
0 932 4
0 932 4
0 928 0
0 924 0
0 920 0
0 912 68
0 908 216
0 904 336
0 896 440
0 896 540
0 892 624
0 892 704
0 888 772
0 884 848
0 884 920
0 876 960
0 984 0
4 988 0
0 984 0
0 984 0
0 980 0
0 980 0
0 976 0
0 976 168
0 972 300
0 964 400
0 960 500
0 952 580
4 952 672
0 952 752
4 940 832
0 928 912
0 928 956
0 1016 0
0 1016 0
0 1016 0
0 1016 0
0 1016 0
0 1016 0
0 1016 0
0 1016 56
0 1012 236
0 1012 360
0 1004 468
0 992 556
0 988 640
0 984 728
0 984 808
0 972 888
0 968 944
116 28 40
124 28 80
76 16 92
76 24 128
88 36 224
140 36 332
160 28 448
160 36 552
144 48 652
172 64 724
184 84 800
176 88 876
156 88 952
112 72 1008
128 76 1023
152 100 1023
148 120 1023
124 56 16
136 60 68
144 68 148
120 64 204
128 60 268
140 56 356
140 60 448
144 64 548
164 92 636
180 104 712
184 112 792
172 124 868
116 120 944
108 116 1004
132 124 1016
152 136 1023
140 148 1023
104 124 0
112 124 8
124 124 124
128 136 220
140 136 304
132 132 380
136 132 452
156 136 536
168 156 624
168 160 700
164 168 776
124 168 840
92 168 920
132 176 988
136 176 1023
144 184 1023
112 192 1016
60 208 0
68 212 36
76 212 104
92 216 196
108 224 296
108 224 384
124 224 452
132 224 528
116 232 608
112 232 680
124 240 760
120 240 824
140 240 892
140 248 964
140 248 1012
100 256 1023
40 256 1016
4 292 0
4 292 0
4 300 64
20 304 168
0 304 264
8 304 356
4 308 444
4 308 516
44 312 596
72 312 664
100 312 736
116 316 808
128 316 876
96 320 940
40 324 1004
0 328 1016
0 328 1016
0 368 4
0 372 0
0 376 32
0 372 132
0 380 244
0 380 336
4 380 420
0 380 500
0 384 584
4 384 648
8 388 724
12 388 788
4 392 860
0 392 912
0 392 976
0 392 1016
0 392 1016
0 444 0
0 444 0
0 448 0
0 452 100
0 448 216
4 448 320
0 452 412
0 448 492
4 448 560
0 448 632
0 444 700
0 452 772
0 452 836
0 452 900
0 452 952
0 452 1004
0 452 1012
0 512 0
0 512 0
0 516 0
4 516 64
4 516 176
0 512 284
0 516 380
0 508 464
0 512 548
0 512 620
0 512 692
0 512 756
0 512 816
0 512 880
0 512 952
0 508 1008
0 504 1016
0 572 0
0 572 0
0 572 0
0 576 20
4 576 152
0 576 256
0 576 364
0 572 452
0 572 532
0 572 608
0 572 680
0 572 748
0 568 808
0 568 872
0 564 932
0 564 988
0 560 1016
0 640 0
0 640 0
0 636 0
0 636 0
0 632 88
0 632 220
0 632 324
0 632 428
0 632 504
4 632 588
0 628 656
0 628 728
0 624 796
0 624 860
0 620 928
0 616 984
0 616 1012
0 708 4
0 704 0
0 704 0
0 700 0
0 700 40
0 696 188
0 696 292
0 688 384
0 692 480
0 692 572
0 684 648
0 684 712
0 680 780
4 680 844
4 668 900
0 664 964
0 660 1012
4 768 4
0 764 0
0 764 0
4 760 0
0 756 0
0 752 96
0 752 252
0 744 348
0 740 440
4 740 532
0 740 616
0 744 700
0 732 764
0 728 824
0 724 896
0 720 956
0 720 1000
0 824 4
0 820 0
0 820 0
0 812 0
0 812 0
0 804 68
0 800 208
0 796 320
0 796 424
4 792 516
0 788 604
0 784 672
0 784 736
4 780 816
0 776 888
4 772 960
0 772 1004
0 876 0
0 876 0
0 872 0
0 868 0
0 868 0
0 860 0
0 852 132
0 848 272
0 844 384
0 844 488
0 840 576
0 836 648
0 832 716
4 828 776
0 828 860
0 820 936
0 816 984
0 932 4
0 932 4
0 932 4
0 928 0
0 928 0
0 920 0
0 912 68
0 912 220
0 904 340
4 900 444
0 900 532
0 896 624
0 892 704
0 888 780
0 884 848
0 884 920
0 880 964
4 988 0
4 988 0
4 988 0
0 984 0
0 984 0
0 980 0
0 980 0
0 976 172
0 972 300
0 964 404
0 960 500
0 956 584
4 952 672
0 952 752
0 936 836
0 928 912
0 928 956
0 1016 0
0 1016 0
0 1016 0
0 1016 0
0 1016 0
0 1016 0
0 1016 0
0 1016 64
0 1016 240
0 1008 368
0 1004 468
0 996 560
0 988 640
0 988 728
0 988 812
0 972 896
0 964 940
204 32 60
216 28 100
228 28 176
148 40 172
144 40 220
184 32 340
204 20 452
208 36 560
220 60 656
228 76 728
228 88 808
220 92 888
184 88 952
168 76 1023
164 88 1016
188 116 1023
176 124 1016
208 60 24
216 60 72
224 64 168
212 64 236
184 64 280
196 60 364
204 60 452
216 76 556
228 100 648
232 108 728
228 116 796
204 124 868
156 120 940
168 120 1000
176 128 1016
184 140 1016
