public/luts/鲜艳色彩 - Velvia_.3dl
#DarkroomStore © 2019-2021 - 暗房商店
3DMESH
Mesh 4 10
0 64 128 192 256 320 384 448 512 576 640 704 768 832 896 960 1023
0 0 0
4 0 72
16 0 132
40 8 248
28 8 408
120 0 600
172 0 784
172 0 940
140 0 1012
144 4 1016
200 0 1023
212 0 1023
240 0 1023
268 0 1016
360 0 1016
412 0 1023
444 0 1023
0 40 4
0 24 48
40 32 192
44 36 328
84 16 472
120 0 624
136 0 792
128 0 936
148 8 1023
196 8 1023
208 0 1023
212 0 1023
204 0 1023
212 0 1016
312 4 1023
384 0 1023
420 0 1023
0 152 4
0 144 0
0 128 116
0 112 304
4 96 472
48 60 616
72 44 740
132 56 880
180 52 980
196 36 1023
200 20 1016
192 12 1023
152 4 1023
192 4 1023
256 4 1023
332 0 1016
368 0 1016
0 268 0
0 260 0
0 248 60
0 232 208
0 216 392
0 200 556
20 184 688
72 164 812
92 148 920
136 132 996
168 104 1023
172 80 1023
184 64 1016
200 48 1023
232 32 1023
260 16 1023
284 4 1023
0 388 0
0 384 0
0 372 0
0 356 124
0 344 308
4 320 476
0 308 620
0 288 732
0 268 840
24 248 940
128 224 1008
176 196 1016
204 168 1023
204 140 1016
192 108 1016
180 64 1016
156 28 1016
0 492 0
0 488 4
0 476 4
0 456 12
0 444 212
0 424 384
0 408 532
0 396 664
0 376 768
0 360 880
12 344 968
24 316 1016
32 288 1023
68 256 1023
124 216 1016
124 180 1023
168 160 1023
0 584 0
0 580 0
0 568 0
0 552 0
0 532 48
0 516 300
0 500 468
0 484 592
0 472 704
0 456 812
0 440 924
0 420 996
0 392 1016
0 356 1023
120 320 1023
172 288 1016
184 264 1016
0 668 4
0 660 0
0 648 0
0 632 0
0 612 4
4 592 164
0 576 380
0 560 524
4 548 644
0 528 752
0 512 848
4 492 936
0 464 988
0 436 1016
44 400 1016
40 376 1016
4 352 1016
0 728 4
0 724 0
0 716 0
4 700 0
0 680 4
0 660 140
0 640 288
0 632 440
0 616 568
0 604 688
0 580 800
0 564 908
0 540 1000
0 512 1023
0 480 1023
4 456 1023
0 428 1023
0 800 0
0 792 0
0 784 0
0 764 0
0 744 0
0 724 40
0 704 204
4 692 348
0 680 492
0 664 616
0 648 748
0 624 856
0 596 944
0 568 1000
0 544 1023
0 516 1023
0 504 1023
0 860 0
4 856 0
4 844 0
0 832 0
0 812 0
0 792 0
0 772 76
0 760 248
0 748 392
0 728 524
0 720 652
0 700 804
0 672 932
0 644 1008
0 612 1023
0 584 1023
0 572 1023
0 932 4
0 928 0
0 916 0
0 900 0
0 880 0
4 864 0
0 848 0
0 836 64
0 820 264
0 808 412
0 792 548
0 772 696
0 748 848
4 724 968
0 696 1023
0 672 1023
0 656 1016
0 980 0
0 976 0
0 976 0
0 968 0
0 956 0
4 940 0
0 928 0
4 912 4
0 896 52
0 880 268
4 868 424
0 848 584
0 828 756
0 800 900
0 776 988
0 748 1016
0 736 1016
0 1016 0
0 1016 0
0 1016 0
0 1012 0
0 1012 0
0 1004 0
0 1004 0
4 988 0
0 972 4
0 960 36
0 944 252
0 924 436
0 904 616
0 880 788
0 856 928
0 836 1000
0 812 1012
0 1023 4
0 1023 4
0 1023 4
0 1023 4
0 1023 4
0 1023 4
0 1023 4
0 1023 4
0 1012 0
0 1004 0
0 996 36
0 984 268
0 968 476
4 952 664
0 932 816
0 912 924
0 904 972
0 1023 4
0 1023 4
0 1023 4
0 1023 4
0 1023 4
0 1023 4
0 1023 4
0 1023 4
0 1023 4
0 1016 0
0 1016 0
0 1012 36
0 1012 296
0 1008 532
0 980 712
4 960 844
0 948 904
0 1023 4
0 1023 4
0 1023 4
0 1023 4
0 1023 4
0 1023 4
0 1023 4
0 1023 4
0 1023 4
0 1016 0
0 1016 0
0 1016 4
0 1016 164
0 1016 404
0 1012 624
0 992 776
0 988 848
56 0 8
44 0 64
32 0 104
56 4 220
76 4 400
160 0 596
192 0 784
192 0 944
160 0 1016
184 0 1023
216 0 1016
220 0 1016
244 0 1016
268 0 1023
360 0 1016
412 0 1023
444 0 1023
16 40 0
16 16 16
72 40 204
96 32 316
120 12 464
148 0 628
164 0 792
148 0 944
176 4 1016
216 4 1023
224 0 1023
224 0 1023
212 0 1023
224 0 1023
308 0 1016
388 0 1023
420 0 1023
0 152 0
0 144 0
0 120 112
8 112 316
60 92 488
100 56 612
120 44 752
172 52 884
204 52 984
212 28 1023
220 16 1023
200 12 1023
168 4 1023
208 12 1023
264 4 1023
332 0 1016
368 0 1016
0 268 0
4 264 0
0 252 64
0 232 208
0 216 400
12 200 560
68 184 688
120 156 808
136 148 920
156 128 1000
188 104 1023
192 80 1016
212 64 1016
212 48 1016
236 28 1023
268 12 1016
288 0 1016
0 388 0
0 384 0
0 372 0
0 360 116
0 344 308
0 324 484
0 304 616
0 288 732
8 268 844
84 244 944
168 224 1004
204 196 1016
220 168 1016
220 140 1016
208 104 1023
192 60 1016
176 32 1016
0 496 0
0 488 0
0 476 0
4 460 16
0 444 212
0 424 384
0 408 532
0 396 664
0 376 768
0 364 884
24 336 968
36 316 1012
44 292 1023
116 256 1016
144 212 1023
148 180 1016
176 160 1016
0 588 0
0 584 4
0 572 4
0 552 0
0 532 48
0 516 300
0 500 468
0 484 592
0 472 704
0 456 808
0 440 924
0 420 996
0 388 1016
16 360 1023
148 316 1023
188 288 1012
192 268 1012
0 668 4
0 660 0
0 648 0
0 632 4
0 612 4
0 588 164
0 576 380
0 560 524
4 548 644
0 528 752
0 512 848
4 492 936
0 464 988
16 432 1016
52 400 1016
48 368 1023
20 352 1016
0 728 4
0 724 0
0 716 0
4 700 0
0 680 4
0 660 140
4 644 292
0 632 440
0 616 564
0 600 684
4 584 804
0 564 908
0 536 996
0 508 1016
0 476 1023
0 452 1016
0 428 1016
4 796 0
0 792 0
0 780 0
0 764 0
0 744 0
0 728 48
0 704 204
0 688 344
0 680 492
0 664 616
0 648 748
0 624 860
0 596 944
0 568 1000
0 536 1023
0 516 1023
0 504 1023
0 860 0
0 852 0
4 844 0
0 832 8
0 808 0
0 792 4
0 772 76
0 764 248
0 748 392
0 728 524
0 720 652
0 700 808
0 672 932
0 644 1008
0 612 1023
0 584 1023
0 572 1023
0 932 4
0 928 0
0 920 0
0 900 0
0 880 0
0 860 0
0 848 0
0 836 64
0 820 264
0 808 412
0 792 556
0 772 696
0 748 848
4 724 968
0 696 1023
0 668 1023
0 660 1023
0 980 0
0 976 0
0 972 0
0 964 0
0 956 0
4 940 0
0 928 0
4 912 4
0 892 72
4 884 276
0 864 428
0 848 584
0 828 756
0 800 900
0 772 984
4 752 1023
4 740 1023
0 1012 0
0 1012 0
0 1016 0
0 1012 0
0 1012 0
0 1004 0
0 1004 0
0 984 0
0 972 4
0 960 12
0 944 252
0 928 440
0 904 616
4 880 792
0 856 928
0 836 1000
0 816 1012
0 1023 4
0 1023 4
0 1023 4
0 1023 4
0 1023 4
0 1023 4
0 1023 4
0 1023 4
0 1016 0
0 1004 0
0 992 44
0 984 276
0 972 476
0 948 660
0 932 816
0 912 924
0 900 968
0 1023 4
0 1023 4
0 1023 4
0 1023 4
0 1023 4
0 1023 4
0 1023 4
0 1023 4
0 1023 4
0 1016 0
0 1016 0
0 1016 40
0 1012 300
0 1004 528
0 980 712
0 960 844
0 952 904
0 1023 4
0 1023 4
0 1023 4
0 1023 4
0 1023 4
0 1023 4
0 1023 4
0 1023 4
0 1023 4
0 1016 0
0 1016 0
0 1016 4
0 1016 172
0 1016 404
0 1012 624
0 996 780
0 984 844
136 20 40
156 24 92
92 8 132
84 8 192
132 8 380
212 0 600
232 0 796
228 0 964
216 4 1023
240 0 1016
244 0 1016
248 4 1023
252 0 1023
280 0 1023
356 0 1016
412 0 1023
440 0 1023
132 52 8
148 40 68
180 28 216
160 24 320
180 8 468
200 0 636
204 0 796
204 4 944
236 8 1016
252 8 1023
252 0 1016
248 4 1023
220 0 1016
240 0 1016
320 0 1023
388 0 1023
420 0 1023
60 148 0
84 140 0
116 116 116
136 108 324
172 84 488
176 48 620
192 52 752
228 52 888
248 52 980
248 24 1016
252 16 1016
220 8 1016
204 8 1016
232 4 1016
284 4 1016
344 0 1023
368 0 1023
0 276 0
0 268 0
4 252 64
52 232 212
108 212 408
132 200 568
176 176 696
188 156 816
192 144 928
204 124 1008
228 104 1016
232 80 1016
240 68 1023
240 48 1016
256 32 1023
276 8 1023
296 0 1023
0 396 0
0 388 0
0 380 0
4 364 116
0 344 308
4 320 484
4 304 628
16 284 736
132 260 848
176 236 944
220 220 1004
244 196 1016
248 168 1023
240 136 1023
232 108 1023
216 52 1023
196 36 1023
0 496 0
0 492 0
4 480 0
0 460 24
0 444 212
0 424 392
0 408 532
0 392 660
0 376 776
28 360 888
128 340 972
124 312 1016
52 288 1016
172 252 1016
176 212 1016
180 180 1023
200 160 1016
0 592 0
0 584 0
0 572 4
0 552 0
0 532 56
0 516 300
0 500 468
0 484 592
0 472 704
0 452 808
0 436 920
0 416 992
24 384 1023
100 352 1023
192 316 1023
220 284 1016
220 268 1016
0 668 0
0 660 0
4 652 0
0 632 0
0 612 12
0 588 164
0 576 376
0 560 524
0 544 640
0 528 752
0 512 848
0 484 936
0 464 992
64 432 1023
132 396 1023
60 372 1016
36 348 1016
0 736 0
0 724 0
0 716 0
4 700 0
0 676 8
0 660 140
0 640 288
0 632 440
0 612 564
0 600 684
0 580 800
0 560 908
0 540 1000
0 512 1023
0 476 1023
0 452 1016
20 432 1012
0 796 0
0 792 4
0 780 0
0 764 0
0 744 4
0 720 52
0 704 208
0 688 344
0 676 488
0 664 616
0 648 748
0 620 856
0 600 948
0 568 1000
0 536 1023
0 516 1023
0 504 1023
0 860 0
0 852 0
4 844 0
0 832 8
4 808 0
0 792 4
0 768 76
0 756 252
0 744 388
0 728 524
4 716 652
0 696 804
0 672 932
0 644 1008
0 612 1023
0 588 1023
0 572 1023
0 932 4
0 928 0
0 920 0
0 900 4
0 880 0
4 864 0
0 848 0
0 832 72
0 820 272
0 808 412
0 792 556
0 772 696
0 748 848
4 724 968
0 696 1016
0 672 1023
0 656 1016
0 980 0
0 976 0
0 976 0
0 964 0
0 956 0
0 940 0
0 924 0
4 912 4
4 896 84
0 880 272
4 868 432
0 848 584
0 828 756
0 800 900
0 772 984
0 748 1016
0 740 1016
0 1012 0
0 1012 0
0 1012 0
0 1016 0
0 1012 0
0 1004 0
0 996 0
0 984 0
0 968 0
0 956 32
0 944 256
0 924 436
4 908 620
0 884 792
0 856 928
0 836 1000
0 816 1016
0 1023 4
0 1023 4
0 1023 4
0 1023 4
0 1023 4
0 1023 4
0 1023 4
0 1023 4
0 1012 0
0 1004 0
0 992 24
0 984 276
0 968 484
0 948 660
0 928 824
0 916 928
0 908 972
0 1023 4
0 1023 4
0 1023 4
0 1023 4
0 1023 4
0 1023 4
0 1023 4
0 1023 4
0 1023 4
0 1016 0
0 1016 0
0 1012 48
0 1012 300
0 1008 532
0 980 712
0 960 844
0 952 912
0 1023 4
0 1023 4
0 1023 4
0 1023 4
0 1023 4
0 1023 4
0 1023 4
0 1023 4
0 1023 4
0 1016 0
0 1016 0
0 1016 4
0 1016 184
0 1016 412
0 1016 632
0 996 780
0 984 856
272 20 56
288 12 124
308 0 272
208 16 280
204 8 372
264 0 600
292 0 812
288 4 972
296 4 1023
292 0 1023
292 0 1023
288 4 1023
268 0 1023
296 4 1023
360 0 1016
408 0 1023
436 0 1023
260 44 4
272 32 72
296 16 232
284 8 380
256 4 464
268 0 632
276 4 800
284 4 940
308 8 1012
304 4 1016
300 0 1023
280 0 1023
244 0 1016
280 0 1023
328 4 1016
388 0 1023
