public/luts/黑白胶片+黄色 - Acros+Yellow.3dl
#DarkroomStore © 2019-2021 - 暗房商店
3DMESH
Mesh 4 10
0 64 128 192 256 320 384 448 512 576 640 704 768 832 896 960 1023
0 0 0
4 4 4
8 8 8
12 12 12
12 12 12
20 20 20
32 32 32
28 28 28
16 16 16
28 28 28
56 56 56
60 60 60
56 56 56
36 36 36
36 36 36
60 60 60
68 68 68
32 32 32
32 32 32
32 32 32
32 32 32
36 36 36
40 40 40
32 32 32
28 28 28
32 32 32
56 56 56
68 68 68
72 72 72
64 64 64
36 36 36
48 48 48
72 72 72
76 76 76
80 80 80
72 72 72
52 52 52
72 72 72
68 68 68
72 72 72
60 60 60
64 64 64
80 80 80
88 88 88
88 88 88
88 88 88
84 84 84
76 76 76
72 72 72
88 88 88
92 92 92
132 132 132
128 128 128
120 120 120
116 116 116
108 108 108
116 116 116
116 116 116
120 120 120
120 120 120
112 112 112
104 104 104
100 100 100
104 104 104
108 108 108
112 112 112
116 116 116
112 112 112
168 168 168
168 168 168
168 168 168
172 172 172
152 152 152
124 124 124
140 140 140
152 152 152
152 152 152
156 156 156
148 148 148
152 152 152
152 152 152
152 152 152
152 152 152
148 148 148
136 136 136
220 220 220
216 216 216
212 212 212
208 208 208
212 212 212
204 204 204
200 200 200
192 192 192
196 196 196
180 180 180
184 184 184
192 192 192
184 184 184
176 176 176
180 180 180
176 176 176
172 172 172
272 272 272
272 272 272
272 272 272
268 268 268
260 260 260
240 240 240
252 252 252
256 256 256
236 236 236
208 208 208
204 204 204
196 196 196
216 216 216
220 220 220
220 220 220
224 224 224
224 224 224
312 312 312
312 312 312
308 308 308
312 312 312
312 312 312
304 304 304
284 284 284
296 296 296
296 296 296
284 284 284
276 276 276
272 272 272
264 264 264
260 260 260
260 260 260
228 228 228
196 196 196
364 364 364
360 360 360
356 356 356
348 348 348
344 344 344
348 348 348
356 356 356
356 356 356
324 324 324
328 328 328
328 328 328
312 312 312
288 288 288
296 296 296
288 288 288
288 288 288
280 280 280
404 404 404
400 400 400
396 396 396
388 388 388
376 376 376
376 376 376
384 384 384
392 392 392
396 396 396
368 368 368
368 368 368
368 368 368
356 356 356
340 340 340
328 328 328
332 332 332
336 336 336
448 448 448
448 448 448
448 448 448
444 444 444
444 444 444
444 444 444
432 432 432
420 420 420
412 412 412
420 420 420
416 416 416
400 400 400
392 392 392
380 380 380
332 332 332
308 308 308
328 328 328
476 476 476
476 476 476
476 476 476
476 476 476
480 480 480
484 484 484
476 476 476
448 448 448
432 432 432
428 428 428
432 432 432
444 444 444
436 436 436
420 420 420
416 416 416
400 400 400
400 400 400
520 520 520
520 520 520
520 520 520
516 516 516
512 512 512
512 512 512
508 508 508
508 508 508
504 504 504
500 500 500
492 492 492
480 480 480
476 476 476
472 472 472
460 460 460
452 452 452
452 452 452
564 564 564
564 564 564
564 564 564
560 560 560
552 552 552
540 540 540
528 528 528
524 524 524
532 532 532
540 540 540
544 544 544
516 516 516
492 492 492
476 476 476
488 488 488
488 488 488
476 476 476
596 596 596
596 596 596
596 596 596
592 592 592
588 588 588
584 584 584
576 576 576
564 564 564
556 556 556
560 560 560
564 564 564
560 560 560
552 552 552
540 540 540
532 532 532
528 528 528
528 528 528
620 620 620
616 616 616
616 616 616
616 616 616
616 616 616
612 612 612
616 616 616
612 612 612
612 612 612
604 604 604
588 588 588
572 572 572
568 568 568
584 584 584
552 552 552
528 528 528
528 528 528
620 620 620
616 616 616
616 616 616
616 616 616
612 612 612
608 608 608
608 608 608
612 612 612
616 616 616
620 620 620
612 612 612
584 584 584
564 564 564
572 572 572
592 592 592
564 564 564
556 556 556
32 32 32
20 20 20
16 16 16
20 20 20
24 24 24
32 32 32
40 40 40
36 36 36
20 20 20
44 44 44
64 64 64
68 68 68
64 64 64
40 40 40
44 44 44
68 68 68
76 76 76
52 52 52
52 52 52
56 56 56
52 52 52
52 52 52
52 52 52
44 44 44
40 40 40
52 52 52
68 68 68
76 76 76
80 80 80
72 72 72
48 48 48
60 60 60
76 76 76
84 84 84
96 96 96
88 88 88
80 80 80
96 96 96
92 92 92
92 92 92
76 76 76
80 80 80
92 92 92
96 96 96
96 96 96
96 96 96
92 92 92
84 84 84
80 80 80
96 96 96
96 96 96
144 144 144
144 144 144
140 140 140
128 128 128
128 128 128
132 132 132
132 132 132
136 136 136
132 132 132
124 124 124
116 116 116
112 112 112
116 116 116
116 116 116
120 120 120
124 124 124
120 120 120
184 184 184
184 184 184
184 184 184
188 188 188
168 168 168
136 136 136
160 160 160
168 168 168
168 168 168
168 168 168
160 160 160
160 160 160
160 160 160
160 160 160
160 160 160
152 152 152
144 144 144
228 228 228
228 228 228
228 228 228
224 224 224
228 228 228
220 220 220
212 212 212
204 204 204
208 208 208
188 188 188
196 196 196
204 204 204
192 192 192
184 184 184
188 188 188
184 184 184
180 180 180
284 284 284
284 284 284
284 284 284
280 280 280
272 272 272
256 256 256
268 268 268
272 272 272
248 248 248
224 224 224
208 208 208
208 208 208
228 228 228
228 228 228
228 228 228
228 228 228
228 228 228
320 320 320
320 320 320
320 320 320
320 320 320
320 320 320
312 312 312
296 296 296
304 304 304
304 304 304
296 296 296
280 280 280
280 280 280
272 272 272
268 268 268
268 268 268
232 232 232
204 204 204
368 368 368
368 368 368
364 364 364
352 352 352
348 348 348
356 356 356
368 368 368
364 364 364
332 332 332
336 336 336
336 336 336
320 320 320
296 296 296
304 304 304
296 296 296
296 296 296
288 288 288
408 408 408
408 408 408
404 404 404
396 396 396
384 384 384
384 384 384
392 392 392
400 400 400
400 400 400
376 376 376
376 376 376
372 372 372
364 364 364
344 344 344
332 332 332
340 340 340
344 344 344
452 452 452
452 452 452
452 452 452
452 452 452
452 452 452
448 448 448
436 436 436
424 424 424
416 416 416
428 428 428
424 424 424
408 408 408
400 400 400
384 384 384
336 336 336
312 312 312
336 336 336
484 484 484
484 484 484
484 484 484
484 484 484
488 488 488
488 488 488
480 480 480
452 452 452
436 436 436
432 432 432
440 440 440
452 452 452
440 440 440
428 428 428
420 420 420
404 404 404
404 404 404
524 524 524
524 524 524
524 524 524
520 520 520
520 520 520
516 516 516
512 512 512
512 512 512
508 508 508
504 504 504
496 496 496
484 484 484
480 480 480
480 480 480
464 464 464
456 456 456
456 456 456
568 568 568
568 568 568
568 568 568
564 564 564
556 556 556
544 544 544
532 532 532
528 528 528
536 536 536
544 544 544
548 548 548
520 520 520
496 496 496
476 476 476
496 496 496
492 492 492
480 480 480
600 600 600
600 600 600
596 596 596
596 596 596
592 592 592
588 588 588
580 580 580
568 568 568
564 564 564
564 564 564
568 568 568
564 564 564
556 556 556
548 548 548
536 536 536
532 532 532
532 532 532
620 620 620
620 620 620
620 620 620
620 620 620
616 616 616
616 616 616
616 616 616
620 620 620
616 616 616
608 608 608
588 588 588
576 576 576
572 572 572
588 588 588
556 556 556
528 528 528
528 528 528
620 620 620
620 620 620
620 620 620
616 616 616
616 616 616
612 612 612
612 612 612
620 620 620
620 620 620
624 624 624
616 616 616
588 588 588
568 568 568
580 580 580
596 596 596
564 564 564
560 560 560
76 76 76
76 76 76
44 44 44
36 36 36
44 44 44
56 56 56
56 56 56
56 56 56
48 48 48
68 68 68
80 80 80
80 80 80
76 76 76
52 52 52
60 60 60
80 80 80
84 84 84
92 92 92
96 96 96
96 96 96
80 80 80
76 76 76
72 72 72
64 64 64
68 68 68
76 76 76
84 84 84
92 92 92
92 92 92
84 84 84
64 64 64
72 72 72
88 88 88
92 92 92
128 128 128
132 132 132
128 128 128
136 136 136
128 128 128
120 120 120
100 100 100
104 104 104
112 112 112
112 112 112
112 112 112
112 112 112
104 104 104
96 96 96
92 92 92
104 104 104
108 108 108
176 176 176
176 176 176
172 172 172
164 164 164
168 168 168
164 164 164
160 160 160
160 160 160
156 156 156
148 148 148
140 140 140
132 132 132
132 132 132
132 132 132
132 132 132
136 136 136
128 128 128
212 212 212
216 216 216
220 220 220
228 228 228
200 200 200
176 176 176
196 196 196
196 196 196
196 196 196
188 188 188
180 180 180
176 176 176
176 176 176
176 176 176
172 172 172
168 168 168
156 156 156
252 252 252
252 252 252
252 252 252
252 252 252
252 252 252
248 248 248
236 236 236
232 232 232
232 232 232
216 216 216
220 220 220
224 224 224
208 208 208
200 200 200
200 200 200
196 196 196
192 192 192
300 300 300
304 304 304
308 308 308
300 300 300
296 296 296
284 284 284
292 292 292
292 292 292
264 264 264
248 248 248
224 224 224
232 232 232
244 244 244
240 240 240
240 240 240
240 240 240
236 236 236
336 336 336
336 336 336
340 340 340
340 340 340
336 336 336
332 332 332
320 320 320
320 320 320
320 320 320
308 308 308
296 296 296
292 292 292
284 284 284
284 284 284
284 284 284
244 244 244
216 216 216
380 380 380
380 380 380
376 376 376
364 364 364
368 368 368
376 376 376
384 384 384
380 380 380
352 352 352
356 356 356
356 356 356
336 336 336
312 312 312
320 320 320
312 312 312
312 312 312
300 300 300
420 420 420
416 416 416
416 416 416
408 408 408
396 396 396
400 400 400
408 408 408
416 416 416
416 416 416
392 392 392
388 388 388
384 384 384
376 376 376
352 352 352
340 340 340
352 352 352
352 352 352
460 460 460
460 460 460
464 464 464
464 464 464
464 464 464
460 460 460
448 448 448
432 432 432
432 432 432
444 444 444
432 432 432
420 420 420
412 412 412
400 400 400
344 344 344
320 320 320
348 348 348
492 492 492
492 492 492
496 496 496
496 496 496
500 500 500
500 500 500
492 492 492
464 464 464
448 448 448
444 444 444
456 456 456
460 460 460
448 448 448
440 440 440
428 428 428
412 412 412
412 412 412
532 532 532
532 532 532
532 532 532
528 528 528
528 528 528
524 524 524
520 520 520
520 520 520
516 516 516
512 512 512
504 504 504
492 492 492
492 492 492
488 488 488
472 472 472
464 464 464
468 468 468
576 576 576
572 572 572
572 572 572
568 568 568
560 560 560
552 552 552
544 544 544
540 540 540
548 548 548
556 556 556
560 560 560
532 532 532
504 504 504
488 488 488
508 508 508
500 500 500
492 492 492
604 604 604
604 604 604
604 604 604
604 604 604
600 600 600
596 596 596
584 584 584
576 576 576
572 572 572
572 572 572
576 576 576
572 572 572
564 564 564
552 552 552
540 540 540
540 540 540
540 540 540
624 624 624
624 624 624
624 624 624
624 624 624
624 624 624
624 624 624
624 624 624
624 624 624
624 624 624
616 616 616
596 596 596
584 584 584
580 580 580
596 596 596
564 564 564
536 536 536
532 532 532
624 624 624
624 624 624
624 624 624
624 624 624
620 620 620
616 616 616
620 620 620
624 624 624
628 628 628
632 632 632
624 624 624
592 592 592
580 580 580
588 588 588
604 604 604
572 572 572
564 564 564
112 112 112
112 112 112
108 108 108
76 76 76
68 68 68
80 80 80
84 84 84
84 84 84
88 88 88
96 96 96
104 104 104
100 100 100
96 96 96
76 76 76
80 80 80
96 96 96
100 100 100
136 136 136
136 136 136
136 136 136
120 120 120
104 104 104
100 100 100
96 96 96
100 100 100
108 108 108
112 112 112
116 116 116
116 116 116
104 104 104
92 92 92
92 92 92
104 104 104
