public/luts/黑白胶片+红色 - Acros+Red.3dl
#DarkroomStore © 2019-2021 - 暗房商店
3DMESH
Mesh 4 10
0 64 128 192 256 320 384 448 512 576 640 704 768 832 896 960 1023
0 0 0
4 4 4
8 8 8
8 8 8
12 12 12
20 20 20
28 28 28
20 20 20
0 0 0
12 12 12
28 28 28
20 20 20
16 16 16
4 4 4
4 4 4
20 20 20
24 24 24
32 32 32
28 28 28
20 20 20
20 20 20
24 24 24
28 28 28
20 20 20
4 4 4
12 12 12
32 32 32
32 32 32
24 24 24
8 8 8
0 0 0
12 12 12
24 24 24
24 24 24
72 72 72
60 60 60
24 24 24
28 28 28
24 24 24
24 24 24
24 24 24
36 36 36
44 44 44
36 36 36
32 32 32
16 16 16
4 4 4
12 12 12
20 20 20
32 32 32
32 32 32
116 116 116
108 108 108
96 96 96
80 80 80
60 60 60
64 64 64
56 56 56
56 56 56
48 48 48
40 40 40
20 20 20
20 20 20
32 32 32
28 32 32
36 36 36
36 36 36
28 28 28
144 144 144
140 140 140
132 132 132
128 128 128
96 96 96
40 40 40
56 56 56
64 64 64
60 60 60
60 60 60
68 68 68
64 64 64
60 60 60
52 52 52
36 36 36
24 24 24
12 12 12
192 192 192
188 188 188
176 176 176
164 164 164
152 152 152
132 132 132
116 116 116
100 100 100
96 96 96
84 84 84
84 84 84
76 76 76
44 44 44
36 36 36
36 36 36
36 36 36
48 48 48
248 248 248
244 244 244
240 240 240
228 228 228
204 204 204
168 168 168
172 172 172
164 164 164
124 124 124
76 76 76
68 68 68
72 72 72
76 76 76
68 68 68
80 80 80
88 88 88
88 88 88
288 288 288
288 288 288
280 280 280
276 276 276
264 264 264
244 244 244
204 204 204
200 200 200
180 180 180
152 152 152
128 128 128
120 120 120
112 112 112
100 100 100
96 96 96
72 76 76
52 52 52
348 348 348
344 344 344
336 336 336
316 316 316
304 304 304
296 296 296
292 292 292
280 280 280
216 216 216
196 196 196
168 168 168
132 132 132
92 92 92
100 100 100
96 96 96
108 108 108
108 108 108
392 392 392
388 388 388
384 384 384
368 368 368
344 344 344
336 336 336
332 332 332
332 332 332
316 316 316
256 256 256
224 224 224
192 192 192
164 164 164
140 140 140
116 116 116
124 124 124
124 124 124
460 460 460
456 456 456
452 452 452
448 448 448
440 440 440
428 428 428
408 408 408
380 380 380
356 356 356
340 340 340
308 308 308
248 248 248
200 200 200
160 160 160
88 88 88
60 60 60
88 88 88
504 504 504
500 500 500
500 500 500
496 496 496
492 492 492
484 484 484
468 468 468
428 428 428
400 400 400
372 372 372
348 348 348
332 332 332
280 280 280
232 232 232
208 208 208
180 180 180
180 180 180
564 564 564
560 560 560
560 560 560
552 552 552
544 544 544
536 536 536
524 524 524
512 512 512
496 496 496
468 468 468
432 432 432
388 388 388
352 352 352
324 324 324
288 288 288
272 272 272
272 272 272
620 620 620
616 616 616
616 616 616
608 608 608
596 596 596
576 576 576
560 560 560
548 548 548
540 540 540
528 528 528
504 504 504
444 444 444
384 384 384
332 332 332
336 336 336
328 328 328
308 308 308
648 648 648
648 648 648
644 644 644
640 640 640
632 632 632
620 620 620
604 604 604
584 584 584
564 564 564
548 548 548
528 528 528
496 496 496
460 460 460
420 420 420
392 392 392
380 380 380
380 380 380
656 656 656
656 656 656
652 652 652
648 648 648
644 644 644
636 636 636
632 632 632
620 620 620
600 600 600
576 576 576
536 536 536
492 492 492
464 464 464
456 456 456
400 400 400
364 364 364
360 360 360
644 644 644
644 644 644
640 640 640
636 636 636
628 628 628
620 620 620
612 612 612
608 608 608
600 600 600
580 580 580
552 552 552
496 496 496
448 448 448
436 436 436
432 432 432
392 392 392
384 384 384
40 40 40
24 24 24
20 20 20
16 16 16
24 24 24
36 36 36
36 36 36
24 24 24
0 0 0
24 24 24
36 36 36
24 24 24
16 16 16
4 4 4
8 8 8
24 24 24
28 28 28
56 56 56
48 48 48
48 48 48
44 44 44
40 40 40
40 40 40
28 28 28
8 8 8
24 24 24
40 40 40
40 40 40
32 32 32
8 8 8
4 4 4
16 16 16
28 28 28
28 28 28
92 92 92
84 84 84
60 60 60
60 60 60
56 56 56
48 48 48
44 44 44
48 48 48
52 52 52
44 44 44
40 40 40
16 16 16
4 4 4
16 16 16
28 28 28
36 36 36
36 36 36
132 132 132
132 132 132
120 120 120
96 96 96
84 84 84
80 80 80
76 76 76
72 72 72
60 60 60
48 48 48
28 28 28
28 28 28
36 36 36
36 36 36
40 40 40
40 40 40
32 32 32
168 168 168
164 164 164
156 156 156
152 152 152
116 116 116
60 60 60
84 84 84
80 80 80
76 76 76
72 72 72
76 76 76
72 72 72
68 68 68
56 56 56
40 40 40
28 28 28
16 16 16
208 208 208
204 204 204
196 196 196
184 184 184
172 172 172
152 152 152
132 132 132
112 112 112
112 112 112
92 92 92
92 92 92
84 84 84
48 48 48
44 44 44
40 40 40
44 44 44
52 52 52
264 264 264
260 260 260
256 256 256
240 240 240
220 220 220
188 188 188
188 188 188
180 180 180
136 136 136
96 96 96
76 76 76
84 84 84
84 84 84
76 76 76
88 88 88
92 92 92
92 92 92
300 300 300
300 300 300
296 296 296
288 288 288
276 276 276
256 256 256
220 220 220
212 212 212
188 188 188
164 164 164
136 136 136
128 128 128
116 116 116
108 108 108
104 104 104
80 80 80
60 60 60
352 352 352
348 348 348
340 340 340
324 324 324
312 312 312
308 308 308
304 304 304
288 288 288
228 228 228
208 208 208
180 180 180
140 140 140
100 100 100
108 108 108
108 108 108
116 116 116
116 116 116
400 400 400
396 396 396
392 392 392
376 376 376
356 356 356
348 348 348
344 344 344
340 340 340
328 328 328
264 264 264
232 232 232
200 200 200
176 176 176
144 144 144
124 124 124
128 128 128
132 132 132
464 464 464
464 464 464
460 460 460
452 452 452
444 444 444
436 436 436
412 412 412
388 388 388
364 364 364
352 352 352
316 316 316
256 256 256
208 208 208
172 172 172
92 92 92
64 64 64
92 92 92
508 508 508
508 508 508
508 508 508
504 504 504
500 500 500
492 492 492
476 476 476
436 436 436
404 404 404
376 376 376
360 360 360
340 340 340
288 288 288
240 240 240
216 216 216
188 188 188
188 188 188
568 568 568
564 564 564
564 564 564
556 556 556
552 552 552
540 540 540
528 528 528
516 516 516
500 500 500
476 476 476
440 440 440
396 396 396
360 360 360
332 332 332
292 292 292
276 276 276
284 284 284
624 624 624
620 620 620
616 616 616
612 612 612
596 596 596
580 580 580
564 564 564
552 552 552
544 544 544
532 532 532
508 508 508
452 452 452
388 388 388
336 336 336
344 344 344
332 332 332
316 316 316
652 652 652
652 652 652
648 648 648
644 644 644
636 636 636
624 624 624
608 608 608
588 588 588
568 568 568
552 552 552
532 532 532
500 500 500
464 464 464
428 428 428
396 396 396
388 388 388
388 388 388
660 660 660
660 660 660
656 656 656
652 652 652
648 648 648
640 640 640
632 632 632
620 620 620
604 604 604
580 580 580
536 536 536
496 496 496
468 468 468
460 460 460
404 404 404
364 364 364
364 364 364
648 648 648
644 644 644
644 644 644
640 640 640
632 632 632
624 624 624
616 616 616
612 612 612
604 604 604
584 584 584
556 556 556
500 500 500
456 456 456
440 440 440
436 436 436
396 396 396
388 388 388
96 96 96
96 96 96
52 52 52
36 36 36
44 44 44
56 56 56
48 48 48
32 32 32
20 20 20
44 44 44
48 48 48
36 36 36
16 16 16
4 4 4
16 16 16
32 32 32
36 36 36
112 112 112
112 112 112
104 104 104
80 80 80
68 68 68
60 60 60
44 44 44
28 28 28
52 52 52
56 56 56
52 52 52
40 40 40
8 8 8
8 8 8
24 24 24
36 36 36
36 36 36
144 144 144
144 144 144
128 128 128
112 112 112
104 104 104
80 80 80
68 68 68
72 72 72
72 72 72
56 56 56
52 52 52
16 16 16
12 12 12
24 24 24
36 36 36
44 44 44
44 44 44
180 180 180
176 176 176
164 164 164
144 144 144
132 132 132
120 120 120
108 108 108
96 96 96
80 80 80
64 64 64
48 48 48
44 44 44
52 52 52
48 48 48
52 52 52
44 44 44
36 36 36
216 216 216
212 212 212
204 204 204
200 200 200
156 156 156
116 116 116
124 124 124
112 112 112
104 104 104
96 96 96
92 92 92
84 84 84
80 80 80
64 64 64
48 48 48
36 36 36
24 24 24
240 240 240
236 236 236
232 232 232
220 220 220
204 204 204
188 188 188
160 160 160
148 148 148
140 140 140
116 116 116
116 116 116
100 100 100
56 56 56
56 56 56
52 52 52
56 56 56
64 64 64
296 296 296
292 292 292
284 284 284
268 268 268
252 252 252
224 224 224
220 220 220
212 212 212
156 156 156
124 124 124
96 96 96
104 104 104
100 100 100
92 92 92
100 100 100
104 104 104
104 104 104
324 324 324
324 324 324
320 320 320
312 312 312
296 296 296
276 276 276
248 248 248
236 236 236
212 212 212
184 184 184
156 156 156
144 144 144
132 132 132
120 120 120
116 116 116
88 88 88
72 72 72
368 368 368
364 364 364
356 356 356
340 340 340
332 332 332
328 328 328
328 328 328
308 308 308
256 256 256
232 232 232
204 204 204
160 160 160
120 120 120
124 124 124
120 120 120
128 128 128
128 128 128
416 416 416
412 412 412
404 404 404
388 388 388
368 368 368
364 364 364
360 360 360
360 360 360
344 344 344
284 284 284
252 252 252
216 216 216
192 192 192
156 156 156
136 136 136
144 144 144
144 144 144
476 476 476
472 472 472
472 472 472
464 464 464
456 456 456
448 448 448
424 424 424
396 396 396
380 380 380
368 368 368
332 332 332
272 272 272
228 228 228
192 192 192
104 104 104
76 76 76
112 112 112
520 520 520
520 520 520
520 520 520
516 516 516
512 512 512
504 504 504
488 488 488
448 448 448
416 416 416
392 392 392
376 376 376
356 356 356
300 300 300
256 256 256
232 232 232
204 204 204
200 200 200
576 576 576
572 572 572
572 572 572
564 564 564
560 560 560
548 548 548
536 536 536
524 524 524
508 508 508
484 484 484
448 448 448
404 404 404
376 376 376
344 344 344
308 308 308
292 292 292
296 296 296
628 628 628
628 628 628
624 624 624
616 616 616
604 604 604
588 588 588
576 576 576
564 564 564
552 552 552
544 544 544
520 520 520
460 460 460
396 396 396
352 352 352
360 360 360
344 344 344
328 328 328
656 656 656
656 656 656
652 652 652
648 648 648
640 640 640
628 628 628
612 612 612
592 592 592
576 576 576
560 560 560
540 540 540
508 508 508
472 472 472
436 436 436
404 404 404
396 396 396
396 396 396
664 664 664
664 664 664
660 660 660
656 656 656
652 652 652
648 648 648
640 640 640
628 628 628
612 612 612
584 584 584
544 544 544
508 508 508
480 480 480
472 472 472
416 416 416
372 372 372
368 368 368
652 652 652
652 652 652
648 648 648
644 644 644
636 636 636
628 628 628
624 624 624
620 620 620
612 612 612
592 592 592
564 564 564
508 508 508
468 468 468
452 452 452
448 448 448
404 404 404
396 396 396
160 160 160
160 160 160
148 148 148
92 92 92
80 80 80
84 84 84
76 76 76
64 64 64
72 72 72
76 76 76
72 72 72
52 52 52
20 20 20
12 12 12
32 32 32
48 48 48
48 48 48
176 176 176
172 172 172
164 164 164
140 140 140
108 108 108
96 96 96
80 80 80
76 76 76
84 84 84
80 80 80
76 76 76
48 48 48
12 12 12
24 24 24
40 40 40
52 52 52
