public/luts/黑白胶片+绿色 - Acros+Green.3dl
#DarkroomStore © 2019-2021 - 暗房商店
3DMESH
Mesh 4 10
0 64 128 192 256 320 384 448 512 576 640 704 768 832 896 960 1023
0 0 0
0 0 0
8 8 8
20 20 20
36 36 36
60 60 60
84 84 84
104 104 104
120 120 120
140 140 140
172 172 172
196 196 196
216 216 216
232 232 232
240 240 240
252 252 252
260 260 260
32 32 32
36 36 36
52 52 52
64 64 64
76 76 76
88 88 88
104 104 104
124 124 124
144 144 144
168 168 168
192 192 192
216 216 216
232 232 232
244 244 244
256 256 256
264 264 264
272 272 272
88 88 88
92 92 92
104 104 104
120 120 120
132 132 132
144 144 144
152 152 152
168 168 168
192 192 192
212 212 212
228 228 228
248 248 248
268 268 268
272 272 272
280 280 280
288 288 288
296 296 296
152 152 152
156 156 156
168 168 168
180 180 180
188 188 188
204 204 204
216 216 216
232 232 232
248 248 248
260 260 260
272 272 272
284 284 284
296 296 296
308 308 308
316 316 316
324 324 324
328 328 328
212 212 212
220 220 220
232 232 232
244 244 244
248 248 248
248 248 248
264 264 264
280 280 280
292 292 292
308 308 308
320 320 320
332 332 332
344 344 344
352 352 352
360 360 360
368 368 368
368 368 368
284 284 284
288 288 288
292 292 292
304 304 304
312 312 312
320 320 320
324 324 324
332 332 332
344 344 344
348 348 348
360 360 360
376 376 376
380 380 380
388 388 388
400 400 400
404 404 404
404 404 404
360 360 360
364 364 364
364 364 364
368 368 368
372 372 372
372 372 372
384 384 384
392 392 392
392 392 392
388 388 388
392 392 392
400 400 400
420 420 420
428 428 428
432 432 432
440 440 440
440 440 440
424 424 424
424 424 424
428 428 428
428 428 428
432 432 432
432 432 432
432 432 432
440 440 440
444 444 444
448 448 448
448 448 448
456 456 456
460 460 460
464 464 464
472 472 472
460 460 460
448 448 448
480 480 480
480 480 480
480 480 480
480 480 480
480 480 480
480 480 480
488 488 488
488 488 488
480 480 480
488 488 488
492 492 492
492 492 492
488 488 488
496 496 496
496 496 496
500 500 500
500 500 500
532 532 532
532 532 532
528 528 528
528 528 528
524 524 524
524 524 524
528 528 528
532 532 532
536 536 536
528 528 528
532 532 532
532 532 532
532 532 532
528 528 528
524 524 524
532 532 532
536 536 536
588 588 588
588 588 588
588 588 588
584 584 584
584 584 584
584 584 584
580 580 580
576 576 576
572 572 572
576 576 576
576 576 576
572 572 572
568 568 568
564 564 564
540 540 540
532 532 532
544 544 544
648 648 648
644 644 644
644 644 644
640 640 640
640 640 640
640 640 640
636 636 636
624 624 624
612 612 612
612 612 612
616 616 616
620 620 620
616 616 616
608 608 608
608 608 608
600 600 600
600 600 600
712 712 712
712 712 712
708 708 708
704 704 704
700 700 700
696 696 696
692 692 692
688 688 688
684 684 684
680 680 680
672 672 672
664 664 664
660 660 660
660 660 660
652 652 652
648 648 648
648 648 648
776 776 776
776 776 776
776 776 776
772 772 772
764 764 764
752 752 752
744 744 744
732 732 732
732 732 732
732 732 732
732 732 732
712 712 712
692 692 692
676 676 676
688 688 688
688 688 688
680 680 680
824 824 824
824 824 824
820 820 820
816 816 816
812 812 812
804 804 804
792 792 792
780 780 780
768 768 768
764 764 764
756 756 756
752 752 752
744 744 744
732 732 732
724 724 724
720 720 720
720 720 720
856 856 856
852 852 852
852 852 852
848 848 848
840 840 840
836 836 836
828 828 828
820 820 820
816 816 816
804 804 804
784 784 784
764 764 764
756 756 756
764 764 764
744 744 744
728 728 728
728 728 728
876 876 876
872 872 872
868 868 868
864 864 864
852 852 852
836 836 836
828 828 828
824 824 824
820 820 820
816 816 816
804 804 804
776 776 776
756 756 756
756 756 756
764 764 764
748 748 748
744 744 744
8 8 8
8 8 8
8 8 8
20 20 20
40 40 40
64 64 64
84 84 84
104 104 104
124 124 124
148 148 148
176 176 176
200 200 200
220 220 220
232 232 232
244 244 244
256 256 256
264 264 264
44 44 44
44 44 44
64 64 64
68 68 68
80 80 80
92 92 92
104 104 104
128 128 128
152 152 152
172 172 172
196 196 196
220 220 220
236 236 236
248 248 248
256 256 256
268 268 268
272 272 272
96 96 96
96 96 96
108 108 108
132 132 132
140 140 140
152 152 152
156 156 156
172 172 172
196 196 196
216 216 216
232 232 232
252 252 252
272 272 272
276 276 276
280 280 280
292 292 292
296 296 296
156 156 156
164 164 164
172 172 172
184 184 184
196 196 196
212 212 212
224 224 224
236 236 236
252 252 252
264 264 264
276 276 276
288 288 288
300 300 300
312 312 312
320 320 320
328 328 328
328 328 328
220 220 220
228 228 228
240 240 240
252 252 252
256 256 256
252 252 252
272 272 272
288 288 288
300 300 300
312 312 312
324 324 324
336 336 336
344 344 344
356 356 356
364 364 364
372 372 372
372 372 372
288 288 288
292 292 292
300 300 300
308 308 308
320 320 320
324 324 324
328 328 328
336 336 336
348 348 348
352 352 352
364 364 364
380 380 380
384 384 384
392 392 392
400 400 400
404 404 404
404 404 404
364 364 364
368 368 368
372 372 372
372 372 372
376 376 376
380 380 380
388 388 388
396 396 396
396 396 396
392 392 392
396 396 396
404 404 404
424 424 424
432 432 432
436 436 436
440 440 440
440 440 440
424 424 424
428 428 428
428 428 428
432 432 432
436 436 436
436 436 436
436 436 436
444 444 444
448 448 448
448 448 448
452 452 452
456 456 456
460 460 460
468 468 468
476 476 476
464 464 464
452 452 452
484 484 484
484 484 484
484 484 484
480 480 480
480 480 480
484 484 484
492 492 492
492 492 492
488 488 488
492 492 492
496 496 496
496 496 496
488 488 488
500 500 500
500 500 500
504 504 504
500 500 500
532 532 532
532 532 532
532 532 532
528 528 528
524 524 524
528 528 528
532 532 532
536 536 536
540 540 540
532 532 532
536 536 536
536 536 536
536 536 536
532 532 532
528 528 528
536 536 536
540 540 540
588 588 588
588 588 588
588 588 588
588 588 588
588 588 588
588 588 588
580 580 580
576 576 576
576 576 576
580 580 580
580 580 580
576 576 576
572 572 572
568 568 568
544 544 544
532 532 532
548 548 548
648 648 648
648 648 648
644 644 644
644 644 644
644 644 644
644 644 644
640 640 640
624 624 624
616 616 616
616 616 616
620 620 620
624 624 624
616 616 616
612 612 612
608 608 608
604 604 604
604 604 604
712 712 712
712 712 712
712 712 712
708 708 708
704 704 704
700 700 700
696 696 696
692 692 692
688 688 688
684 684 684
676 676 676
668 668 668
664 664 664
664 664 664
656 656 656
652 652 652
652 652 652
780 780 780
776 776 776
776 776 776
772 772 772
764 764 764
756 756 756
744 744 744
736 736 736
736 736 736
736 736 736
736 736 736
716 716 716
696 696 696
680 680 680
692 692 692
692 692 692
684 684 684
824 824 824
824 824 824
820 820 820
820 820 820
812 812 812
804 804 804
796 796 796
784 784 784
772 772 772
764 764 764
760 760 760
752 752 752
744 744 744
736 736 736
724 724 724
724 724 724
724 724 724
856 856 856
852 852 852
852 852 852
848 848 848
840 840 840
836 836 836
828 828 828
824 824 824
816 816 816
804 804 804
784 784 784
768 768 768
760 760 760
768 768 768
748 748 748
728 728 728
728 728 728
872 872 872
872 872 872
872 872 872
868 868 868
852 852 852
836 836 836
828 828 828
824 824 824
824 824 824
820 820 820
808 808 808
780 780 780
760 760 760
760 760 760
768 768 768
748 748 748
744 744 744
20 20 20
24 24 24
20 20 20
24 24 24
48 48 48
68 68 68
88 88 88
112 112 112
132 132 132
156 156 156
184 184 184
204 204 204
224 224 224
236 236 236
248 248 248
260 260 260
268 268 268
56 56 56
64 64 64
80 80 80
76 76 76
84 84 84
96 96 96
112 112 112
132 132 132
160 160 160
180 180 180
204 204 204
224 224 224
240 240 240
252 252 252
260 260 260
272 272 272
276 276 276
108 108 108
108 108 108
124 124 124
144 144 144
156 156 156
160 160 160
160 160 160
180 180 180
200 200 200
220 220 220
240 240 240
260 260 260
276 276 276
276 276 276
284 284 284
296 296 296
300 300 300
172 172 172
180 180 180
188 188 188
200 200 200
216 216 216
228 228 228
232 232 232
244 244 244
260 260 260
272 272 272
284 284 284
296 296 296
304 304 304
316 316 316
324 324 324
332 332 332
332 332 332
236 236 236
244 244 244
256 256 256
272 272 272
268 268 268
268 268 268
288 288 288
300 300 300
312 312 312
320 320 320
332 332 332
340 340 340
352 352 352
360 360 360
368 368 368
380 380 380
376 376 376
300 300 300
304 304 304
308 308 308
320 320 320
328 328 328
336 336 336
340 340 340
348 348 348
356 356 356
360 360 360
376 376 376
388 388 388
392 392 392
396 396 396
408 408 408
412 412 412
408 408 408
372 372 372
376 376 376
380 380 380
380 380 380
388 388 388
388 388 388
400 400 400
404 404 404
400 400 400
404 404 404
404 404 404
416 416 416
432 432 432
436 436 436
440 440 440
444 444 444
444 444 444
432 432 432
436 436 436
436 436 436
440 440 440
440 440 440
444 444 444
444 444 444
448 448 448
452 452 452
456 456 456
456 456 456
464 464 464
468 468 468
476 476 476
480 480 480
468 468 468
456 456 456
488 488 488
488 488 488
488 488 488
484 484 484
488 488 488
492 492 492
496 496 496
496 496 496
496 496 496
500 500 500
504 504 504
500 500 500
496 496 496
508 508 508
508 508 508
512 512 512
508 508 508
536 536 536
536 536 536
536 536 536
532 532 532
528 528 528
532 532 532
536 536 536
540 540 540
544 544 544
540 540 540
540 540 540
540 540 540
540 540 540
536 536 536
532 532 532
540 540 540
544 544 544
592 592 592
592 592 592
592 592 592
592 592 592
592 592 592
592 592 592
588 588 588
580 580 580
580 580 580
588 588 588
584 584 584
580 580 580
580 580 580
576 576 576
548 548 548
536 536 536
556 556 556
652 652 652
652 652 652
648 648 648
648 648 648
648 648 648
648 648 648
644 644 644
628 628 628
624 624 624
620 620 620
628 628 628
628 628 628
620 620 620
616 616 616
616 616 616
608 608 608
608 608 608
716 716 716
716 716 716
712 712 712
712 712 712
708 708 708
704 704 704
696 696 696
696 696 696
692 692 692
688 688 688
680 680 680
672 672 672
672 672 672
668 668 668
660 660 660
656 656 656
660 660 660
780 780 780
780 780 780
780 780 780
776 776 776
768 768 768
760 760 760
752 752 752
744 744 744
740 740 740
744 744 744
740 740 740
720 720 720
700 700 700
688 688 688
696 696 696
696 696 696
688 688 688
824 824 824
824 824 824
824 824 824
820 820 820
816 816 816
808 808 808
796 796 796
788 788 788
776 776 776
768 768 768
764 764 764
756 756 756
748 748 748
740 740 740
728 728 728
728 728 728
728 728 728
856 856 856
856 856 856
852 852 852
848 848 848
844 844 844
840 840 840
832 832 832
828 828 828
820 820 820
808 808 808
788 788 788
772 772 772
764 764 764
776 776 776
752 752 752
732 732 732
732 732 732
876 876 876
876 876 876
872 872 872
868 868 868
856 856 856
840 840 840
832 832 832
832 832 832
828 828 828
824 824 824
812 812 812
784 784 784
764 764 764
768 768 768
772 772 772
756 756 756
748 748 748
24 24 24
32 32 32
44 44 44
44 44 44
52 52 52
72 72 72
96 96 96
120 120 120
148 148 148
172 172 172
192 192 192
212 212 212
232 232 232
240 240 240
252 252 252
264 264 264
272 272 272
68 68 68
72 72 72
84 84 84
88 88 88
88 88 88
100 100 100
116 116 116
144 144 144
172 172 172
192 192 192
212 212 212
232 232 232
248 248 248
256 256 256
268 268 268
276 276 276
