public/luts/黑白胶片 - Acros.Std.3dl
#DarkroomStore © 2019-2021 - 暗房商店
3DMESH
Mesh 4 10
0 64 128 192 256 320 384 448 512 576 640 704 768 832 896 960 1023
0 0 0
8 8 8
16 16 16
32 32 32
44 44 44
64 64 64
80 80 80
88 88 88
96 96 96
100 100 100
132 132 132
156 156 156
168 168 168
176 176 176
180 180 180
196 196 196
216 216 216
36 36 36
40 40 40
56 56 56
64 64 64
76 76 76
88 88 88
96 96 96
108 108 108
120 120 120
140 140 140
160 160 160
176 176 176
188 188 188
188 188 188
204 204 204
220 220 220
236 236 236
84 84 84
84 84 84
88 88 88
108 108 108
116 116 116
132 132 132
136 136 136
148 148 148
172 172 172
184 184 184
200 200 200
216 216 216
232 232 232
228 228 228
236 236 236
256 256 256
268 268 268
132 132 132
136 136 136
148 148 148
156 156 156
164 164 164
180 180 180
192 192 192
208 208 208
224 224 224
232 232 232
244 244 244
252 252 252
264 264 264
276 276 276
292 292 292
308 308 308
316 316 316
172 172 172
180 180 180
196 196 196
212 212 212
212 212 212
204 204 204
228 228 228
252 252 252
260 260 260
280 280 280
288 288 288
304 304 304
316 316 316
332 332 332
344 344 344
360 360 360
364 364 364
224 224 224
228 228 228
236 236 236
252 252 252
264 264 264
272 272 272
280 280 280
288 288 288
304 304 304
308 308 308
324 324 324
344 344 344
352 352 352
360 360 360
376 376 376
392 392 392
400 400 400
276 276 276
284 284 284
292 292 292
300 300 300
308 308 308
308 308 308
328 328 328
344 344 344
344 344 344
336 336 336
348 348 348
360 360 360
388 388 388
404 404 404
416 416 416
432 432 432
436 436 436
312 312 312
316 316 316
328 328 328
340 340 340
352 352 352
360 360 360
356 356 356
376 376 376
388 388 388
396 396 396
404 404 404
416 416 416
424 424 424
436 436 436
452 452 452
452 452 452
444 444 444
360 360 360
364 364 364
364 364 364
368 368 368
376 376 376
392 392 392
408 408 408
420 420 420
408 408 408
428 428 428
444 444 444
448 448 448
444 444 444
460 460 460
472 472 472
488 488 488
488 488 488
388 388 388
392 392 392
392 392 392
396 396 396
396 396 396
412 412 412
428 428 428
448 448 448
460 460 460
456 456 456
468 468 468
480 480 480
488 488 488
492 492 492
496 496 496
516 516 516
524 524 524
424 424 424
428 428 428
436 436 436
444 444 444
456 456 456
464 464 464
464 464 464
464 464 464
472 472 472
492 492 492
504 504 504
504 504 504
512 512 512
520 520 520
500 500 500
500 500 500
520 520 520
444 444 444
448 448 448
456 456 456
472 472 472
488 488 488
500 500 500
504 504 504
488 488 488
484 484 484
496 496 496
520 520 520
540 540 540
544 544 544
548 548 548
560 560 560
560 560 560
564 564 564
500 500 500
500 500 500
504 504 504
512 512 512
520 520 520
528 528 528
536 536 536
548 548 548
556 556 556
564 564 564
568 568 568
572 572 572
580 580 580
592 592 592
596 596 596
604 604 604
612 612 612
556 556 556
560 560 560
564 564 564
568 568 568
568 568 568
564 564 564
564 564 564
568 568 568
588 588 588
612 612 612
624 624 624
612 612 612
604 604 604
600 600 600
628 628 628
640 640 640
640 640 640
596 596 596
600 600 600
604 604 604
612 612 612
616 616 616
624 624 624
624 624 624
624 624 624
624 624 624
640 640 640
652 652 652
664 664 664
668 668 668
672 672 672
676 676 676
684 684 684
692 692 692
632 632 632
632 632 632
636 636 636
640 640 640
652 652 652
664 664 664
676 676 676
684 684 684
696 696 696
700 700 700
692 692 692
684 684 684
696 696 696
720 720 720
712 712 712
704 704 704
708 708 708
616 616 616
620 620 620
620 620 620
628 628 628
640 640 640
656 656 656
672 672 672
684 684 684
704 704 704
720 720 720
728 728 728
708 708 708
696 696 696
716 716 716
744 744 744
736 736 736
736 736 736
20 20 20
16 16 16
20 20 20
36 36 36
52 52 52
68 68 68
84 84 84
96 96 96
100 100 100
112 112 112
140 140 140
160 160 160
172 172 172
180 180 180
184 184 184
204 204 204
224 224 224
52 52 52
52 52 52
72 72 72
72 72 72
84 84 84
92 92 92
100 100 100
112 112 112
128 128 128
148 148 148
164 164 164
180 180 180
196 196 196
192 192 192
208 208 208
224 224 224
240 240 240
92 92 92
92 92 92
100 100 100
124 124 124
132 132 132
144 144 144
144 144 144
156 156 156
176 176 176
192 192 192
204 204 204
224 224 224
236 236 236
232 232 232
240 240 240
260 260 260
272 272 272
144 144 144
148 148 148
156 156 156
164 164 164
176 176 176
192 192 192
204 204 204
220 220 220
232 232 232
240 240 240
252 252 252
256 256 256
272 272 272
284 284 284
296 296 296
312 312 312
320 320 320
184 184 184
192 192 192
208 208 208
224 224 224
224 224 224
212 212 212
240 240 240
260 260 260
272 272 272
284 284 284
296 296 296
308 308 308
320 320 320
336 336 336
348 348 348
364 364 364
368 368 368
232 232 232
236 236 236
248 248 248
264 264 264
276 276 276
280 280 280
288 288 288
296 296 296
312 312 312
316 316 316
332 332 332
352 352 352
360 360 360
364 364 364
384 384 384
396 396 396
404 404 404
284 284 284
292 292 292
304 304 304
312 312 312
316 316 316
320 320 320
336 336 336
352 352 352
348 348 348
344 344 344
352 352 352
368 368 368
392 392 392
408 408 408
420 420 420
436 436 436
440 440 440
320 320 320
324 324 324
336 336 336
348 348 348
360 360 360
364 364 364
364 364 364
380 380 380
392 392 392
400 400 400
408 408 408
420 420 420
432 432 432
444 444 444
456 456 456
456 456 456
448 448 448
364 364 364
368 368 368
372 372 372
372 372 372
380 380 380
400 400 400
416 416 416
424 424 424
416 416 416
436 436 436
448 448 448
452 452 452
448 448 448
468 468 468
476 476 476
492 492 492
492 492 492
396 396 396
396 396 396
400 400 400
400 400 400
404 404 404
416 416 416
436 436 436
452 452 452
464 464 464
460 460 460
476 476 476
484 484 484
492 492 492
496 496 496
500 500 500
520 520 520
528 528 528
428 428 428
432 432 432
440 440 440
448 448 448
460 460 460
468 468 468
472 472 472
468 468 468
476 476 476
500 500 500
508 508 508
508 508 508
516 516 516
524 524 524
504 504 504
500 500 500
524 524 524
452 452 452
456 456 456
464 464 464
476 476 476
492 492 492
508 508 508
512 512 512
496 496 496
492 492 492
500 500 500
524 524 524
544 544 544
548 548 548
552 552 552
564 564 564
564 564 564
568 568 568
504 504 504
508 508 508
512 512 512
516 516 516
524 524 524
532 532 532
540 540 540
552 552 552
560 560 560
568 568 568
572 572 572
576 576 576
584 584 584
596 596 596
600 600 600
608 608 608
616 616 616
560 560 560
564 564 564
568 568 568
572 572 572
572 572 572
572 572 572
568 568 568
576 576 576
592 592 592
612 612 612
632 632 632
616 616 616
604 604 604
604 604 604
632 632 632
644 644 644
644 644 644
600 600 600
604 604 604
608 608 608
616 616 616
620 620 620
624 624 624
628 628 628
624 624 624
628 628 628
644 644 644
656 656 656
664 664 664
672 672 672
676 676 676
680 680 680
688 688 688
696 696 696
632 632 632
636 636 636
640 640 640
644 644 644
656 656 656
668 668 668
680 680 680
688 688 688
700 700 700
704 704 704
696 696 696
688 688 688
700 700 700
724 724 724
716 716 716
704 704 704
708 708 708
620 620 620
624 624 624
624 624 624
632 632 632
644 644 644
660 660 660
676 676 676
688 688 688
708 708 708
724 724 724
728 728 728
712 712 712
700 700 700
720 720 720
748 748 748
740 740 740
740 740 740
52 52 52
56 56 56
44 44 44
44 44 44
60 60 60
80 80 80
92 92 92
104 104 104
116 116 116
132 132 132
156 156 156
168 168 168
180 180 180
184 184 184
196 196 196
216 216 216
232 232 232
76 76 76
84 84 84
96 96 96
88 88 88
92 92 92
104 104 104
112 112 112
128 128 128
144 144 144
160 160 160
176 176 176
192 192 192
204 204 204
204 204 204
216 216 216
232 232 232
252 252 252
116 116 116
120 120 120
128 128 128
148 148 148
156 156 156
160 160 160
156 156 156
168 168 168
188 188 188
204 204 204
216 216 216
236 236 236
244 244 244
244 244 244
248 248 248
268 268 268
284 284 284
168 168 168
172 172 172
180 180 180
188 188 188
204 204 204
216 216 216
220 220 220
232 232 232
244 244 244
252 252 252
264 264 264
268 268 268
280 280 280
292 292 292
304 304 304
320 320 320
324 324 324
208 208 208
216 216 216
236 236 236
252 252 252
244 244 244
240 240 240
268 268 268
276 276 276
288 288 288
300 300 300
308 308 308
320 320 320
332 332 332
340 340 340
356 356 356
372 372 372
372 372 372
252 252 252
256 256 256
268 268 268
280 280 280
292 292 292
300 300 300
304 304 304
316 316 316
328 328 328
332 332 332
348 348 348
364 364 364
368 368 368
376 376 376
392 392 392
404 404 404
408 408 408
304 304 304
312 312 312
320 320 320
328 328 328
336 336 336
340 340 340
356 356 356
368 368 368
360 360 360
364 364 364
364 364 364
380 380 380
404 404 404
416 416 416
428 428 428
440 440 440
444 444 444
336 336 336
340 340 340
352 352 352
364 364 364
372 372 372
380 380 380
380 380 380
392 392 392
404 404 404
412 412 412
416 416 416
428 428 428
440 440 440
452 452 452
468 468 468
460 460 460
456 456 456
376 376 376
376 376 376
380 380 380
380 380 380
396 396 396
412 412 412
432 432 432
436 436 436
432 432 432
448 448 448
460 460 460
460 460 460
456 456 456
480 480 480
488 488 488
500 500 500
500 500 500
404 404 404
408 408 408
408 408 408
412 412 412
412 412 412
428 428 428
448 448 448
464 464 464
476 476 476
472 472 472
484 484 484
492 492 492
500 500 500
500 500 500
508 508 508
528 528 528
536 536 536
440 440 440
444 444 444
448 448 448
460 460 460
472 472 472
480 480 480
480 480 480
476 476 476
488 488 488
508 508 508
516 516 516
520 520 520
524 524 524
532 532 532
508 508 508
504 504 504
536 536 536
460 460 460
468 468 468
476 476 476
488 488 488
504 504 504
520 520 520
520 520 520
504 504 504
500 500 500
512 512 512
536 536 536
552 552 552
556 556 556
560 560 560
568 568 568
568 568 568
572 572 572
512 512 512
516 516 516
520 520 520
524 524 524
532 532 532
540 540 540
548 548 548
560 560 560
568 568 568
576 576 576
580 580 580
580 580 580
592 592 592
604 604 604
608 608 608
612 612 612
624 624 624
568 568 568
572 572 572
576 576 576
580 580 580
580 580 580
580 580 580
580 580 580
588 588 588
604 604 604
624 624 624
640 640 640
624 624 624
612 612 612
612 612 612
640 640 640
648 648 648
648 648 648
608 608 608
612 612 612
616 616 616
624 624 624
628 628 628
632 632 632
632 632 632
632 632 632
636 636 636
652 652 652
664 664 664
672 672 672
676 676 676
680 680 680
684 684 684
696 696 696
700 700 700
640 640 640
644 644 644
644 644 644
652 652 652
664 664 664
672 672 672
688 688 688
696 696 696
704 704 704
708 708 708
700 700 700
696 696 696
708 708 708
732 732 732
720 720 720
712 712 712
712 712 712
628 628 628
628 628 628
632 632 632
636 636 636
652 652 652
668 668 668
684 684 684
700 700 700
716 716 716
732 732 732
736 736 736
716 716 716
708 708 708
728 728 728
756 756 756
744 744 744
744 744 744
72 72 72
76 76 76
84 84 84
72 72 72
76 76 76
92 92 92
108 108 108
120 120 120
140 140 140
156 156 156
172 172 172
188 188 188
196 196 196
200 200 200
212 212 212
232 232 232
248 248 248
100 100 100
104 104 104
112 112 112
112 112 112
108 108 108
116 116 116
128 128 128
144 144 144
164 164 164
180 180 180
196 196 196
212 212 212
220 220 220
220 220 220
228 228 228
248 248 248
